; generated by PrusaSlicer 2.6.1+win64 on 2023-10-19 at 23:03:36 UTC


;
;
; 

; external perimeters extrusion width = 0.45mm
; perimeters extrusion width = 0.45mm
; infill extrusion width = 0.45mm
; solid infill extrusion width = 0.45mm
; top infill extrusion width = 0.40mm
; support material extrusion width = 0.35mm
; first layer extrusion width = 0.42mm

M73 P0 R70
M73 Q0 S72
M201 X1000 Y1000 Z200 E5000 ; sets maximum accelerations, mm/sec^2
M203 X200 Y200 Z12 E120 ; sets maximum feedrates, mm / sec
M204 S1250 T1250 ; sets acceleration (S) and retract acceleration (R), mm/sec^2
M205 X8.00 Y8.00 Z0.40 E4.50 ; sets the jerk limits, mm/sec
M205 S0 T0 ; sets the minimum extruding and travel feed rate, mm/sec
;TYPE:Custom
M862.3 P "MK3S" ; printer model check
M862.1 P0.4 ; nozzle diameter check
M115 U3.13.0 ; tell printer latest fw version
G90 ; use absolute coordinates
M83 ; extruder relative mode
M104 S215 ; set extruder temp
M140 S60 ; set bed temp
M190 S60 ; wait for bed temp
M109 S215 ; wait for extruder temp
G28 W ; home all without mesh bed level
G80 ; mesh bed leveling

G1 Z0.2 F720
G1 Y-3 F1000 ; go outside print area
G92 E0
G1 X60 E9 F1000 ; intro line
G1 X100 E12.5 F1000 ; intro line

G92 E0
M221 S95

; Don't change E values below. Excessive value can damage the printer.

M907 E538 ; set extruder motor current
G21 ; set units to millimeters
G90 ; use absolute coordinates
M83 ; use relative distances for extrusion
M900 K0.05 ; Filament gcode LA 1.5
M900 K30 ; Filament gcode LA 1.0
M107
;LAYER_CHANGE
;Z:0.2
;HEIGHT:0.2
;BEFORE_LAYER_CHANGE
G92 E0.0
;0.2


G1 E-.8 F2100
G1 Z.4 F720
;AFTER_LAYER_CHANGE
;0.2
G1 X93.073 Y93.073 F10800
G1 Z.2 F720
G1 E.8 F2100
M204 S800
;TYPE:Skirt/Brim
;WIDTH:0.42
G1 F1200
G1 X115.762 Y70.384 E1.00607
G1 X117.442 Y69.687 E.05703
G1 X132.558 Y69.687 E.47395
G1 X134.238 Y70.384 E.05703
G1 X159.616 Y95.762 E1.1253
G1 X160.313 Y97.442 E.05703
G1 X160.313 Y112.558 E.47395
G1 X159.616 Y114.238 E.05703
G1 X134.238 Y139.616 E1.1253
G1 X132.558 Y140.313 E.05703
G1 X117.442 Y140.313 E.47395
G1 X115.762 Y139.616 E.05703
G1 X90.384 Y114.238 E1.1253
G1 X89.687 Y112.558 E.05703
G1 X89.687 Y97.442 E.47395
G1 X90.384 Y95.762 E.05703
G1 X93.03 Y93.115 E.11735
M204 S1000
; printing object Bevel Gear 2023 motor side.STL id:0 copy 0
;WIPE_START
G1 F8640
G1 X95.48 Y90.665 E-.8
;WIPE_END
G1 Z.6 F720
G1 X100.458 Y98.941 F10800
G1 Z.2 F720
G1 E.8 F2100
M204 S800
;TYPE:Support material
G1 F1200
G1 X100.05 Y100.935 E.06382
G1 X99.804 Y102.956 E.06383
M73 Q0 S71
G1 X99.721 Y105.01 E.06445
G1 X99.802 Y107.024 E.0632
G1 X100.047 Y109.046 E.06386
G1 X100.453 Y111.04 E.0638
G1 X100.892 Y112.558 E.04955
G1 X92.065 Y112.558 E.27676
G1 X92.065 Y97.442 E.47395
G1 X100.892 Y97.442 E.27676
G1 X100.473 Y98.887 E.04717
M204 S1000
;WIPE_START
G1 F8640
G1 X100.892 Y97.442 E-.3474
G1 X98.932 Y97.442 E-.4526
;WIPE_END
G1 Z.6 F720
G1 X100.28 Y112.388 F10800
G1 Z.2 F720
G1 E.8 F2100
M204 S800
G1 F1200
G1 X100.28 Y111.667 E.02261
G1 X100.122 Y111.115 E.018
G1 X99.861 Y109.839 E.04084
G1 X99.861 Y112.218 E.07459
G1 X99.442 Y112.218 E.01314
G1 X99.442 Y97.782 E.45263
G1 X99.861 Y97.782 E.01314
G1 X99.861 Y100.161 E.07459
G1 X100.122 Y98.885 E.04084
G1 X100.28 Y98.333 E.018
G1 X100.28 Y97.612 E.02261
M204 S1000
G1 X99.023 Y112.388 F10800
M204 S800
G1 F1200
G1 X99.023 Y97.782 E.45796
G1 X98.604 Y97.782 E.01314
G1 X98.604 Y112.218 E.45263
G1 X98.185 Y112.218 E.01314
G1 X98.185 Y97.782 E.45263
G1 X97.766 Y97.782 E.01314
G1 X97.766 Y112.218 E.45263
G1 X97.348 Y112.218 E.01311
G1 X97.348 Y97.782 E.45263
G1 X96.929 Y97.782 E.01314
G1 X96.929 Y112.218 E.45263
G1 X96.51 Y112.218 E.01314
G1 X96.51 Y97.782 E.45263
G1 X96.091 Y97.782 E.01314
G1 X96.091 Y112.218 E.45263
G1 X95.672 Y112.218 E.01314
M73 P0 R69
G1 X95.672 Y97.782 E.45263
G1 X95.253 Y97.782 E.01314
G1 X95.253 Y112.218 E.45263
G1 X94.834 Y112.218 E.01314
G1 X94.834 Y97.782 E.45263
G1 X94.415 Y97.782 E.01314
G1 X94.415 Y112.218 E.45263
G1 X93.996 Y112.218 E.01314
G1 X93.996 Y97.782 E.45263
G1 X93.577 Y97.782 E.01314
G1 X93.577 Y112.218 E.45263
G1 X93.158 Y112.218 E.01314
G1 X93.158 Y97.782 E.45263
G1 X92.739 Y97.782 E.01314
G1 X92.739 Y112.388 E.45796
M204 S1000
;WIPE_START
G1 F8640
G1 X92.739 Y108.923 E-.8
;WIPE_END
G1 Z.6 F720
G1 X132.558 Y137.935 F10800
G1 Z.2 F720
G1 E.8 F2100
M204 S800
G1 F1200
G1 X117.442 Y137.935 E.47395
G1 X117.442 Y129.106 E.27683
G1 X117.976 Y129.284 E.01765
G1 X119.934 Y129.766 E.06322
G1 X121.943 Y130.094 E.06382
G1 X123.972 Y130.258 E.06383
G1 X126.008 Y130.259 E.06384
G1 X128.037 Y130.096 E.06382
G1 X130.047 Y129.77 E.06385
G1 X132.024 Y129.284 E.06383
G1 X132.558 Y129.106 E.01765
G1 X132.558 Y137.879 E.27507
M204 S1000
G1 X132.123 Y137.766 F10800
M204 S800
G1 F1200
G1 X132.123 Y129.609 E.25576
G1 X131.704 Y129.712 E.01353
G1 X131.704 Y137.596 E.2472
G1 X131.285 Y137.596 E.01314
G1 X131.285 Y129.816 E.24394
G1 X130.866 Y129.919 E.01353
G1 X130.866 Y137.596 E.24071
G1 X130.447 Y137.596 E.01314
G1 X130.447 Y130.022 E.23748
G1 X130.028 Y130.117 E.01347
G1 X130.028 Y137.596 E.2345
G1 X129.609 Y137.596 E.01314
G1 X129.609 Y130.185 E.23237
G1 X129.19 Y130.253 E.01331
G1 X129.19 Y137.596 E.23023
G1 X128.771 Y137.596 E.01314
G1 X128.771 Y130.321 E.2281
G1 X128.352 Y130.39 E.01331
G1 X128.352 Y137.596 E.22594
G1 X127.933 Y137.596 E.01314
M73 P1 R69
G1 X127.933 Y130.445 E.22421
G1 X127.514 Y130.479 E.01318
M73 Q1 S71
G1 X127.514 Y137.596 E.22315
G1 X127.095 Y137.596 E.01314
G1 X127.095 Y130.513 E.22208
G1 X126.676 Y130.546 E.01318
G1 X126.676 Y137.596 E.22105
G1 X126.257 Y137.596 E.01314
G1 X126.257 Y130.58 E.21998
G1 X125.838 Y130.598 E.01315
G1 X125.838 Y137.596 E.21942
G1 X125.419 Y137.596 E.01314
G1 X125.419 Y130.598 E.21942
G1 X125 Y130.598 E.01314
G1 X125 Y137.596 E.21942
G1 X124.581 Y137.596 E.01314
G1 X124.581 Y130.598 E.21942
G1 X124.162 Y130.598 E.01314
G1 X124.162 Y137.596 E.21942
G1 X123.743 Y137.596 E.01314
G1 X123.743 Y130.58 E.21998
G1 X123.324 Y130.546 E.01318
G1 X123.324 Y137.596 E.22105
G1 X122.905 Y137.596 E.01314
G1 X122.905 Y130.513 E.22208
G1 X122.486 Y130.479 E.01318
G1 X122.486 Y137.596 E.22315
G1 X122.067 Y137.596 E.01314
G1 X122.067 Y130.445 E.22421
G1 X121.648 Y130.39 E.01325
G1 X121.648 Y137.596 E.22594
G1 X121.229 Y137.596 E.01314
G1 X121.229 Y130.321 E.2281
G1 X120.81 Y130.253 E.01331
G1 X120.81 Y137.596 E.23023
G1 X120.391 Y137.596 E.01314
G1 X120.391 Y130.185 E.23237
G1 X119.972 Y130.117 E.01331
G1 X119.972 Y137.596 E.2345
G1 X119.553 Y137.596 E.01314
G1 X119.553 Y130.022 E.23748
G1 X119.134 Y129.919 E.01353
G1 X119.134 Y137.596 E.24071
G1 X118.715 Y137.596 E.01314
G1 X118.715 Y129.816 E.24394
G1 X118.296 Y129.712 E.01354
G1 X118.296 Y137.596 E.2472
G1 X117.877 Y137.596 E.01314
G1 X117.877 Y129.431 E.25601
M204 S1000
;WIPE_START
G1 F8640
G1 X117.877 Y132.896 E-.8
;WIPE_END
G1 Z.6 F720
G1 X157.935 Y112.558 F10800
G1 Z.2 F720
G1 E.8 F2100
M204 S800
G1 F1200
G1 X149.108 Y112.558 E.27676
G1 X149.547 Y111.04 E.04955
G1 X149.953 Y109.046 E.0638
G1 X150.196 Y107.044 E.06323
G1 X150.279 Y105.01 E.06383
G1 X150.198 Y102.976 E.06383
G1 X149.953 Y100.954 E.06386
G1 X149.547 Y98.96 E.0638
G1 X149.108 Y97.442 E.04955
G1 X157.935 Y97.442 E.27676
G1 X157.935 Y112.501 E.47216
M204 S1000
G1 X157.261 Y112.388 F10800
M204 S800
G1 F1200
G1 X157.261 Y97.782 E.45796
G1 X156.842 Y97.782 E.01314
G1 X156.842 Y112.218 E.45263
G1 X156.423 Y112.218 E.01314
G1 X156.423 Y97.782 E.45263
G1 X156.004 Y97.782 E.01314
G1 X156.004 Y112.218 E.45263
G1 X155.585 Y112.218 E.01314
G1 X155.585 Y97.782 E.45263
G1 X155.166 Y97.782 E.01314
G1 X155.166 Y112.218 E.45263
G1 X154.747 Y112.218 E.01314
G1 X154.747 Y97.782 E.45263
G1 X154.328 Y97.782 E.01314
G1 X154.328 Y112.218 E.45263
G1 X153.909 Y112.218 E.01314
G1 X153.909 Y97.782 E.45263
G1 X153.49 Y97.782 E.01314
G1 X153.49 Y112.218 E.45263
G1 X153.071 Y112.218 E.01314
G1 X153.071 Y97.782 E.45263
G1 X152.652 Y97.782 E.01314
G1 X152.652 Y112.218 E.45263
G1 X152.234 Y112.218 E.01311
G1 X152.234 Y97.782 E.45263
G1 X151.815 Y97.782 E.01314
G1 X151.815 Y112.218 E.45263
G1 X151.396 Y112.218 E.01314
G1 X151.396 Y97.782 E.45263
G1 X150.977 Y97.782 E.01314
G1 X150.977 Y112.218 E.45263
G1 X150.558 Y112.218 E.01314
G1 X150.558 Y97.782 E.45263
G1 X150.139 Y97.782 E.01314
G1 X150.139 Y100.161 E.07459
G1 X149.878 Y98.885 E.04084
G1 X149.72 Y98.333 E.018
G1 X149.72 Y97.612 E.02261
M204 S1000
;WIPE_START
G1 F8640
G1 X149.72 Y98.333 E-.16648
G1 X149.878 Y98.885 E-.13258
G1 X150.139 Y100.161 E-.30073
G1 X150.139 Y99.294 E-.20021
;WIPE_END
G1 Z.6 F720
G1 X150.139 Y112.388 F10800
G1 Z.2 F720
G1 E.8 F2100
M204 S800
G1 F1200
G1 X150.139 Y109.839 E.07992
G1 X149.878 Y111.115 E.04084
G1 X149.72 Y111.667 E.018
G1 X149.72 Y112.388 E.02261
M204 S1000
;WIPE_START
G1 F8640
G1 X149.72 Y111.667 E-.16648
G1 X149.878 Y111.115 E-.13258
G1 X150.139 Y109.839 E-.30073
G1 X150.139 Y110.706 E-.20021
;WIPE_END
G1 Z.6 F720
G1 X132.558 Y80.894 F10800
G1 Z.2 F720
G1 E.8 F2100
M204 S800
G1 F1200
G1 X132.024 Y80.716 E.01765
G1 X130.047 Y80.23 E.06383
G1 X128.037 Y79.904 E.06385
G1 X126.008 Y79.741 E.06382
G1 X123.972 Y79.742 E.06384
G1 X121.943 Y79.906 E.06383
G1 X119.934 Y80.234 E.06382
G1 X117.976 Y80.716 E.06322
G1 X117.442 Y80.894 E.01765
G1 X117.442 Y72.065 E.27683
G1 X132.558 Y72.065 E.47395
G1 X132.558 Y80.837 E.27504
M204 S1000
G1 X132.123 Y80.569 F10800
M204 S800
G1 F1200
G1 X132.123 Y72.404 E.25601
G1 X131.704 Y72.404 E.01314
G1 X131.704 Y80.288 E.2472
G1 X131.285 Y80.184 E.01354
G1 X131.285 Y72.404 E.24394
G1 X130.866 Y72.404 E.01314
G1 X130.866 Y80.081 E.24071
G1 X130.447 Y79.978 E.01353
G1 X130.447 Y72.404 E.23748
G1 X130.028 Y72.404 E.01314
G1 X130.028 Y79.883 E.2345
G1 X129.609 Y79.815 E.01331
G1 X129.609 Y72.404 E.23237
G1 X129.19 Y72.404 E.01314
G1 X129.19 Y79.747 E.23023
G1 X128.771 Y79.679 E.01331
G1 X128.771 Y72.404 E.2281
G1 X128.352 Y72.404 E.01314
G1 X128.352 Y79.61 E.22594
G1 X127.933 Y79.555 E.01325
G1 X127.933 Y72.404 E.22421
G1 X127.514 Y72.404 E.01314
G1 X127.514 Y79.521 E.22315
G1 X127.095 Y79.487 E.01318
G1 X127.095 Y72.404 E.22208
G1 X126.676 Y72.404 E.01314
M73 Q1 S70
G1 X126.676 Y79.454 E.22105
G1 X126.257 Y79.42 E.01318
G1 X126.257 Y72.404 E.21998
G1 X125.838 Y72.404 E.01314
G1 X125.838 Y79.402 E.21942
G1 X125.419 Y79.402 E.01314
G1 X125.419 Y72.404 E.21942
G1 X125 Y72.404 E.01314
G1 X125 Y79.402 E.21942
G1 X124.581 Y79.402 E.01314
G1 X124.581 Y72.404 E.21942
G1 X124.162 Y72.404 E.01314
G1 X124.162 Y79.402 E.21942
G1 X123.743 Y79.42 E.01315
G1 X123.743 Y72.404 E.21998
G1 X123.324 Y72.404 E.01314
G1 X123.324 Y79.454 E.22105
G1 X122.905 Y79.487 E.01318
G1 X122.905 Y72.404 E.22208
G1 X122.486 Y72.404 E.01314
G1 X122.486 Y79.521 E.22315
G1 X122.067 Y79.555 E.01318
G1 X122.067 Y72.404 E.22421
G1 X121.648 Y72.404 E.01314
G1 X121.648 Y79.61 E.22594
G1 X121.229 Y79.679 E.01331
G1 X121.229 Y72.404 E.2281
G1 X120.81 Y72.404 E.01314
G1 X120.81 Y79.747 E.23023
G1 X120.391 Y79.815 E.01331
G1 X120.391 Y72.404 E.23237
G1 X119.972 Y72.404 E.01314
M73 P2 R69
G1 X119.972 Y79.883 E.2345
G1 X119.553 Y79.978 E.01347
G1 X119.553 Y72.404 E.23748
G1 X119.134 Y72.404 E.01314
G1 X119.134 Y80.081 E.24071
G1 X118.715 Y80.184 E.01353
G1 X118.715 Y72.404 E.24394
G1 X118.296 Y72.404 E.01314
M73 Q2 S70
G1 X118.296 Y80.288 E.2472
G1 X117.877 Y80.392 E.01354
G1 X117.877 Y72.234 E.25579
M204 S1000
;WIPE_START
G1 F8640
G1 X117.877 Y75.699 E-.8
;WIPE_END
G1 Z.6 F720
G1 X148.762 Y108.342 F10800
G1 Z.2 F720
G1 E.8 F2100
M204 S800
;TYPE:Perimeter
;WIDTH:0.419999
G1 F1200
G1 X148.701 Y108.852 E.0161
G1 X148.314 Y110.746 E.06061
G1 X147.776 Y112.604 E.06065
G1 X147.09 Y114.412 E.06063
G1 X146.261 Y116.159 E.06063
G1 X145.294 Y117.833 E.06061
G1 X144.196 Y119.425 E.06064
G1 X142.973 Y120.923 E.06063
G1 X141.633 Y122.317 E.06063
G1 X140.186 Y123.599 E.06061
G1 X138.64 Y124.761 E.06064
G1 X137.006 Y125.795 E.06063
G1 X135.294 Y126.693 E.06061
M73 P2 R68
G1 X133.515 Y127.451 E.06063
G1 X131.68 Y128.063 E.06065
G1 X129.803 Y128.526 E.06062
G1 X127.894 Y128.836 E.06064
G1 X125.967 Y128.992 E.06062
G1 X124.033 Y128.992 E.06064
G1 X122.106 Y128.836 E.06062
G1 X120.197 Y128.526 E.06064
G1 X118.32 Y128.063 E.06062
G1 X116.485 Y127.451 E.06065
G1 X114.706 Y126.693 E.06063
G1 X112.994 Y125.795 E.06061
G1 X111.36 Y124.761 E.06063
G1 X109.814 Y123.599 E.06064
G1 X108.367 Y122.317 E.06061
G1 X107.027 Y120.923 E.06063
G1 X105.804 Y119.425 E.06063
G1 X104.706 Y117.833 E.06064
G1 X103.739 Y116.159 E.06061
G1 X102.91 Y114.412 E.06063
G1 X102.224 Y112.604 E.06063
G1 X101.686 Y110.746 E.06065
G1 X101.299 Y108.852 E.06061
G1 X101.066 Y106.932 E.06064
G1 X100.989 Y105 E.06062
G1 X101.066 Y103.068 E.06062
G1 X101.299 Y101.148 E.06064
G1 X101.686 Y99.254 E.06061
G1 X102.224 Y97.396 E.06065
G1 X102.91 Y95.588 E.06063
G1 X103.739 Y93.841 E.06063
G1 X104.706 Y92.167 E.06061
G1 X105.804 Y90.575 E.06064
G1 X107.027 Y89.077 E.06063
G1 X108.367 Y87.683 E.06063
G1 X109.814 Y86.401 E.06061
G1 X111.36 Y85.239 E.06064
G1 X112.994 Y84.205 E.06063
G1 X114.706 Y83.307 E.06061
G1 X116.485 Y82.549 E.06063
G1 X118.32 Y81.937 E.06065
G1 X120.197 Y81.474 E.06062
G1 X122.106 Y81.164 E.06064
G1 X124.033 Y81.008 E.06062
G1 X125.967 Y81.008 E.06064
G1 X127.894 Y81.164 E.06062
G1 X129.803 Y81.474 E.06064
G1 X131.68 Y81.937 E.06062
G1 X133.515 Y82.549 E.06065
G1 X135.294 Y83.307 E.06063
G1 X137.006 Y84.205 E.06061
G1 X138.64 Y85.239 E.06063
G1 X140.186 Y86.401 E.06064
G1 X141.633 Y87.683 E.06061
G1 X142.973 Y89.077 E.06063
G1 X144.196 Y90.575 E.06063
G1 X145.294 Y92.167 E.06064
G1 X146.261 Y93.841 E.06061
G1 X147.09 Y95.588 E.06063
G1 X147.776 Y97.396 E.06063
G1 X148.314 Y99.254 E.06065
G1 X148.701 Y101.148 E.06061
G1 X148.934 Y103.068 E.06064
G1 X148.996 Y104.605 E.04823
G1 X148.996 Y105.395 E.02477
G1 X148.934 Y106.932 E.04823
G1 X148.77 Y108.282 E.04264
M204 S1000
G1 X149.137 Y108.387 F10800
M204 S800
;TYPE:External perimeter
G1 F1200
G1 X149.073 Y108.912 E.01658
G1 X148.68 Y110.837 E.0616
G1 X148.134 Y112.723 E.06156
G1 X147.437 Y114.56 E.0616
G1 X146.595 Y116.334 E.06157
G1 X145.613 Y118.035 E.06158
G1 X144.497 Y119.651 E.06158
G1 X143.255 Y121.173 E.06159
G1 X141.895 Y122.589 E.06156
G1 X140.425 Y123.892 E.06159
G1 X138.854 Y125.072 E.0616
G1 X137.194 Y126.121 E.06157
G1 X135.455 Y127.034 E.06158
G1 X133.648 Y127.804 E.06159
G1 X131.785 Y128.426 E.06158
G1 X129.878 Y128.896 E.06158
G1 X127.94 Y129.211 E.06156
G1 X125.982 Y129.369 E.06159
G1 X124.018 Y129.369 E.06158
G1 X122.06 Y129.211 E.06159
G1 X120.122 Y128.896 E.06156
G1 X118.215 Y128.426 E.06158
G1 X116.352 Y127.804 E.06158
G1 X114.545 Y127.034 E.06159
G1 X112.806 Y126.121 E.06158
G1 X111.146 Y125.072 E.06157
G1 X109.575 Y123.892 E.0616
G1 X108.105 Y122.589 E.06159
G1 X106.745 Y121.173 E.06156
G1 X105.503 Y119.651 E.06159
G1 X104.387 Y118.035 E.06158
G1 X103.405 Y116.334 E.06158
G1 X102.563 Y114.56 E.06157
G1 X101.866 Y112.723 E.0616
G1 X101.32 Y110.837 E.06156
G1 X100.927 Y108.912 E.0616
G1 X100.69 Y106.962 E.06159
G1 X100.611 Y105 E.06157
G1 X100.69 Y103.038 E.06157
G1 X100.927 Y101.088 E.06159
G1 X101.32 Y99.163 E.0616
G1 X101.866 Y97.277 E.06156
G1 X102.563 Y95.44 E.0616
G1 X103.405 Y93.666 E.06157
G1 X104.387 Y91.965 E.06158
G1 X105.503 Y90.349 E.06158
G1 X106.745 Y88.827 E.06159
G1 X108.105 Y87.411 E.06156
G1 X109.575 Y86.108 E.06159
G1 X111.146 Y84.928 E.0616
G1 X112.806 Y83.879 E.06157
G1 X114.545 Y82.966 E.06158
G1 X116.352 Y82.196 E.06159
G1 X118.215 Y81.574 E.06158
G1 X120.122 Y81.104 E.06158
G1 X122.06 Y80.789 E.06156
G1 X124.018 Y80.631 E.06159
G1 X125.982 Y80.631 E.06158
G1 X127.94 Y80.789 E.06159
G1 X129.878 Y81.104 E.06156
G1 X131.785 Y81.574 E.06158
G1 X133.648 Y82.196 E.06158
G1 X135.455 Y82.966 E.06159
G1 X137.194 Y83.879 E.06158
G1 X138.854 Y84.928 E.06157
G1 X140.425 Y86.108 E.0616
G1 X141.895 Y87.411 E.06159
G1 X143.255 Y88.827 E.06156
G1 X144.497 Y90.349 E.06159
G1 X145.613 Y91.965 E.06158
G1 X146.595 Y93.666 E.06158
G1 X147.437 Y95.44 E.06157
G1 X148.134 Y97.277 E.0616
G1 X148.68 Y99.163 E.06156
G1 X149.073 Y101.088 E.0616
G1 X149.31 Y103.038 E.06159
G1 X149.372 Y104.59 E.0487
G1 X149.372 Y105.41 E.02571
