; generated by PrusaSlicer 2.6.1+win64 on 2024-01-25 at 19:09:44 UTC


;
;
; 

; external perimeters extrusion width = 0.45mm
; perimeters extrusion width = 0.45mm
; infill extrusion width = 0.45mm
; solid infill extrusion width = 0.45mm
; top infill extrusion width = 0.40mm
; first layer extrusion width = 0.42mm

M73 P0 R18
M73 Q0 S18
M201 X1000 Y1000 Z200 E5000 ; sets maximum accelerations, mm/sec^2
M203 X200 Y200 Z12 E120 ; sets maximum feedrates, mm / sec
M204 S1250 T1250 ; sets acceleration (S) and retract acceleration (R), mm/sec^2
M205 X8.00 Y8.00 Z0.40 E4.50 ; sets the jerk limits, mm/sec
M205 S0 T0 ; sets the minimum extruding and travel feed rate, mm/sec
;TYPE:Custom
M862.3 P "MK3S" ; printer model check
M862.1 P0.4 ; nozzle diameter check
M115 U3.13.0 ; tell printer latest fw version
G90 ; use absolute coordinates
M83 ; extruder relative mode
M104 S215 ; set extruder temp
M140 S60 ; set bed temp
M190 S60 ; wait for bed temp
M109 S215 ; wait for extruder temp
G28 W ; home all without mesh bed level
G80 ; mesh bed leveling

G1 Z0.2 F720
G1 Y-3 F1000 ; go outside print area
G92 E0
G1 X60 E9 F1000 ; intro line
G1 X100 E12.5 F1000 ; intro line

G92 E0
M221 S95

; Don't change E values below. Excessive value can damage the printer.
M907 E430 ; set extruder motor current
G21 ; set units to millimeters
G90 ; use absolute coordinates
M83 ; use relative distances for extrusion
M900 K0.05 ; Filament gcode LA 1.5
M900 K30 ; Filament gcode LA 1.0
M107
;LAYER_CHANGE
;Z:0.2
;HEIGHT:0.2
;BEFORE_LAYER_CHANGE
G92 E0.0
;0.2


G1 E-.8 F2100
G1 Z.4 F720
;AFTER_LAYER_CHANGE
;0.2
G1 X94.657 Y97.421 F10800
G1 Z.2 F720
G1 E.8 F2100
M204 S800
;TYPE:Skirt/Brim
;WIDTH:0.42
G1 F1200
G1 X95.517 Y96.647 E.03628
G1 X96.82 Y95.849 E.04791
G1 X97.545 Y95.549 E.0246
G1 X98.663 Y95.25 E.03629
G1 X100 Y95.123 E.04211
G1 X155 Y95.123 E1.72449
G1 X156.307 Y95.515 E.04278
G1 X157.183 Y96.56 E.04275
G1 X157.377 Y97.5 E.03009
G1 X157.377 Y112.5 E.47031
G1 X156.985 Y113.807 E.04278
M73 P1 R18
M73 Q1 S18
G1 X155.94 Y114.683 E.04275
G1 X155 Y114.877 E.03009
G1 X100 Y114.877 E1.72449
G1 X99.031 Y114.808 E.03046
G1 X97.9 Y114.567 E.03626
G1 X96.82 Y114.151 E.03629
G1 X95.819 Y113.572 E.03626
G1 X94.921 Y112.843 E.03627
G1 X94.147 Y111.983 E.03628
G1 X93.518 Y111.012 E.03627
G1 X93.049 Y109.955 E.03626
G1 X92.75 Y108.837 E.03629
G1 X92.623 Y107.5 E.04211
G1 X92.63 Y102.314 E.1626
G1 X92.692 Y101.531 E.02463
G1 X92.93 Y100.415 E.03578
G1 X93.349 Y99.32 E.03676
G1 X94.147 Y98.017 E.04791
G1 X94.618 Y97.466 E.02273
M204 S1000
; printing object Hexshaft Connection Test Piece.STL id:0 copy 0
;WIPE_START
G1 F8640
G1 X95.517 Y96.647 E-.28081
G1 X96.82 Y95.849 E-.35281
G1 X97.486 Y95.573 E-.16638
;WIPE_END
G1 Z.6 F720
G1 X154.213 Y111.713 F10800
G1 Z.2 F720
G1 E.8 F2100
M204 S800
;TYPE:Perimeter
;WIDTH:0.419999
G1 F1200
G1 X100.031 Y111.713 E1.69884
G1 X99.341 Y111.659 E.0217
G1 X98.699 Y111.504 E.02071
G1 X98.088 Y111.252 E.02072
G1 X97.525 Y110.906 E.02072
G1 X97.023 Y110.477 E.0207
G1 X96.594 Y109.975 E.0207
G1 X96.248 Y109.412 E.02072
G1 X95.996 Y108.801 E.02072
G1 X95.841 Y108.159 E.02071
G1 X95.787 Y107.469 E.0217
G1 X95.787 Y102.531 E.15483
G1 X95.841 Y101.841 E.0217
G1 X95.996 Y101.199 E.02071
G1 X96.248 Y100.588 E.02072
G1 X96.594 Y100.025 E.02072
G1 X97.023 Y99.523 E.0207
G1 X97.525 Y99.094 E.0207
G1 X98.088 Y98.748 E.02072
G1 X98.699 Y98.496 E.02072
G1 X99.341 Y98.341 E.02071
G1 X100.031 Y98.287 E.0217
G1 X154.213 Y98.287 E1.69884
G1 X154.213 Y111.653 E.41908
M204 S1000
M73 P2 R18
M73 Q2 S18
G1 X154.59 Y112.09 F10800
M204 S800
;TYPE:External perimeter
G1 F1200
G1 X100.016 Y112.09 E1.71113
G1 X99.282 Y112.032 E.02309
G1 X98.582 Y111.864 E.02257
G1 X97.917 Y111.589 E.02256
G1 X97.303 Y111.212 E.02259
G1 X96.755 Y110.745 E.02257
G1 X96.288 Y110.197 E.02257
G1 X95.911 Y109.583 E.02259
G1 X95.636 Y108.918 E.02256
G1 X95.468 Y108.218 E.02257
G1 X95.41 Y107.484 E.02309
G1 X95.41 Y102.516 E.15577
G1 X95.468 Y101.782 E.02309
G1 X95.636 Y101.082 E.02257
G1 X95.911 Y100.417 E.02256
G1 X96.288 Y99.803 E.02259
G1 X96.755 Y99.255 E.02257
G1 X97.303 Y98.788 E.02257
G1 X97.917 Y98.411 E.02259
G1 X98.582 Y98.136 E.02256
G1 X99.282 Y97.968 E.02257
G1 X100.016 Y97.91 E.02309
G1 X154.59 Y97.91 E1.71113
G1 X154.59 Y112.03 E.44272
M204 S1000
M73 P2 R17
G1 X154.191 Y112.056 F10800
;WIPE_START
G1 F8640
G1 X151.125 Y112.034 E-.8
;WIPE_END
G1 Z.6 F720
G1 X144.394 Y105.04 F10800
G1 Z.2 F720
G1 E.8 F2100
M204 S800
;TYPE:Perimeter
G1 F1200
G1 X144.345 Y105.366 E.01034
G1 X144.29 Y105.499 E.00451
G1 X142.577 Y108.465 E.10739
G1 X142.279 Y108.773 E.01344
G1 X142.027 Y108.906 E.00893
G1 X141.713 Y108.965 E.01002
G1 X138.287 Y108.965 E.10742
G1 X137.973 Y108.906 E.01002
G1 X137.721 Y108.773 E.00893
G1 X137.423 Y108.465 E.01344
G1 X135.71 Y105.499 E.10739
G1 X135.582 Y105.084 E.01362
G1 X135.648 Y104.662 E.01339
G1 X135.917 Y104.143 E.01833
G1 X137.423 Y101.535 E.09443
G1 X137.721 Y101.227 E.01344
G1 X137.973 Y101.094 E.00893
G1 X138.287 Y101.035 E.01002
G1 X141.713 Y101.035 E.10742
G1 X142.027 Y101.094 E.01002
G1 X142.279 Y101.227 E.00893
G1 X142.577 Y101.535 E.01344
G1 X144.29 Y104.501 E.10739
G1 X144.416 Y104.896 E.013
G1 X144.403 Y104.98 E.00267
M204 S1000
G1 X144.039 Y105.006 F10800
M204 S800
;TYPE:External perimeter
G1 F1200
G1 X143.963 Y105.311 E.00986
G1 X142.251 Y108.277 E.10738
G1 X142.025 Y108.495 E.00985
G1 X141.713 Y108.587 E.0102
G1 X138.287 Y108.587 E.10742
G1 X137.975 Y108.495 E.0102
G1 X137.749 Y108.277 E.00985
G1 X136.037 Y105.31 E.1074
G1 X135.957 Y105.051 E.0085
G1 X136.037 Y104.689 E.01162
G1 X137.749 Y101.723 E.10738
G1 X137.975 Y101.505 E.00985
G1 X138.287 Y101.413 E.0102
M73 Q3 S18
G1 X141.713 Y101.413 E.10742
G1 X142.025 Y101.505 E.0102
M73 Q3 S17
G1 X142.251 Y101.723 E.00985
G1 X143.963 Y104.69 E.1074
G1 X144.025 Y104.948 E.00832
M204 S1000
M73 P3 R17
G1 X144.311 Y105.162 F10800
;WIPE_START
G1 F8640
G1 X143.963 Y105.311 E-.08503
G1 X142.415 Y107.993 E-.71497
;WIPE_END
G1 Z.6 F720
G1 X129.469 Y105.097 F10800
G1 Z.2 F720
G1 E.8 F2100
M204 S800
;TYPE:Perimeter
G1 F1200
G1 X129.414 Y105.379 E.00901
G1 X129.155 Y105.857 E.01705
G1 X127.613 Y108.528 E.0967
G1 X127.315 Y108.836 E.01344
G1 X127.063 Y108.969 E.00893
G1 X126.749 Y109.027 E.01001
G1 X123.251 Y109.027 E.10968
G1 X122.937 Y108.969 E.01001
G1 X122.685 Y108.836 E.00893
G1 X122.387 Y108.528 E.01344
G1 X120.638 Y105.499 E.10967
G1 X120.521 Y105.087 E.01343
G1 X120.531 Y104.802 E.00894
G1 X120.638 Y104.501 E.01002
G1 X122.387 Y101.472 E.10967
G1 X122.685 Y101.164 E.01344
G1 X122.937 Y101.031 E.00893
G1 X123.251 Y100.973 E.01001
G1 X126.749 Y100.973 E.10968
G1 X127.063 Y101.031 E.01001
G1 X127.315 Y101.164 E.00893
G1 X127.613 Y101.472 E.01344
G1 X129.362 Y104.501 E.10967
G1 X129.491 Y104.985 E.01571
G1 X129.48 Y105.038 E.0017
M204 S1000
G1 X129.115 Y105.051 F10800
M204 S800
;TYPE:External perimeter
G1 F1200
G1 X129.036 Y105.31 E.00849
G1 X127.287 Y108.339 E.10967
G1 X127.061 Y108.557 E.00985
G1 X126.749 Y108.65 E.01021
G1 X123.251 Y108.65 E.10968
G1 X122.939 Y108.557 E.01021
G1 X122.713 Y108.339 E.00985
G1 X120.965 Y105.311 E.10962
G1 X120.889 Y105.006 E.00986
G1 X120.964 Y104.69 E.01018
G1 X122.713 Y101.661 E.10967
G1 X122.939 Y101.443 E.00985
G1 X123.251 Y101.35 E.01021
G1 X126.749 Y101.35 E.10968
G1 X127.061 Y101.443 E.01021
G1 X127.287 Y101.661 E.00985
G1 X129.035 Y104.689 E.10962
G1 X129.102 Y104.992 E.00973
M204 S1000
G1 X129.345 Y105.194 F10800
;WIPE_START
G1 F8640
G1 X129.036 Y105.31 E-.07499
G1 X127.466 Y108.029 E-.72501
;WIPE_END
G1 Z.6 F720
G1 X114.543 Y105.042 F10800
G1 Z.2 F720
G1 E.8 F2100
M204 S800
;TYPE:Perimeter
G1 F1200
G1 X114.496 Y105.338 E.0094
G1 X114.191 Y105.92 E.0206
G1 X112.649 Y108.59 E.09667
G1 X112.351 Y108.898 E.01344
G1 X112.099 Y109.031 E.00893
G1 X111.785 Y109.09 E.01002
G1 X108.215 Y109.09 E.11193
G1 X107.901 Y109.031 E.01002
G1 X107.649 Y108.898 E.00893
G1 X107.351 Y108.59 E.01344
G1 X105.566 Y105.499 E.11192
G1 X105.459 Y105.198 E.01002
G1 X105.448 Y104.913 E.00894
G1 X105.566 Y104.501 E.01344
G1 X107.351 Y101.41 E.11192
G1 X107.649 Y101.102 E.01344
G1 X107.901 Y100.969 E.00893
G1 X108.215 Y100.91 E.01002
G1 X111.785 Y100.91 E.11193
G1 X112.099 Y100.969 E.01002
G1 X112.351 Y101.102 E.00893
G1 X112.649 Y101.41 E.01344
G1 X114.434 Y104.501 E.11192
G1 X114.563 Y104.916 E.01363
G1 X114.552 Y104.982 E.0021
M204 S1000
G1 X114.183 Y105.006 F10800
M204 S800
;TYPE:External perimeter
G1 F1200
G1 X114.107 Y105.311 E.00986
G1 X112.323 Y108.402 E.1119
G1 X112.097 Y108.62 E.00985
G1 X111.785 Y108.712 E.0102
G1 X108.215 Y108.712 E.11193
G1 X107.903 Y108.62 E.0102
G1 X107.677 Y108.402 E.00985
G1 X105.892 Y105.31 E.11194
G1 X105.82 Y105.089 E.00729
G1 X105.893 Y104.689 E.01275
G1 X107.677 Y101.598 E.1119
G1 X107.903 Y101.38 E.00985
G1 X108.215 Y101.288 E.0102
G1 X111.785 Y101.288 E.11193
G1 X112.097 Y101.38 E.0102
G1 X112.323 Y101.598 E.00985
G1 X114.108 Y104.69 E.11194
G1 X114.169 Y104.948 E.00831
M204 S1000
G1 X114.456 Y105.162 F10800
;WIPE_START
G1 F8640
G1 X114.107 Y105.311 E-.08503
G1 X112.559 Y107.993 E-.71497
;WIPE_END
G1 Z.6 F720
G1 X153.28 Y98.457 F10800
G1 Z.2 F720
G1 E.8 F2100
M204 S800
;TYPE:Solid infill
;WIDTH:0.420398
G1 F1200
G1 X153.874 Y99.05 E.02634
G1 X153.874 Y99.584 E.01676
G1 X152.916 Y98.626 E.04252
G1 X152.382 Y98.626 E.01676
G1 X153.874 Y100.118 E.06623
G1 X153.874 Y100.652 E.01676
G1 X151.848 Y98.626 E.08993
G1 X151.314 Y98.626 E.01676
G1 X153.874 Y101.186 E.11363
G1 X153.874 Y101.719 E.01673
G1 X150.781 Y98.626 E.13729
G1 X150.247 Y98.626 E.01676
G1 X153.874 Y102.253 E.161
G1 X153.874 Y102.787 E.01676
G1 X149.713 Y98.626 E.1847
G1 X149.179 Y98.626 E.01676
G1 X153.874 Y103.321 E.2084
G1 X153.874 Y103.855 E.01676
G1 X148.645 Y98.626 E.23211
G1 X148.111 Y98.626 E.01676
G1 X153.874 Y104.389 E.25581
G1 X153.874 Y104.922 E.01673
G1 X147.578 Y98.626 E.27947
G1 X147.044 Y98.626 E.01676
G1 X153.874 Y105.456 E.30317
G1 X153.874 Y105.99 E.01676
M73 Q4 S17
G1 X146.51 Y98.626 E.32688
M73 P4 R17
G1 X145.976 Y98.626 E.01676
G1 X153.874 Y106.524 E.35058
G1 X153.874 Y107.058 E.01676
G1 X145.442 Y98.626 E.37428
G1 X144.908 Y98.626 E.01676
G1 X153.874 Y107.592 E.39799
G1 X153.874 Y108.125 E.01673
G1 X144.375 Y98.626 E.42165
G1 X143.841 Y98.626 E.01676
G1 X153.874 Y108.659 E.44535
G1 X153.874 Y109.193 E.01676
G1 X143.307 Y98.626 E.46905
G1 X142.773 Y98.626 E.01676
G1 X153.874 Y109.727 E.49276
G1 X153.874 Y110.261 E.01676
G1 X142.239 Y98.626 E.51646
G1 X141.705 Y98.626 E.01676
G1 X153.874 Y110.795 E.54016
G1 X153.874 Y111.328 E.01673
G1 X141.172 Y98.626 E.56382
G1 X140.638 Y98.626 E.01676
G1 X153.385 Y111.374 E.56584
G1 X152.851 Y111.374 E.01676
G1 X140.104 Y98.626 E.56584
G1 X139.57 Y98.626 E.01676
G1 X141.64 Y100.696 E.09188
G1 X141.106 Y100.696 E.01676
G1 X139.036 Y98.626 E.09188
G1 X138.502 Y98.626 E.01676
G1 X140.572 Y100.696 E.09188
G1 X140.038 Y100.696 E.01676
G1 X137.969 Y98.626 E.09186
G1 X137.435 Y98.626 E.01676
M73 Q5 S17
G1 X139.504 Y100.696 E.09186
G1 X138.971 Y100.696 E.01673
G1 X136.901 Y98.626 E.09188
M73 P5 R17
G1 X136.367 Y98.626 E.01676
G1 X138.437 Y100.696 E.09188
G1 X138.274 Y100.696 E.00512
G1 X137.959 Y100.752 E.01004
G1 X135.833 Y98.626 E.09437
G1 X135.299 Y98.626 E.01676
G1 X137.591 Y100.918 E.10174
G1 X137.506 Y100.963 E.00302
G1 X137.295 Y101.156 E.00898
G1 X134.766 Y98.626 E.11228
G1 X134.232 Y98.626 E.01676
G1 X137.071 Y101.466 E.12604
G1 X136.876 Y101.805 E.01228
G1 X133.698 Y98.626 E.14109
G1 X133.164 Y98.626 E.01676
G1 X136.682 Y102.144 E.15616
G1 X136.487 Y102.483 E.01228
G1 X132.63 Y98.626 E.17121
G1 X132.096 Y98.626 E.01676
G1 X136.292 Y102.822 E.18625
G1 X136.097 Y103.161 E.01228
G1 X131.563 Y98.626 E.20128
G1 X131.029 Y98.626 E.01676
G1 X135.903 Y103.5 E.21635
G1 X135.708 Y103.839 E.01228
G1 X130.495 Y98.626 E.2314
G1 X129.961 Y98.626 E.01676
G1 X135.513 Y104.178 E.24645
G1 X135.358 Y104.447 E.00974
G1 X135.337 Y104.536 E.00287
G1 X129.427 Y98.626 E.26234
G1 X128.893 Y98.626 E.01676
G1 X135.248 Y104.981 E.28209
G1 X135.24 Y105.071 E.00284
G1 X135.276 Y105.288 E.0069
G1 X135.371 Y105.581 E.00967
G1 X135.448 Y105.715 E.00485
G1 X128.36 Y98.626 E.31465
G1 X127.826 Y98.626 E.01676
G1 X136.634 Y107.434 E.39097
M204 S1000
;WIPE_START
G1 F8640
G1 X134.184 Y104.984 E-.8
;WIPE_END
G1 Z.6 F720
G1 X143.176 Y102.232 F10800
G1 Z.2 F720
G1 E.8 F2100
M204 S800
G1 F1200
G1 X152.317 Y111.374 E.40578
G1 X151.783 Y111.374 E.01676
G1 X144.368 Y103.959 E.32914
G1 X144.59 Y104.343 E.01392
G1 X144.724 Y104.711 E.01229
G1 X144.748 Y104.872 E.00511
G1 X151.25 Y111.374 E.28861
G1 X150.716 Y111.374 E.01676
G1 X144.692 Y105.35 E.2674
G1 X144.673 Y105.458 E.00344
G1 X144.545 Y105.736 E.00961
G1 X150.182 Y111.374 E.25024
G1 X149.648 Y111.374 E.01676
G1 X144.349 Y106.075 E.23521
G1 X144.154 Y106.413 E.01225
G1 X149.114 Y111.374 E.22019
G1 X148.58 Y111.374 E.01676
G1 X143.958 Y106.752 E.20516
G1 X143.763 Y107.09 E.01225
G1 X148.047 Y111.374 E.19016
G1 X147.513 Y111.374 E.01676
G1 X143.568 Y107.428 E.17513
G1 X143.372 Y107.767 E.01229
M73 Q6 S17
G1 X146.979 Y111.374 E.16011
M73 P6 R17
G1 X146.445 Y111.374 E.01676
G1 X143.177 Y108.105 E.14508
G1 X142.981 Y108.444 E.01229
G1 X145.911 Y111.374 E.13006
G1 X145.377 Y111.374 E.01676
G1 X142.769 Y108.765 E.11579
G1 X142.501 Y109.031 E.01185
G1 X144.844 Y111.374 E.104
G1 X144.31 Y111.374 E.01676
G1 X142.153 Y109.217 E.09575
G1 X141.706 Y109.304 E.01429
G1 X143.776 Y111.374 E.09188
G1 X143.242 Y111.374 E.01676
G1 X141.172 Y109.304 E.09188
G1 X140.639 Y109.304 E.01673
G1 X142.708 Y111.374 E.09186
G1 X142.174 Y111.374 E.01676
G1 X140.105 Y109.304 E.09186
G1 X139.571 Y109.304 E.01676
G1 X141.641 Y111.374 E.09188
G1 X141.107 Y111.374 E.01676
G1 X139.037 Y109.304 E.09188
G1 X138.503 Y109.304 E.01676
G1 X140.573 Y111.374 E.09188
G1 X140.039 Y111.374 E.01676
G1 X127.292 Y98.626 E.56584
G1 X126.758 Y98.626 E.01676
G1 X139.505 Y111.374 E.56584
G1 X138.971 Y111.374 E.01676
G1 X126.224 Y98.626 E.56584
G1 X125.69 Y98.626 E.01676
G1 X138.438 Y111.374 E.56586
G1 X137.904 Y111.374 E.01676
G1 X125.157 Y98.626 E.56584
G1 X124.623 Y98.626 E.01676
G1 X126.63 Y100.634 E.08911
G1 X126.096 Y100.634 E.01676
G1 X124.089 Y98.626 E.08911
G1 X123.555 Y98.626 E.01676
G1 X125.562 Y100.634 E.08911
G1 X125.028 Y100.634 E.01676
G1 X123.021 Y98.626 E.08911
G1 X122.487 Y98.626 E.01676
G1 X124.495 Y100.634 E.08913
G1 X123.961 Y100.634 E.01676
G1 X121.954 Y98.626 E.08911
G1 X121.42 Y98.626 E.01676
G1 X123.427 Y100.634 E.08911
G1 X123.238 Y100.634 E.00593
G1 X122.945 Y100.685 E.00933
G1 X120.886 Y98.626 E.0914
G1 X120.352 Y98.626 E.01676
G1 X122.572 Y100.847 E.09856
G1 X122.47 Y100.901 E.00362
G1 X122.273 Y101.081 E.00838
G1 X119.818 Y98.626 E.10897
G1 X119.284 Y98.626 E.01676
G1 X122.044 Y101.387 E.12253
G1 X121.849 Y101.725 E.01225
G1 X118.751 Y98.626 E.13754
G1 X118.217 Y98.626 E.01676
G1 X121.654 Y102.064 E.15259
G1 X121.459 Y102.403 E.01228
G1 X117.683 Y98.626 E.16763
G1 X117.149 Y98.626 E.01676
G1 X121.264 Y102.742 E.18268
G1 X121.069 Y103.081 E.01228
G1 X116.615 Y98.626 E.19773
G1 X116.081 Y98.626 E.01676
M73 Q7 S17
G1 X120.874 Y103.419 E.21275
G1 X120.679 Y103.758 E.01228
M73 P7 R17
G1 X115.548 Y98.626 E.22778
G1 X115.014 Y98.626 E.01676
G1 X120.484 Y104.097 E.24283
G1 X120.292 Y104.439 E.01231
G1 X114.48 Y98.626 E.25801
G1 X113.946 Y98.626 E.01676
G1 X120.179 Y104.86 E.2767
G1 X120.167 Y104.929 E.0022
G1 X120.187 Y105.152 E.00703
G1 X120.269 Y105.483 E.0107
G1 X113.412 Y98.626 E.30437
G1 X112.878 Y98.626 E.01676
G1 X121.396 Y107.145 E.37812
M204 S1000
;WIPE_START
G1 F8640
G1 X118.946 Y104.695 E-.8
;WIPE_END
G1 Z.6 F720
G1 X128.268 Y102.272 F10800
G1 Z.2 F720
G1 E.8 F2100
M204 S800
G1 F1200
G1 X137.37 Y111.374 E.40402
G1 X136.836 Y111.374 E.01676
G1 X129.449 Y103.986 E.32792
G1 X129.714 Y104.447 E.01669
G1 X129.816 Y104.888 E.01421
G1 X136.302 Y111.374 E.2879
G1 X135.768 Y111.374 E.01676
G1 X129.766 Y105.371 E.26644
G1 X129.663 Y105.657 E.00954
G1 X129.61 Y105.749 E.00333
G1 X135.235 Y111.374 E.24969
G1 X134.701 Y111.374 E.01676
G1 X129.414 Y106.087 E.23468
G1 X129.219 Y106.426 E.01228
G1 X134.167 Y111.374 E.21963
G1 X133.633 Y111.374 E.01676
