; generated by PrusaSlicer 2.6.1+win64 on 2024-01-11 at 22:17:05 UTC


;
;
; 

; external perimeters extrusion width = 0.45mm
; perimeters extrusion width = 0.45mm
; infill extrusion width = 0.45mm
; solid infill extrusion width = 0.45mm
; top infill extrusion width = 0.40mm
; first layer extrusion width = 0.42mm

M73 P0 R41
M73 Q0 S41
M201 X1000 Y1000 Z200 E5000 ; sets maximum accelerations, mm/sec^2
M203 X200 Y200 Z12 E120 ; sets maximum feedrates, mm / sec
M204 S1250 T1250 ; sets acceleration (S) and retract acceleration (R), mm/sec^2
M205 X8.00 Y8.00 Z0.40 E4.50 ; sets the jerk limits, mm/sec
M205 S0 T0 ; sets the minimum extruding and travel feed rate, mm/sec
;TYPE:Custom
M862.3 P "MK3S" ; printer model check
M862.1 P0.4 ; nozzle diameter check
M115 U3.13.0 ; tell printer latest fw version
G90 ; use absolute coordinates
M83 ; extruder relative mode
M104 S215 ; set extruder temp
M140 S60 ; set bed temp
M190 S60 ; wait for bed temp
M109 S215 ; wait for extruder temp
G28 W ; home all without mesh bed level
G80 ; mesh bed leveling

G1 Z0.2 F720
G1 Y-3 F1000 ; go outside print area
G92 E0
G1 X60 E9 F1000 ; intro line
G1 X100 E12.5 F1000 ; intro line

G92 E0
M221 S95

; Don't change E values below. Excessive value can damage the printer.
M907 E430 ; set extruder motor current
G21 ; set units to millimeters
G90 ; use absolute coordinates
M83 ; use relative distances for extrusion
M900 K0.05 ; Filament gcode LA 1.5
M900 K30 ; Filament gcode LA 1.0
M107
;LAYER_CHANGE
;Z:0.2
;HEIGHT:0.2
;BEFORE_LAYER_CHANGE
G92 E0.0
;0.2


G1 E-.8 F2100
G1 Z.4 F720
;AFTER_LAYER_CHANGE
;0.2
G1 X66.852 Y94.715 F10800
G1 Z.2 F720
G1 E.8 F2100
M204 S800
;TYPE:Skirt/Brim
;WIDTH:0.42
G1 F1200
G1 X68.687 Y93.703 E.0657
G1 X70.28 Y93.115 E.05324
G1 X71.8 Y92.78 E.0488
G1 X73.85 Y92.629 E.06445
G1 X178.971 Y95.126 E3.29692
G1 X180.454 Y95.28 E.04675
G1 X182.092 Y95.718 E.05316
G1 X183.63 Y96.428 E.05311
G1 X185.333 Y97.658 E.06587
G1 X186.491 Y98.895 E.05313
G1 X187.421 Y100.311 E.05312
G1 X188.095 Y101.866 E.05314
G1 X188.424 Y103.111 E.04038
G1 X188.604 Y104.796 E.05313
G1 X188.493 Y106.487 E.05313
G1 X188.095 Y108.134 E.05313
G1 X187.421 Y109.689 E.05314
G1 X186.491 Y111.105 E.05312
G1 X185.333 Y112.342 E.05313
G1 X183.98 Y113.362 E.05313
G1 X182.472 Y114.136 E.05315
G1 X180.855 Y114.64 E.05311
G1 X179.174 Y114.861 E.05316
G1 X74.03 Y117.374 E3.29766
G1 X71.8 Y117.22 E.07009
M73 P0 R40
G1 X69.803 Y116.732 E.06446
G1 X68.504 Y116.217 E.04381
G1 X67.02 Y115.393 E.05322
G1 X65.362 Y114.112 E.06569
G1 X64.193 Y112.881 E.05323
G1 X63.499 Y111.954 E.03631
G1 X62.413 Y109.999 E.07012
G1 X61.646 Y107.627 E.07816
G1 X61.387 Y105.759 E.05913
G1 X61.395 Y104.052 E.05352
G1 X61.646 Y102.373 E.05323
G1 X62.258 Y100.369 E.0657
G1 X63.398 Y98.196 E.07694
G1 X64.791 Y96.447 E.07011
G1 X65.51 Y95.754 E.03131
G1 X66.805 Y94.752 E.05134
M204 S1000
; printing object Weight_Handle.STL id:0 copy 0
;WIPE_START
G1 F8640
G1 X68.687 Y93.703 E-.4975
G1 X69.916 Y93.249 E-.3025
;WIPE_END
G1 Z.6 F720
G1 X146.574 Y104.694 F10800
G1 Z.2 F720
G1 E.8 F2100
M204 S800
;TYPE:Perimeter
;WIDTH:0.419999
G1 F1200
G1 X146.505 Y104.797 E.00389
G1 X146.421 Y105.19 E.0126
G1 X146.421 Y112.457 E.22785
G1 X126.05 Y112.942 E.6389
G1 X126.05 Y105.19 E.24306
G1 X126.043 Y105.099 E.00286
G1 X125.945 Y104.765 E.01091
G1 X125.704 Y104.438 E.01274
G1 X125.363 Y104.252 E.01218
G1 X125.107 Y104.19 E.00826
G1 X122.426 Y104.185 E.08406
G1 X121.995 Y104.285 E.01387
G1 X121.634 Y104.596 E.01494
G1 X121.505 Y104.797 E.00749
G1 X121.421 Y105.19 E.0126
G1 X121.421 Y113.052 E.24651
G1 X73.984 Y114.182 E1.48777
M73 Q1 S41
G1 X72.563 Y114.108 E.04461
M73 P1 R40
G1 X71.198 Y113.826 E.0437
G1 X69.892 Y113.34 E.04369
G1 X68.675 Y112.663 E.04366
G1 X67.574 Y111.809 E.04369
G1 X66.615 Y110.799 E.04367
G1 X65.819 Y109.655 E.0437
G1 X65.206 Y108.403 E.04371
G1 X64.79 Y107.074 E.04366
G1 X64.579 Y105.697 E.04368
G1 X64.579 Y104.303 E.04371
G1 X64.79 Y102.926 E.04368
G1 X65.206 Y101.597 E.04366
G1 X65.819 Y100.345 E.04371
G1 X66.615 Y99.201 E.0437
G1 X67.574 Y98.191 E.04367
G1 X68.675 Y97.337 E.04369
G1 X69.892 Y96.66 E.04366
G1 X71.198 Y96.174 E.04369
G1 X72.563 Y95.892 E.0437
G1 X73.984 Y95.818 E.04461
G1 X178.861 Y98.316 E3.28927
G1 X180.035 Y98.445 E.03703
G1 X181.137 Y98.764 E.03597
G1 X182.168 Y99.266 E.03595
G1 X183.098 Y99.938 E.03598
G1 X183.9 Y100.759 E.03599
G1 X184.549 Y101.705 E.03597
G1 X185.027 Y102.748 E.03597
G1 X185.32 Y103.857 E.03596
G1 X185.418 Y105 E.03597
G1 X185.32 Y106.143 E.03597
G1 X185.027 Y107.252 E.03596
G1 X184.549 Y108.295 E.03597
G1 X183.9 Y109.241 E.03597
G1 X183.098 Y110.062 E.03599
G1 X182.168 Y110.734 E.03598
G1 X181.137 Y111.236 E.03595
G1 X180.035 Y111.555 E.03597
G1 X178.861 Y111.684 E.03703
G1 X176.05 Y111.751 E.08816
G1 X176.042 Y105.096 E.20866
M73 Q1 S40
G1 X175.873 Y104.626 E.01566
G1 X175.616 Y104.367 E.01144
G1 X175.323 Y104.233 E.0101
G1 X175.108 Y104.19 E.00687
G1 X172.426 Y104.185 E.08409
G1 X171.995 Y104.285 E.01387
G1 X171.634 Y104.596 E.01494
G1 X171.514 Y104.774 E.00673
G1 X171.421 Y105.19 E.01337
G1 X171.421 Y111.862 E.2092
G1 X151.05 Y112.347 E.6389
G1 X151.05 Y105.19 E.2244
G1 X151.043 Y105.099 E.00286
G1 X150.945 Y104.765 E.01091
G1 X150.704 Y104.438 E.01274
G1 X150.363 Y104.252 E.01218
G1 X150.106 Y104.19 E.00829
G1 X147.365 Y104.19 E.08594
G1 X147.108 Y104.252 E.00829
G1 X146.714 Y104.486 E.01437
G1 X146.607 Y104.644 E.00598
M204 S1000
G1 X146.882 Y104.886 F10800
M204 S800
;TYPE:External perimeter
G1 F1200
G1 X146.798 Y105.19 E.00989
G1 X146.798 Y112.825 E.23939
G1 X125.673 Y113.328 E.66255
G1 X125.673 Y105.19 E.25516
G1 X125.649 Y105.03 E.00507
G1 X125.471 Y104.734 E.01083
G1 X125.106 Y104.567 E.01259
G1 X122.425 Y104.563 E.08406
G1 X122.187 Y104.616 E.00765
G1 X121.882 Y104.885 E.01275
G1 X121.798 Y105.19 E.00992
G1 X121.798 Y113.421 E.25808
G1 X73.979 Y114.559 E1.49975
G1 X72.515 Y114.483 E.04596
G1 X71.094 Y114.189 E.0455
G1 X69.734 Y113.684 E.04549
G1 X68.467 Y112.979 E.04546
G1 X67.32 Y112.09 E.0455
G1 X66.321 Y111.037 E.04551
G1 X65.493 Y109.846 E.04548
G1 X64.855 Y108.544 E.04546
G1 X64.421 Y107.159 E.04551
G1 X64.202 Y105.725 E.04548
G1 X64.202 Y104.275 E.04546
G1 X64.421 Y102.841 E.04548
G1 X64.855 Y101.456 E.04551
G1 X65.493 Y100.154 E.04546
G1 X66.321 Y98.963 E.04548
G1 X67.32 Y97.91 E.04551
G1 X68.467 Y97.021 E.0455
G1 X69.734 Y96.316 E.04546
G1 X71.094 Y95.811 E.04549
G1 X72.515 Y95.517 E.0455
G1 X73.979 Y95.441 E.04596
G1 X178.886 Y97.939 E3.29021
G1 X180.109 Y98.074 E.03858
G1 X181.273 Y98.411 E.038
G1 X182.363 Y98.942 E.03802
G1 X183.346 Y99.651 E.038
M73 Q2 S40
G1 X184.192 Y100.519 E.038
G1 X184.878 Y101.518 E.038
G1 X185.383 Y102.62 E.03801
M73 P2 R40
G1 X185.693 Y103.792 E.03801
G1 X185.797 Y105 E.03802
G1 X185.693 Y106.208 E.03802
G1 X185.383 Y107.38 E.03801
G1 X184.878 Y108.482 E.03801
G1 X184.192 Y109.481 E.038
G1 X183.346 Y110.349 E.038
G1 X182.363 Y111.058 E.038
G1 X181.273 Y111.589 E.03802
G1 X180.109 Y111.926 E.038
G1 X178.886 Y112.061 E.03858
G1 X175.673 Y112.138 E.10077
G1 X175.673 Y105.19 E.21785
G1 X175.578 Y104.876 E.01029
G1 X175.433 Y104.702 E.0071
G1 X175.107 Y104.567 E.01106
G1 X172.425 Y104.563 E.08409
G1 X172.153 Y104.628 E.00877
G1 X171.877 Y104.892 E.01198
G1 X171.798 Y105.19 E.00967
G1 X171.798 Y112.23 E.22073
G1 X150.673 Y112.733 E.66255
G1 X150.673 Y105.19 E.23651
G1 X150.649 Y105.03 E.00507
G1 X150.471 Y104.734 E.01083
G1 X150.106 Y104.567 E.01259
G1 X147.365 Y104.567 E.08594
G1 X147.032 Y104.714 E.01141
G1 X146.921 Y104.84 E.00526
M204 S1000
G1 X146.567 Y104.89 F10800
;WIPE_START
G1 F8640
G1 X146.798 Y105.19 E-.08566
G1 X146.798 Y108.284 E-.71434
;WIPE_END
G1 Z.6 F720
G1 X70.879 Y107.759 F10800
G1 Z.2 F720
G1 E.8 F2100
M204 S800
;TYPE:Perimeter
G1 F1200
G1 X70.817 Y107.721 E.00228
G1 X70.419 Y107.216 E.02016
G1 X70.089 Y106.616 E.02147
G1 X69.867 Y105.969 E.02145
G1 X69.758 Y105.293 E.02147
G1 X69.766 Y104.609 E.02145
G1 X69.875 Y104.021 E.01875
G1 X70.052 Y103.498 E.01731
G1 X70.295 Y103.002 E.01732
G1 X70.602 Y102.543 E.01731
G1 X70.934 Y102.16 E.01589
G1 X71.439 Y101.739 E.02061
G1 X72.031 Y101.394 E.02148
G1 X72.672 Y101.156 E.02144
G1 X73.339 Y101.032 E.02127
G1 X74.021 Y101.022 E.02139
G1 X74.705 Y101.131 E.02172
G1 X75.352 Y101.354 E.02146
G1 X75.952 Y101.684 E.02147
G1 X76.486 Y102.112 E.02146
G1 X76.94 Y102.624 E.02146
G1 X77.299 Y103.207 E.02147
G1 X77.553 Y103.843 E.02147
G1 X77.694 Y104.512 E.02144
G1 X77.719 Y105.196 E.02146
G1 X77.627 Y105.875 E.02148
G1 X77.42 Y106.527 E.02145
G1 X77.105 Y107.135 E.02147
G1 X76.69 Y107.68 E.02148
G1 X76.379 Y107.929 E.01249
G1 X75.925 Y108.04 E.01465
G1 X71.482 Y108.034 E.13931
G1 X71.412 Y108.03 E.0022
G1 X71.215 Y107.967 E.00648
G1 X70.93 Y107.791 E.0105
M204 S1000
G1 X71.161 Y107.499 F10800
M204 S800
;TYPE:External perimeter
G1 F1200
G1 X71.09 Y107.461 E.00252
G1 X70.716 Y106.984 E.01901
G1 X70.422 Y106.438 E.01944
G1 X70.225 Y105.851 E.01941
G1 X70.131 Y105.238 E.01944
G1 X70.143 Y104.618 E.01944
G1 X70.245 Y104.094 E.01674
G1 X70.482 Y103.43 E.02211
G1 X70.798 Y102.897 E.01943
G1 X71.201 Y102.426 E.01944
G1 X71.678 Y102.03 E.01944
G1 X72.216 Y101.722 E.01944
G1 X72.799 Y101.511 E.01944
G1 X73.404 Y101.403 E.01927
G1 X74.021 Y101.399 E.01935
G1 X74.641 Y101.503 E.01971
G1 X75.225 Y101.709 E.01942
G1 X75.766 Y102.012 E.01944
G1 X76.247 Y102.403 E.01944
G1 X76.654 Y102.871 E.01945
G1 X76.975 Y103.401 E.01943
G1 X77.201 Y103.978 E.01943
G1 X77.324 Y104.586 E.01945
G1 X77.342 Y105.206 E.01945
G1 X77.254 Y105.819 E.01942
G1 X77.062 Y106.409 E.01945
G1 X76.772 Y106.957 E.01944
G1 X76.393 Y107.447 E.01942
G1 X76.175 Y107.604 E.00842
G1 X75.926 Y107.662 E.00802
G1 X71.482 Y107.657 E.13934
G1 X71.214 Y107.527 E.00934
M204 S1000
G1 X71.1 Y107.551 F10800
;WIPE_START
G1 F8640
G1 X71.09 Y107.461 E-.03244
G1 X70.716 Y106.984 E-.13996
G1 X70.422 Y106.438 E-.14319
G1 X70.225 Y105.851 E-.14297
G1 X70.131 Y105.238 E-.1432
G1 X70.143 Y104.618 E-.14319
G1 X70.189 Y104.384 E-.05505
;WIPE_END
G1 Z.6 F720
G1 X181.067 Y98.92 F10800
G1 Z.2 F720
G1 E.8 F2100
M204 S800
;TYPE:Solid infill
;WIDTH:0.420147
G1 F1200
G1 X184.451 Y102.304 E.15011
G1 X184.706 Y102.863 E.01927
G1 X184.789 Y103.176 E.01016
G1 X180.564 Y98.951 E.18742
G1 X179.969 Y98.779 E.01943
G1 X179.845 Y98.765 E.00391
G1 X184.98 Y103.901 E.22781
G1 X185.033 Y104.487 E.01846
G1 X179.245 Y98.699 E.25675
G1 X178.663 Y98.65 E.01832
G1 X185.072 Y105.06 E.28432
G1 X185.03 Y105.551 E.01546
G1 X178.116 Y98.637 E.3067
G1 X177.57 Y98.624 E.01713
G1 X184.988 Y106.042 E.32906
G1 X184.882 Y106.47 E.01383
G1 X177.023 Y98.611 E.34862
G1 X176.477 Y98.598 E.01713
G1 X184.771 Y106.892 E.36791
G1 X184.706 Y107.137 E.00795
G1 X184.636 Y107.291 E.00531
G1 X175.93 Y98.585 E.38619
G1 X175.384 Y98.572 E.01713
G1 X184.468 Y107.657 E.40298
G1 X184.301 Y108.023 E.01262
G1 X174.837 Y98.559 E.41981
G1 X174.291 Y98.546 E.01713
G1 X184.098 Y108.353 E.43503
G1 X183.881 Y108.669 E.01202
G1 X173.744 Y98.533 E.44965
G1 X173.198 Y98.52 E.01713
G1 X183.664 Y108.986 E.46426
G1 X183.406 Y109.261 E.01183
G1 X172.651 Y98.507 E.47706
G1 X172.105 Y98.494 E.01713
G1 X183.142 Y109.531 E.48959
G1 X182.879 Y109.801 E.01182
G1 X171.558 Y98.481 E.50217
G1 X171.012 Y98.468 E.01713
G1 X182.569 Y110.025 E.51266
G1 X182.259 Y110.249 E.012
G1 X170.465 Y98.455 E.52317
G1 X169.919 Y98.442 E.01713
G1 X175.377 Y103.9 E.24211
G1 X175.65 Y104.001 E.00913
G1 X175.81 Y104.087 E.0057
G1 X176.075 Y104.333 E.01134
G1 X176.199 Y104.51 E.00678
G1 X176.321 Y104.844 E.01115
G1 X181.943 Y110.466 E.24939
G1 X181.584 Y110.641 E.01253
G1 X176.389 Y105.446 E.23045
G1 X176.389 Y105.979 E.01672
G1 X181.225 Y110.816 E.21454
G1 X181.015 Y110.918 E.00732
G1 X180.844 Y110.968 E.00559
G1 X176.389 Y106.513 E.19762
G1 X176.389 Y107.046 E.01672
G1 X180.43 Y111.087 E.17925
G1 X180.017 Y111.207 E.01349
G1 X176.389 Y107.58 E.16091
G1 X176.389 Y108.113 E.01672
G1 X179.544 Y111.268 E.13995
G1 X179.063 Y111.321 E.01518
G1 X176.389 Y108.647 E.11862
G1 X176.389 Y109.18 E.01672
G1 X178.561 Y111.352 E.09635
G1 X178.04 Y111.364 E.01635
G1 X176.389 Y109.714 E.07321
G1 X176.389 Y110.247 E.01672
M73 Q3 S40
G1 X177.519 Y111.377 E.05013
G1 X176.998 Y111.389 E.01635
G1 X176.389 Y110.781 E.02699
G1 X176.389 Y111.314 E.01672
G1 X176.643 Y111.567 E.01125
M204 S1000
;WIPE_START
G1 F8640
G1 X176.389 Y111.314 E-.08278
G1 X176.389 Y110.781 E-.12307
G1 X176.998 Y111.389 E-.1987
G1 X177.519 Y111.377 E-.12033
G1 X176.676 Y110.534 E-.27512
;WIPE_END
G1 Z.6 F720
G1 X174.964 Y104.02 F10800
G1 Z.2 F720
M73 P3 R40
G1 E.8 F2100
M204 S800
G1 F1200
G1 X169.373 Y98.429 E.24801
G1 X168.826 Y98.416 E.01716
G1 X174.259 Y103.849 E.241
G1 X173.725 Y103.848 E.01675
M73 P3 R39
G1 X168.28 Y98.403 E.24153
G1 X167.733 Y98.39 E.01716
G1 X173.19 Y103.847 E.24207
G1 X172.656 Y103.847 E.01675
G1 X167.187 Y98.377 E.24262
G1 X166.64 Y98.364 E.01716
G1 X172.162 Y103.886 E.24495
G1 X171.851 Y103.976 E.01016
G1 X171.773 Y104.03 E.00298
G1 X166.094 Y98.351 E.25191
G1 X165.547 Y98.338 E.01716
G1 X171.484 Y104.275 E.26336
G1 X171.278 Y104.496 E.00948
G1 X171.245 Y104.57 E.00254
G1 X165.001 Y98.325 E.277
G1 X164.454 Y98.312 E.01716
G1 X171.112 Y104.97 E.29534
G1 X171.088 Y105.076 E.00341
G1 X171.088 Y105.479 E.01264
G1 X163.908 Y98.299 E.3185
G1 X163.361 Y98.286 E.01716
G1 X171.087 Y106.012 E.34272
G1 X171.087 Y106.545 E.01672
G1 X162.815 Y98.273 E.36694
G1 X162.268 Y98.26 E.01716
G1 X171.086 Y107.078 E.39116
G1 X171.086 Y107.611 E.01672
G1 X161.722 Y98.247 E.41538
G1 X161.175 Y98.234 E.01716
G1 X171.085 Y108.144 E.4396
G1 X171.085 Y108.677 E.01672
G1 X160.629 Y98.221 E.46382
G1 X160.082 Y98.208 E.01716
G1 X171.084 Y109.21 E.48804
G1 X171.084 Y109.743 E.01672
G1 X159.536 Y98.195 E.51226
G1 X158.989 Y98.182 E.01716
G1 X171.083 Y110.276 E.53648
G1 X171.083 Y110.809 E.01672
G1 X158.443 Y98.169 E.5607
G1 X157.896 Y98.156 E.01716
G1 X171.082 Y111.342 E.58492
G1 X171.082 Y111.53 E.0059
G1 X170.745 Y111.538 E.01057
G1 X157.35 Y98.143 E.59419
G1 X156.803 Y98.13 E.01716
G1 X170.224 Y111.551 E.59534
G1 X169.703 Y111.563 E.01635
G1 X156.257 Y98.117 E.59645
G1 X155.71 Y98.104 E.01716
G1 X169.182 Y111.575 E.59758
G1 X168.661 Y111.588 E.01635
G1 X155.164 Y98.091 E.59871
G1 X154.617 Y98.078 E.01716
G1 X168.14 Y111.6 E.59984
G1 X167.619 Y111.613 E.01635
G1 X154.071 Y98.065 E.60098
G1 X153.524 Y98.052 E.01716
M73 Q3 S39
G1 X167.098 Y111.625 E.60211
G1 X166.577 Y111.637 E.01635
G1 X152.978 Y98.039 E.60322
G1 X152.431 Y98.026 E.01716
G1 X166.055 Y111.65 E.60435
G1 X165.534 Y111.662 E.01635
G1 X151.885 Y98.013 E.60546
G1 X151.338 Y98 E.01716
M73 Q4 S39
G1 X165.013 Y111.675 E.60661
G1 X164.492 Y111.687 E.01635
M73 P4 R39
G1 X150.792 Y97.987 E.60772
G1 X150.245 Y97.974 E.01716
G1 X163.971 Y111.7 E.60887
G1 X163.45 Y111.712 E.01635
G1 X149.699 Y97.961 E.60998
G1 X149.152 Y97.948 E.01716
G1 X162.929 Y111.724 E.61111
G1 X162.408 Y111.737 E.01635
G1 X148.606 Y97.935 E.61224
G1 X148.059 Y97.921 E.01716
G1 X161.887 Y111.749 E.6134
G1 X161.366 Y111.762 E.01635
G1 X147.513 Y97.908 E.61453
G1 X146.966 Y97.895 E.01716
G1 X160.845 Y111.774 E.61566
G1 X160.324 Y111.786 E.01635
G1 X146.42 Y97.882 E.61677
G1 X145.873 Y97.869 E.01716
G1 X159.803 Y111.799 E.61792
G1 X159.282 Y111.811 E.01635
G1 X145.327 Y97.856 E.61903
G1 X144.78 Y97.843 E.01716
G1 X158.76 Y111.824 E.62016
G1 X158.239 Y111.836 E.01635
G1 X151.362 Y104.959 E.30506
G1 X151.295 Y104.7 E.00839
G1 X151.12 Y104.4 E.01089
G1 X150.917 Y104.171 E.0096
G1 X150.512 Y103.947 E.01452
G1 X150.273 Y103.87 E.00788
G1 X144.234 Y97.83 E.26791
G1 X143.687 Y97.817 E.01716
G1 X149.721 Y103.851 E.26766
G1 X149.187 Y103.851 E.01675
G1 X143.141 Y97.804 E.26822
G1 X142.594 Y97.791 E.01716
G1 X148.654 Y103.851 E.26882
G1 X148.12 Y103.851 E.01675
G1 X142.048 Y97.778 E.26937
G1 X141.501 Y97.765 E.01716
G1 X147.587 Y103.851 E.26997
G1 X147.356 Y103.851 E.00725
G1 X147.098 Y103.895 E.00821
G1 X140.955 Y97.752 E.2725
G1 X140.408 Y97.739 E.01716
G1 X146.732 Y104.063 E.28053
G1 X146.471 Y104.246 E.01
G1 X146.433 Y104.298 E.00202
G1 X139.862 Y97.726 E.29151
G1 X139.315 Y97.713 E.01716
G1 X146.217 Y104.615 E.30617
G1 X146.158 Y104.772 E.00526
