; generated by PrusaSlicer 2.6.1+win64 on 2023-09-27 at 20:23:38 UTC


;
;

;
;

;
;
; 

; external perimeters extrusion width = 0.45mm
; perimeters extrusion width = 0.45mm
; infill extrusion width = 0.45mm
; solid infill extrusion width = 0.45mm
; top infill extrusion width = 0.42mm
; first layer extrusion width = 0.50mm

; external perimeters extrusion width = 0.45mm
; perimeters extrusion width = 0.45mm
; infill extrusion width = 0.45mm
; solid infill extrusion width = 0.45mm
; top infill extrusion width = 0.42mm
; first layer extrusion width = 0.50mm

; external perimeters extrusion width = 0.45mm
; perimeters extrusion width = 0.45mm
; infill extrusion width = 0.45mm
; solid infill extrusion width = 0.45mm
; top infill extrusion width = 0.42mm
; first layer extrusion width = 0.50mm

M73 P0 R20
M201 X2500 Y2500 Z200 E2500 ; sets maximum accelerations, mm/sec^2
M203 X200 Y200 Z40 E100 ; sets maximum feedrates, mm / sec
M204 P2000 R1200 T2000 ; sets acceleration (P, T) and retract acceleration (R), mm/sec^2
M205 X8.00 Y8.00 Z2.00 E10.00 ; sets the jerk limits, mm/sec
M205 S0 T0 ; sets the minimum extruding and travel feed rate, mm/sec
;TYPE:Custom
M17 ; enable steppers
M862.3 P "MK4" ; printer model check
M862.1 P0.4 ; nozzle diameter check
M555 X87.1148 Y75.9299 W88.7116 H86.2413

G90 ; use absolute coordinates
M83 ; extruder relative mode

M140 S60 ; set bed temp

M104 S170 ; set extruder temp for bed leveling
M109 R170 ; wait for temp


M84 E ; turn off E motor

G28 ; home all without mesh bed level

G1 X42 Y-4 Z5 F4800

M302 S160 ; lower cold extrusion limit to 160C


G1 E-2 F2400 ; retraction


M84 E ; turn off E motor

G29 P9 X10 Y-4 W32 H4

M106 S100

G0 Z40 F10000

M190 S60 ; wait for bed temp

M107

;
; MBL
;
M84 E ; turn off E motor
G29 P1 ; invalidate mbl & probe print area
G29 P1 X0 Y0 W50 H20 C ; probe near purge place
G29 P3.2 ; interpolate mbl probes
G29 P3.13 ; extrapolate mbl outside probe area
G29 A ; activate mbl

; prepare for purge
M104 S215
G0 X0 Y-4 Z15 F4800 ; move away and ready for the purge
M109 S215

G92 E0
M569 S0 E ; set spreadcycle mode for extruder

;
; Extrude purge line
;
G92 E0 ; reset extruder position
G1 E2 F2400 ; deretraction after the initial one before nozzle cleaning
G0 E7 X15 Z0.2 F500 ; purge
G0 X25 E4 F500 ; purge
G0 X35 E4 F650 ; purge
G0 X45 E4 F800 ; purge
G0 X48 Z0.05 F8000 ; wipe, move close to the bed
G0 X51 Z0.2 F8000 ; wipe, move quickly away from the bed

G92 E0
M221 S100 ; set flow to 100%
G21 ; set units to millimeters
G90 ; use absolute coordinates
M83 ; use relative distances for extrusion
M900 K0.05 ; Filament gcode



M142 S36 ; set heatbreak target temp
M107
;LAYER_CHANGE
;Z:0.2
;HEIGHT:0.2
;BEFORE_LAYER_CHANGE
G92 E0.0
;0.2


G1 E-.8 F2100
G1 Z.2 F720
;AFTER_LAYER_CHANGE
;0.2
; printing object 155.STL id:2 copy 0
G1 Z.4
G1 X153.7 Y120.72 F12000
G1 Z.2 F720
G1 E.8 F1500
M204 P600
;TYPE:Perimeter
;WIDTH:0.499999
G1 F1200
G1 X153.791 Y120.585 E.00619
G1 X153.834 Y120.347 E.00919
G1 X153.834 Y83.044 E1.41775
G1 X153.866 Y82.576 E.01783
G1 X154.02 Y82.083 E.01963
G1 X154.278 Y81.636 E.01962
G1 X154.648 Y81.276 E.01962
G1 X155.087 Y81.006 E.01959
G1 X155.584 Y80.865 E.01963
G1 X156.1 Y80.837 E.01964
G1 X156.603 Y80.95 E.01959
G1 X157.07 Y81.17 E.01962
G1 X157.459 Y81.509 E.01961
G1 X157.765 Y81.925 E.01963
G1 X157.946 Y82.408 E.0196
G1 X158.02 Y82.957 E.02105
G1 X158.02 Y120.347 E1.42105
G1 X158.062 Y120.585 E.00919
G1 X158.671 Y121.524 E.04254
G1 X158.866 Y122.003 E.01966
G1 X158.978 Y122.508 E.01966
G1 X159.004 Y123.025 E.01967
G1 X158.849 Y124.133 E.04252
G1 X158.911 Y124.367 E.0092
G1 X174.676 Y158.175 E1.41775
G1 X174.845 Y158.613 E.01784
M73 P1 R20
G1 X174.914 Y159.124 E.0196
G1 X174.869 Y159.638 E.01961
G1 X174.686 Y160.121 E.01963
G1 X174.401 Y160.552 E.01964
G1 X174.011 Y160.889 E.01959
G1 X173.555 Y161.132 E.01964
G1 X173.051 Y161.243 E.01961
G1 X172.535 Y161.241 E.01961
G1 X172.039 Y161.098 E.01962
G1 X171.586 Y160.85 E.01963
G1 X171.218 Y160.489 E.01959
G1 X170.919 Y160.022 E.02108
G1 X155.117 Y126.136 E1.42103
G1 X155.054 Y126.028 E.00475
G1 X154.899 Y125.871 E.00839
G1 X154.459 Y125.625 E.01916
G1 X154.019 Y125.336 E.02001
G1 X153.636 Y124.976 E.01998
G1 X153.319 Y124.556 E.02
G1 X153.079 Y124.088 E.01999
G1 X152.922 Y123.586 E.01999
G1 X152.852 Y123.065 E.01998
G1 X152.872 Y122.539 E.02001
G1 X152.982 Y122.024 E.02001
G1 X153.177 Y121.536 E.01997
G1 X153.667 Y120.77 E.03456
M204 P1000
G1 X153.307 Y120.516 F12000
M204 P600
;TYPE:External perimeter
G1 F1200
G1 X153.377 Y120.347 E.00695
G1 X153.377 Y83.044 E1.41775
G1 X153.413 Y82.5 E.02072
G1 X153.601 Y81.899 E.02393
G1 X153.916 Y81.354 E.02392
G1 X154.367 Y80.915 E.02392
G1 X154.903 Y80.586 E.0239
G1 X155.509 Y80.415 E.02393
G1 X156.137 Y80.38 E.0239
G1 X156.752 Y80.517 E.02395
G1 X157.321 Y80.786 E.02392
G1 X157.795 Y81.199 E.02389
G1 X158.168 Y81.707 E.02395
G1 X158.389 Y82.296 E.02391
G1 X158.477 Y82.938 E.02463
G1 X158.477 Y120.347 E1.42178
G1 X158.522 Y120.483 E.00544
G1 X158.944 Y121.051 E.02689
G1 X159.214 Y121.583 E.02267
G1 X159.391 Y122.152 E.02265
G1 X159.471 Y122.742 E.02263
G1 X159.451 Y123.338 E.02266
G1 X159.308 Y124.031 E.02689
G1 X159.325 Y124.173 E.00544
G1 X175.09 Y157.982 E1.41778
G1 X175.287 Y158.49 E.02071
G1 X175.371 Y159.114 E.02393
G1 X175.316 Y159.741 E.02392
G1 X175.092 Y160.329 E.02391
G1 X174.746 Y160.854 E.0239
G1 X174.269 Y161.266 E.02396
G1 X173.714 Y161.563 E.02392
G1 X173.099 Y161.698 E.02393
G1 X172.47 Y161.695 E.02391
G1 X171.865 Y161.521 E.02393
G1 X171.313 Y161.218 E.02393
M73 P2 R20
G1 X170.864 Y160.777 E.02392
G1 X170.513 Y160.233 E.02461
G1 X154.703 Y126.329 E1.42178
G1 X154.605 Y126.225 E.00543
G1 X153.974 Y125.882 E.0273
G1 X153.498 Y125.507 E.02303
G1 X153.093 Y125.055 E.02307
G1 X152.771 Y124.542 E.02302
G1 X152.541 Y123.981 E.02304
G1 X152.41 Y123.389 E.02304
G1 X152.381 Y122.783 E.02306
G1 X152.456 Y122.182 E.02302
G1 X152.632 Y121.602 E.02304
G1 X152.905 Y121.06 E.02306
G1 X153.272 Y120.564 E.02345
M204 P1000
G1 X153.49 Y120.502 F12000
G1 E-.64 F2100
;WIPE_START
G1 F9600
G1 X153.377 Y120.347 E-.0501
G1 X153.377 Y119.818 E-.1099
;WIPE_END
G1 Z.4 F720
G1 X155.773 Y81.043 F12000
G1 Z.2 F720
G1 E.8 F1500
M204 P600
;TYPE:Solid infill
;WIDTH:0.500678
G1 F1200
G1 X157.6 Y82.87 E.09835
G1 X157.608 Y83.526 E.02497
G1 X155.412 Y81.329 E.11824
G1 X155.253 Y81.384 E.0064
G1 X154.977 Y81.541 E.01209
G1 X157.608 Y84.173 E.14165
G1 X157.608 Y84.821 E.02466
G1 X154.639 Y81.851 E.15984
G1 X154.452 Y82.121 E.0125
G1 X154.394 Y82.254 E.00552
G1 X157.608 Y85.468 E.17301
G1 X157.608 Y86.115 E.02463
G1 X154.262 Y82.769 E.18011
G1 X154.245 Y83.4 E.02403
G1 X157.608 Y86.763 E.18103
G1 X157.608 Y87.41 E.02463
G1 X154.245 Y84.047 E.18103
G1 X154.245 Y84.694 E.02463
G1 X157.608 Y88.058 E.18105
G1 X157.608 Y88.705 E.02463
G1 X154.245 Y85.342 E.18103
G1 X154.245 Y85.989 E.02463
G1 X157.608 Y89.352 E.18103
G1 X157.608 Y90 E.02466
G1 X154.245 Y86.637 E.18103
G1 X154.245 Y87.284 E.02463
G1 X157.608 Y90.647 E.18103
G1 X157.608 Y91.294 E.02463
G1 X154.245 Y87.931 E.18103
G1 X154.245 Y88.579 E.02466
G1 X157.608 Y91.942 E.18103
G1 X157.608 Y92.589 E.02463
G1 X154.245 Y89.226 E.18103
G1 X154.245 Y89.873 E.02463
G1 X157.608 Y93.236 E.18103
G1 X157.608 Y93.884 E.02466
G1 X154.245 Y90.521 E.18103
G1 X154.245 Y91.168 E.02463
G1 X157.608 Y94.531 E.18103
G1 X157.608 Y95.179 E.02466
G1 X154.245 Y91.815 E.18105
G1 X154.245 Y92.463 E.02466
G1 X157.608 Y95.826 E.18103
G1 X157.608 Y96.473 E.02463
G1 X154.245 Y93.11 E.18103
G1 X154.245 Y93.758 E.02466
G1 X157.608 Y97.121 E.18103
G1 X157.608 Y97.768 E.02463
G1 X154.245 Y94.405 E.18103
G1 X154.245 Y95.052 E.02463
G1 X157.608 Y98.415 E.18103
G1 X157.608 Y99.063 E.02466
G1 X154.245 Y95.7 E.18103
G1 X154.245 Y96.347 E.02463
G1 X157.608 Y99.71 E.18103
M73 P2 R19
G1 X157.608 Y100.358 E.02466
G1 X154.245 Y96.994 E.18105
G1 X154.245 Y97.642 E.02466
G1 X157.608 Y101.005 E.18103
G1 X157.608 Y101.652 E.02463
G1 X154.245 Y98.289 E.18103
G1 X154.245 Y98.937 E.02466
G1 X157.608 Y102.3 E.18103
G1 X157.608 Y102.947 E.02463
G1 X154.245 Y99.584 E.18103
G1 X154.245 Y100.231 E.02463
G1 X157.608 Y103.594 E.18103
G1 X157.608 Y104.242 E.02466
G1 X154.245 Y100.879 E.18103
G1 X154.245 Y101.526 E.02463
G1 X157.608 Y104.889 E.18103
G1 X157.608 Y105.536 E.02463
G1 X154.245 Y102.173 E.18103
G1 X154.245 Y102.821 E.02466
G1 X157.608 Y106.184 E.18103
G1 X157.608 Y106.831 E.02463
G1 X154.245 Y103.468 E.18103
G1 X154.245 Y104.115 E.02463
M73 P3 R19
G1 X157.608 Y107.479 E.18105
G1 X157.608 Y108.126 E.02463
G1 X154.245 Y104.763 E.18103
G1 X154.245 Y105.41 E.02463
G1 X157.608 Y108.773 E.18103
G1 X157.608 Y109.421 E.02466
G1 X154.245 Y106.058 E.18103
G1 X154.245 Y106.705 E.02463
G1 X157.608 Y110.068 E.18103
G1 X157.608 Y110.715 E.02463
G1 X154.245 Y107.352 E.18103
G1 X154.245 Y108 E.02466
G1 X157.608 Y111.363 E.18103
G1 X157.608 Y112.01 E.02463
G1 X154.245 Y108.647 E.18103
G1 X154.245 Y109.294 E.02463
G1 X157.608 Y112.658 E.18105
G1 X157.608 Y113.305 E.02463
G1 X154.245 Y109.942 E.18103
G1 X154.245 Y110.589 E.02463
G1 X157.608 Y113.952 E.18103
G1 X157.608 Y114.6 E.02466
G1 X154.245 Y111.237 E.18103
G1 X154.245 Y111.884 E.02463
G1 X157.608 Y115.247 E.18103
G1 X157.608 Y115.894 E.02463
G1 X154.245 Y112.531 E.18103
G1 X154.245 Y113.179 E.02466
G1 X157.608 Y116.542 E.18103
G1 X157.608 Y117.189 E.02463
G1 X154.245 Y113.826 E.18103
G1 X154.245 Y114.473 E.02463
G1 X157.608 Y117.836 E.18103
G1 X157.608 Y118.484 E.02466
G1 X154.245 Y115.121 E.18103
G1 X154.245 Y115.768 E.02463
G1 X157.608 Y119.131 E.18103
G1 X157.608 Y119.779 E.02466
G1 X154.245 Y116.415 E.18105
G1 X154.245 Y117.063 E.02466
G1 X157.616 Y120.433 E.18143
G1 X157.627 Y120.553 E.00459
G1 X157.743 Y120.877 E.0131
G1 X158.202 Y121.509 E.02973
G1 X158.365 Y121.83 E.0137
G1 X154.245 Y117.71 E.22177
G1 X154.245 Y118.358 E.02466
G1 X158.589 Y122.701 E.23381
G1 X158.585 Y123.236 E.02036
G1 X158.567 Y123.327 E.00353
G1 X154.245 Y119.005 E.23265
G1 X154.245 Y119.652 E.02463
G1 X158.462 Y123.869 E.227
G1 X158.436 Y124.003 E.0052
G1 X158.467 Y124.346 E.01311
G1 X158.584 Y124.638 E.01197
G1 X154.245 Y120.3 E.23354
G1 X154.227 Y120.553 E.00965
G1 X154.128 Y120.83 E.0112
G1 X159.149 Y125.851 E.27027
G1 X159.715 Y127.064 E.05095
G1 X153.866 Y121.215 E.31484
G1 X153.605 Y121.601 E.01774
G1 X160.28 Y128.277 E.35933
G1 X160.846 Y129.49 E.05095
G1 X153.404 Y122.048 E.40059
G1 X153.309 Y122.363 E.01252
G1 X153.283 Y122.574 E.00809
G1 X161.412 Y130.703 E.43757
G1 X161.977 Y131.916 E.05093
G1 X153.271 Y123.209 E.46866
G1 X153.274 Y123.274 E.00248
G1 X153.373 Y123.72 E.01739
G1 X153.539 Y124.124 E.01662
G1 X162.543 Y133.129 E.4847
G1 X163.109 Y134.342 E.05095
G1 X156.156 Y127.389 E.37427
G1 X156.721 Y128.602 E.05093
G1 X163.674 Y135.555 E.37427
G1 X164.24 Y136.768 E.05095
M73 P4 R19
G1 X157.287 Y129.815 E.37427
G1 X157.852 Y131.028 E.05093
G1 X164.805 Y137.981 E.37427
G1 X165.371 Y139.194 E.05095
G1 X158.418 Y132.241 E.37427
G1 X158.984 Y133.454 E.05095
G1 X165.937 Y140.407 E.37427
G1 X166.502 Y141.62 E.05093
G1 X159.549 Y134.667 E.37427
G1 X160.115 Y135.88 E.05095
G1 X167.068 Y142.833 E.37427
G1 X167.634 Y144.046 E.05095
G1 X160.681 Y137.093 E.37427
G1 X161.246 Y138.306 E.05093
G1 X168.199 Y145.259 E.37427
G1 X168.765 Y146.472 E.05095
G1 X161.812 Y139.519 E.37427
G1 X162.377 Y140.732 E.05093
G1 X169.33 Y147.685 E.37427
G1 X169.896 Y148.898 E.05095
G1 X162.943 Y141.945 E.37427
G1 X163.509 Y143.158 E.05095
G1 X170.462 Y150.111 E.37427
G1 X171.027 Y151.324 E.05093
G1 X164.074 Y144.371 E.37427
G1 X164.64 Y145.584 E.05095
G1 X171.593 Y152.537 E.37427
G1 X172.159 Y153.75 E.05095
G1 X165.206 Y146.797 E.37427
G1 X165.771 Y148.01 E.05093
G1 X172.724 Y154.963 E.37427
G1 X173.29 Y156.176 E.05095
G1 X166.337 Y149.223 E.37427
G1 X166.903 Y150.436 E.05095
G1 X173.856 Y157.389 E.37427
G1 X174.392 Y158.572 E.04943
G1 X167.468 Y151.649 E.37268
G1 X168.034 Y152.862 E.05095
G1 X174.498 Y159.326 E.34795
G1 X174.466 Y159.546 E.00846
G1 X174.366 Y159.842 E.01189
G1 X168.599 Y154.075 E.31043
G1 X169.165 Y155.288 E.05095
G1 X174.119 Y160.242 E.26667
G1 X173.892 Y160.471 E.01227
M73 P5 R19
G1 X173.779 Y160.549 E.00523
G1 X169.731 Y156.501 E.2179
G1 X170.296 Y157.714 E.05093
G1 X173.346 Y160.764 E.16418
G1 X173.146 Y160.819 E.0079
G1 X172.778 Y160.843 E.01404
G1 X170.437 Y158.501 E.12604
M204 P1000
; stop printing object 155.STL id:2 copy 0
; printing object 93.STL id:0 copy 0
G1 E-.64 F2100
;WIPE_START
G1 F9600
G1 X170.981 Y159.046 E-.16
;WIPE_END
G1 Z.4 F720
G1 X108.187 Y121.978 F12000
G1 Z.2 F720
G1 E.8 F1500
M204 P600
;TYPE:Perimeter
;WIDTH:0.499999
G1 F1200
G1 X108.27 Y121.998 E.00324
G1 X145.458 Y123.947 E1.41532
G1 X145.753 Y123.98 E.01128
G1 X146.254 Y124.105 E.01962
G1 X146.701 Y124.362 E.0196
G1 X147.082 Y124.711 E.01964
G1 X147.354 Y125.15 E.01963
G1 X147.523 Y125.637 E.01959
G1 X147.552 Y126.153 E.01964
G1 X147.543 Y126.325 E.00655
G1 X147.404 Y126.822 E.01961
G1 X147.16 Y127.277 E.01962
G1 X146.801 Y127.648 E.01962
G1 X146.37 Y127.931 E.0196
G1 X145.878 Y128.087 E.01962
G1 X145.326 Y128.132 E.02105
G1 X108.051 Y126.178 E1.41863
G1 X107.862 Y126.18 E.00718
G1 X107.574 Y126.287 E.01168
G1 X106.998 Y126.667 E.02623
G1 X106.504 Y126.881 E.02046
G1 X105.981 Y127.006 E.02044
G1 X105.444 Y127.039 E.02045
G1 X104.91 Y126.977 E.02043
G1 X104.394 Y126.824 E.02046
G1 X103.912 Y126.584 E.02046
G1 X103.48 Y126.264 E.02043
G1 X103.11 Y125.874 E.02043
G1 X102.813 Y125.425 E.02046
G1 X102.598 Y124.932 E.02044
G1 X102.472 Y124.409 E.02045
G1 X102.439 Y123.872 E.02045
G1 X102.499 Y123.337 E.02046
G1 X102.652 Y122.821 E.02046
G1 X102.891 Y122.34 E.02041
G1 X103.392 Y121.615 E.03349
G1 X103.435 Y121.377 E.00919
G1 X103.435 Y84.074 E1.41775
G1 X103.466 Y83.606 E.01783
G1 X103.62 Y83.114 E.01959
G1 X103.878 Y82.667 E.01962
G1 X104.248 Y82.307 E.01962
G1 X104.688 Y82.036 E.01964
G1 X105.185 Y81.896 E.01962
G1 X105.7 Y81.868 E.0196
G1 X106.204 Y81.98 E.01962
G1 X106.67 Y82.201 E.0196
G1 X107.06 Y82.54 E.01964
G1 X107.365 Y82.956 E.0196
G1 X107.546 Y83.439 E.0196
G1 X107.62 Y83.988 E.02105
G1 X107.62 Y121.313 E1.41858
G1 X107.635 Y121.454 E.00539
G1 X107.764 Y121.733 E.01168
G1 X108.02 Y121.937 E.01244
G1 X108.128 Y121.963 E.00422
M204 P1000
G1 X108.294 Y121.542 F12000
M204 P600
;TYPE:External perimeter
G1 F1200
G1 X145.482 Y123.491 E1.41532
G1 X145.815 Y123.527 E.01273
G1 X146.425 Y123.68 E.0239
G1 X146.971 Y123.993 E.02392
G1 X147.435 Y124.418 E.02391
G1 X147.766 Y124.953 E.02391
G1 X147.972 Y125.548 E.02393
G1 X148.009 Y126.177 E.02395
G1 X147.998 Y126.387 E.00799
G1 X147.828 Y126.993 E.02392
M73 P6 R19
G1 X147.53 Y127.547 E.02391
G1 X147.093 Y128 E.02392
G1 X146.567 Y128.345 E.02391
G1 X145.966 Y128.535 E.02396
G1 X145.321 Y128.589 E.0246
G1 X108.027 Y126.635 E1.41935
G1 X107.826 Y126.669 E.00775
G1 X107.216 Y127.071 E.02777
G1 X106.649 Y127.316 E.02348
G1 X106.048 Y127.46 E.02349
G1 X105.432 Y127.497 E.02345
G1 X104.818 Y127.427 E.02349
G1 X104.225 Y127.251 E.02351
G1 X103.673 Y126.975 E.02346
G1 X103.176 Y126.607 E.0235
G1 X102.751 Y126.159 E.02347
G1 X102.41 Y125.644 E.02348
G1 X102.163 Y125.078 E.02347
G1 X102.018 Y124.477 E.0235
G1 X101.98 Y123.86 E.02349
G1 X102.05 Y123.246 E.02349
G1 X102.225 Y122.654 E.02346
G1 X102.499 Y122.1 E.02349
G1 X102.933 Y121.513 E.02775
G1 X102.977 Y121.377 E.00543
G1 X102.977 Y84.074 E1.41775
G1 X103.014 Y83.531 E.02069
G1 X103.202 Y82.93 E.02393
G1 X103.516 Y82.385 E.02391
G1 X103.967 Y81.946 E.02392
G1 X104.504 Y81.616 E.02396
G1 X105.109 Y81.445 E.02389
G1 X105.738 Y81.41 E.02394
G1 X106.352 Y81.548 E.02392
G1 X106.921 Y81.817 E.02392
G1 X107.396 Y82.23 E.02392
G1 X107.769 Y82.737 E.02392
G1 X107.989 Y83.327 E.02393
G1 X108.077 Y83.969 E.02463
G1 X108.077 Y121.313 E1.41931
G1 X108.14 Y121.471 E.00646
G1 X108.24 Y121.517 E.00418
M204 P1000
G1 X108.381 Y121.932 F12000
G1 E-.64 F2100
;WIPE_START
G1 F9600
G1 X109.009 Y121.558 E-.16
;WIPE_END
G1 Z.4 F720
G1 X106.112 Y82.167 F12000
G1 Z.2 F720
G1 E.8 F1500
M204 P600
;TYPE:Solid infill
;WIDTH:0.502496
G1 F1200
G1 X106.851 Y82.92 E.04032
G1 X107.002 Y83.152 E.01058
