; generated by PrusaSlicer 2.6.1+win64 on 2023-09-27 at 20:24:33 UTC


;
;

;
;

;
;
; 

; external perimeters extrusion width = 0.45mm
; perimeters extrusion width = 0.45mm
; infill extrusion width = 0.45mm
; solid infill extrusion width = 0.45mm
; top infill extrusion width = 0.42mm
; first layer extrusion width = 0.50mm

; external perimeters extrusion width = 0.45mm
; perimeters extrusion width = 0.45mm
; infill extrusion width = 0.45mm
; solid infill extrusion width = 0.45mm
; top infill extrusion width = 0.42mm
; first layer extrusion width = 0.50mm

M73 P0 R13
M201 X2500 Y2500 Z200 E2500 ; sets maximum accelerations, mm/sec^2
M203 X200 Y200 Z40 E100 ; sets maximum feedrates, mm / sec
M204 P2000 R1200 T2000 ; sets acceleration (P, T) and retract acceleration (R), mm/sec^2
M205 X8.00 Y8.00 Z2.00 E10.00 ; sets the jerk limits, mm/sec
M205 S0 T0 ; sets the minimum extruding and travel feed rate, mm/sec
;TYPE:Custom
M17 ; enable steppers
M862.3 P "MK4" ; printer model check
M862.1 P0.4 ; nozzle diameter check
M555 X103.091 Y69.0848 W72.0677 H81.0696

G90 ; use absolute coordinates
M83 ; extruder relative mode

M140 S60 ; set bed temp

M104 S170 ; set extruder temp for bed leveling
M109 R170 ; wait for temp


M84 E ; turn off E motor

G28 ; home all without mesh bed level

G1 X42 Y-4 Z5 F4800

M302 S160 ; lower cold extrusion limit to 160C


G1 E-2 F2400 ; retraction


M84 E ; turn off E motor

G29 P9 X10 Y-4 W32 H4

M106 S100

G0 Z40 F10000

M190 S60 ; wait for bed temp

M107

;
; MBL
;
M84 E ; turn off E motor
G29 P1 ; invalidate mbl & probe print area
G29 P1 X0 Y0 W50 H20 C ; probe near purge place
G29 P3.2 ; interpolate mbl probes
G29 P3.13 ; extrapolate mbl outside probe area
G29 A ; activate mbl

; prepare for purge
M104 S215
G0 X0 Y-4 Z15 F4800 ; move away and ready for the purge
M109 S215

G92 E0
M569 S0 E ; set spreadcycle mode for extruder

;
; Extrude purge line
;
G92 E0 ; reset extruder position
G1 E2 F2400 ; deretraction after the initial one before nozzle cleaning
G0 E7 X15 Z0.2 F500 ; purge
G0 X25 E4 F500 ; purge
G0 X35 E4 F650 ; purge
G0 X45 E4 F800 ; purge
G0 X48 Z0.05 F8000 ; wipe, move close to the bed
G0 X51 Z0.2 F8000 ; wipe, move quickly away from the bed

G92 E0
M221 S100 ; set flow to 100%
G21 ; set units to millimeters
G90 ; use absolute coordinates
M83 ; use relative distances for extrusion
M900 K0.05 ; Filament gcode



M142 S36 ; set heatbreak target temp
M107
;LAYER_CHANGE
;Z:0.2
;HEIGHT:0.2
;BEFORE_LAYER_CHANGE
G92 E0.0
;0.2


G1 E-.8 F2100
G1 Z.2 F720
;AFTER_LAYER_CHANGE
;0.2
; printing object 113.STL id:0 copy 0
G1 Z.4
G1 X109.983 Y115.992 F12000
G1 Z.2 F720
G1 E.8 F1500
M204 P600
;TYPE:Perimeter
;WIDTH:0.499999
G1 F1200
M73 P1 R13
G1 X110.072 Y116.13 E.00624
G1 X110.273 Y116.262 E.00914
G1 X144.693 Y130.872 E1.42114
G1 X145.169 Y131.155 E.02105
G1 X145.543 Y131.51 E.0196
G1 X145.807 Y131.954 E.01963
G1 X145.967 Y132.445 E.01963
G1 X145.987 Y132.96 E.01959
G1 X145.934 Y133.3 E.01308
G1 X145.759 Y133.786 E.01963
G1 X145.459 Y134.205 E.01959
G1 X145.073 Y134.549 E.01965
G1 X144.609 Y134.775 E.01962
G1 X144.107 Y134.894 E.01961
G1 X143.591 Y134.871 E.01963
G1 X143.057 Y134.725 E.02104
G1 X108.64 Y120.116 E1.42102
G1 X108.521 Y120.078 E.00475
G1 X108.301 Y120.065 E.00838
G1 X107.803 Y120.178 E.01941
G1 X107.273 Y120.256 E.02036
G1 X106.738 Y120.242 E.02034
G1 X106.213 Y120.134 E.02037
G1 X105.714 Y119.938 E.02038
G1 X105.258 Y119.657 E.02036
G1 X104.856 Y119.302 E.02038
G1 X104.523 Y118.883 E.02034
G1 X104.267 Y118.412 E.02037
G1 X104.097 Y117.904 E.02036
G1 X104.017 Y117.374 E.02037
G1 X104.031 Y116.838 E.02038
G1 X104.137 Y116.313 E.02036
G1 X104.333 Y115.814 E.02038
G1 X104.954 Y114.849 E.04361
G1 X104.996 Y114.612 E.00915
G1 X104.996 Y77.308 E1.41779
G1 X105.028 Y76.84 E.01783
G1 X105.182 Y76.347 E.01963
G1 X105.44 Y75.9 E.01962
G1 X105.81 Y75.54 E.01962
G1 X106.25 Y75.27 E.01962
G1 X106.747 Y75.13 E.01962
G1 X107.262 Y75.101 E.0196
G1 X107.766 Y75.214 E.01963
G1 X108.232 Y75.434 E.01959
G1 X108.622 Y75.773 E.01964
G1 X108.927 Y76.189 E.0196
G1 X109.108 Y76.673 E.01964
G1 X109.182 Y77.222 E.02105
G1 X109.182 Y114.611 E1.42102
G1 X109.194 Y114.738 E.00485
G1 X109.324 Y115.03 E.01215
G1 X109.95 Y115.941 E.04201
M204 P1000
G1 X110.325 Y115.712 F12000
M204 P600
;TYPE:External perimeter
G1 F1200
G1 X110.452 Y115.841 E.00688
G1 X144.982 Y130.508 E1.42584
G1 X145.445 Y130.791 E.02062
G1 X145.902 Y131.224 E.02393
M73 P2 R13
G1 X146.223 Y131.765 E.02391
G1 X146.418 Y132.364 E.02394
G1 X146.443 Y132.993 E.02392
G1 X146.379 Y133.407 E.01592
G1 X146.165 Y133.999 E.02392
G1 X145.799 Y134.511 E.02392
G1 X145.329 Y134.93 E.02393
G1 X144.763 Y135.205 E.02392
G1 X144.15 Y135.35 E.02394
G1 X143.521 Y135.323 E.02393
G1 X142.896 Y135.153 E.02462
G1 X108.461 Y120.537 E1.42176
G1 X108.319 Y120.525 E.00542
G1 X107.609 Y120.694 E.02774
G1 X106.992 Y120.731 E.02349
G1 X106.379 Y120.66 E.02345
G1 X105.786 Y120.484 E.02351
G1 X105.234 Y120.208 E.02346
G1 X104.737 Y119.841 E.02348
G1 X104.312 Y119.393 E.02347
G1 X103.971 Y118.877 E.02351
G1 X103.725 Y118.311 E.02346
G1 X103.58 Y117.71 E.0235
G1 X103.542 Y117.094 E.02346
G1 X103.612 Y116.48 E.02349
G1 X103.786 Y115.887 E.02349
G1 X104.061 Y115.334 E.02347
G1 X104.456 Y114.8 E.02524
G1 X104.539 Y114.611 E.00785
G1 X104.539 Y77.308 E1.41775
G1 X104.576 Y76.765 E.02069
G1 X104.764 Y76.164 E.02393
G1 X105.078 Y75.619 E.02391
G1 X105.529 Y75.18 E.02392
G1 X106.066 Y74.85 E.02396
G1 X106.671 Y74.679 E.02389
G1 X107.3 Y74.644 E.02394
G1 X107.914 Y74.782 E.02392
G1 X108.483 Y75.051 E.02392
M73 P3 R13
G1 X108.958 Y75.464 E.02392
G1 X109.331 Y75.971 E.02392
G1 X109.551 Y76.561 E.02393
G1 X109.639 Y77.203 E.02463
G1 X109.639 Y114.611 E1.42174
G1 X109.686 Y114.752 E.00565
G1 X110.049 Y115.225 E.02266
G1 X110.295 Y115.66 E.01899
M204 P1000
G1 X110.266 Y115.883 F12000
G1 E-.64 F2100
;WIPE_START
G1 F9600
G1 X110.452 Y115.841 E-.04979
G1 X110.94 Y116.048 E-.11021
;WIPE_END
G1 Z.4 F720
G1 X144.395 Y130.969 F12000
G1 Z.2 F720
G1 E.8 F1500
M204 P600
;TYPE:Solid infill
;WIDTH:0.502497
G1 F1200
G1 X145.276 Y131.851 E.04764
G1 X145.375 Y131.998 E.00677
G1 X145.489 Y132.25 E.01057
G1 X145.56 Y132.517 E.01056
G1 X145.585 Y132.81 E.01124
G1 X143.654 Y130.878 E.10438
G1 X142.524 Y130.398 E.04692
G1 X145.491 Y133.365 E.16034
G1 X145.394 Y133.594 E.0095
G1 X145.268 Y133.792 E.00897
G1 X141.395 Y129.919 E.20931
G1 X140.266 Y129.44 E.04687
G1 X144.948 Y134.122 E.25303
G1 X144.844 Y134.206 E.00511
G1 X144.539 Y134.363 E.01311
G1 X139.136 Y128.96 E.29199
G1 X138.007 Y128.481 E.04687
G1 X144.01 Y134.483 E.32439
G1 X143.791 Y134.486 E.00837
G1 X143.517 Y134.444 E.01059
G1 X143.223 Y134.347 E.01183
G1 X136.878 Y128.002 E.3429
G1 X135.749 Y127.522 E.04688
G1 X142.097 Y133.871 E.34309
G1 X140.967 Y133.391 E.04692
G1 X134.619 Y127.043 E.34306
G1 X133.49 Y126.564 E.04687
G1 X139.838 Y132.912 E.34306
G1 X138.709 Y132.432 E.04688
G1 X132.361 Y126.084 E.34306
G1 X131.231 Y125.605 E.0469
G1 X137.58 Y131.953 E.34309
G1 X136.45 Y131.474 E.0469
G1 X130.102 Y125.126 E.34306
G1 X128.973 Y124.646 E.04688
G1 X135.321 Y130.994 E.34306
G1 X134.192 Y130.515 E.04687
G1 X127.843 Y124.167 E.34309
G1 X126.714 Y123.687 E.04688
G1 X133.062 Y130.036 E.34309
G1 X131.933 Y129.556 E.04688
G1 X125.585 Y123.208 E.34306
M73 P4 R13
G1 X124.456 Y122.729 E.04687
G1 X130.804 Y129.077 E.34306
G1 X129.674 Y128.598 E.0469
G1 X123.326 Y122.249 E.34309
G1 X122.197 Y121.77 E.04687
G1 X128.545 Y128.118 E.34306
G1 X127.416 Y127.639 E.04687
G1 X121.068 Y121.291 E.34306
G1 X119.938 Y120.811 E.04692
G1 X126.287 Y127.16 E.34312
G1 X125.157 Y126.68 E.04692
G1 X118.809 Y120.332 E.34306
G1 X117.68 Y119.853 E.04687
G1 X124.028 Y126.201 E.34306
G1 X122.899 Y125.721 E.04688
G1 X116.55 Y119.373 E.34309
G1 X115.421 Y118.894 E.04687
G1 X121.769 Y125.242 E.34306
G1 X120.64 Y124.763 E.04687
G1 X114.292 Y118.415 E.34306
G1 X113.163 Y117.935 E.04688
G1 X119.511 Y124.283 E.34306
G1 X118.381 Y123.804 E.0469
G1 X111.645 Y117.068 E.36403
M204 P1000
G1 E-.64 F2100
;WIPE_START
G1 F9600
G1 X112.189 Y117.612 E-.16
;WIPE_END
G1 Z.4 F720
G1 X108.879 Y76.605 F12000
G1 Z.2 F720
G1 E.8 F1500
M204 P600
M73 P5 R13
G1 F1200
G1 X108.221 Y75.947 E.03556
G1 X108.007 Y75.78 E.01037
G1 X107.763 Y75.648 E.0106
G1 X107.501 Y75.558 E.01059
G1 X107.137 Y75.513 E.01402
G1 X108.763 Y77.139 E.08787
G1 X108.771 Y77.797 E.02515
G1 X106.57 Y75.595 E.11898
G1 X106.416 Y75.648 E.00622
G1 X106.134 Y75.81 E.01243
G1 X108.771 Y78.447 E.14251
G1 X108.771 Y79.097 E.02484
G1 X105.796 Y76.122 E.16078
G1 X105.614 Y76.386 E.01225
G1 X105.552 Y76.528 E.00592
G1 X108.771 Y79.747 E.17396
G1 X108.771 Y80.397 E.02484
G1 X105.424 Y77.049 E.18091
G1 X105.408 Y77.239 E.00729
G1 X105.408 Y77.683 E.01697
G1 X108.771 Y81.046 E.18175
G1 X108.771 Y81.696 E.02484
G1 X105.408 Y78.333 E.18175
G1 X105.408 Y78.983 E.02484
G1 X108.771 Y82.346 E.18175
M73 P5 R12
G1 X108.771 Y82.996 E.02484
G1 X105.408 Y79.633 E.18175
G1 X105.408 Y80.283 E.02484
G1 X108.771 Y83.646 E.18175
G1 X108.771 Y84.296 E.02484
G1 X105.408 Y80.933 E.18175
G1 X105.408 Y81.583 E.02484
G1 X108.771 Y84.946 E.18175
G1 X108.771 Y85.596 E.02484
G1 X105.408 Y82.233 E.18175
G1 X105.408 Y82.883 E.02484
G1 X108.771 Y86.246 E.18175
G1 X108.771 Y86.896 E.02484
G1 X105.408 Y83.533 E.18175
G1 X105.408 Y84.183 E.02484
G1 X108.771 Y87.546 E.18175
G1 X108.771 Y88.196 E.02484
G1 X105.408 Y84.833 E.18175
G1 X105.408 Y85.483 E.02484
G1 X108.771 Y88.846 E.18175
G1 X108.771 Y89.496 E.02484
G1 X105.408 Y86.133 E.18175
G1 X105.408 Y86.783 E.02484
G1 X108.771 Y90.146 E.18175
G1 X108.771 Y90.796 E.02484
G1 X105.408 Y87.432 E.18177
G1 X105.408 Y88.082 E.02484
G1 X108.771 Y91.446 E.18177
G1 X108.771 Y92.095 E.0248
G1 X105.408 Y88.732 E.18175
G1 X105.408 Y89.382 E.02484
G1 X108.771 Y92.745 E.18175
G1 X108.771 Y93.395 E.02484
G1 X105.408 Y90.032 E.18175
G1 X105.408 Y90.682 E.02484
G1 X108.771 Y94.045 E.18175
G1 X108.771 Y94.695 E.02484
G1 X105.408 Y91.332 E.18175
G1 X105.408 Y91.982 E.02484
G1 X108.771 Y95.345 E.18175
G1 X108.771 Y95.995 E.02484
G1 X105.408 Y92.632 E.18175
G1 X105.408 Y93.282 E.02484
M73 P6 R12
G1 X108.771 Y96.645 E.18175
G1 X108.771 Y97.295 E.02484
G1 X105.408 Y93.932 E.18175
G1 X105.408 Y94.582 E.02484
G1 X108.771 Y97.945 E.18175
G1 X108.771 Y98.595 E.02484
G1 X105.408 Y95.232 E.18175
G1 X105.408 Y95.882 E.02484
G1 X108.771 Y99.245 E.18175
G1 X108.771 Y99.895 E.02484
G1 X105.408 Y96.532 E.18175
G1 X105.408 Y97.182 E.02484
G1 X108.771 Y100.545 E.18175
G1 X108.771 Y101.195 E.02484
G1 X105.408 Y97.832 E.18175
G1 X105.408 Y98.481 E.0248
G1 X108.771 Y101.845 E.18177
G1 X108.771 Y102.495 E.02484
G1 X105.408 Y99.131 E.18177
G1 X105.408 Y99.781 E.02484
G1 X108.771 Y103.144 E.18175
G1 X108.771 Y103.794 E.02484
G1 X105.408 Y100.431 E.18175
G1 X105.408 Y101.081 E.02484
G1 X108.771 Y104.444 E.18175
G1 X108.771 Y105.094 E.02484
G1 X105.408 Y101.731 E.18175
G1 X105.408 Y102.381 E.02484
G1 X108.771 Y105.744 E.18175
G1 X108.771 Y106.394 E.02484
G1 X105.408 Y103.031 E.18175
G1 X105.408 Y103.681 E.02484
G1 X108.771 Y107.044 E.18175
G1 X108.771 Y107.694 E.02484
G1 X105.408 Y104.331 E.18175
G1 X105.408 Y104.981 E.02484
G1 X108.771 Y108.344 E.18175
G1 X108.771 Y108.994 E.02484
G1 X105.408 Y105.631 E.18175
G1 X105.408 Y106.281 E.02484
G1 X108.771 Y109.644 E.18175
G1 X108.771 Y110.294 E.02484
G1 X105.408 Y106.931 E.18175
G1 X105.408 Y107.581 E.02484
G1 X108.771 Y110.944 E.18175
G1 X108.771 Y111.594 E.02484
G1 X105.408 Y108.231 E.18175
G1 X105.408 Y108.881 E.02484
G1 X108.771 Y112.244 E.18175
G1 X108.771 Y112.894 E.02484
G1 X105.408 Y109.53 E.18177
G1 X105.408 Y110.18 E.02484
G1 X108.771 Y113.543 E.18175
G1 X108.771 Y114.193 E.02484
G1 X105.408 Y110.83 E.18175
G1 X105.408 Y111.48 E.02484
G1 X108.813 Y114.885 E.18402
M73 P7 R12
G1 X108.905 Y115.143 E.01047
G1 X109.323 Y115.706 E.0268
G1 X109.678 Y116.311 E.02681
G1 X109.931 Y116.544 E.01314
G1 X110.105 Y116.637 E.00754
G1 X110.904 Y116.976 E.03317
G1 X117.252 Y123.325 E.34309
G1 X116.123 Y122.845 E.04688
G1 X105.408 Y112.13 E.57907
G1 X105.408 Y112.78 E.02484
G1 X114.994 Y122.366 E.51805
G1 X113.864 Y121.887 E.0469
G1 X105.408 Y113.43 E.45701
G1 X105.408 Y114.08 E.02484
G1 X112.735 Y121.407 E.39597
G1 X111.606 Y120.928 E.04687
G1 X105.399 Y114.721 E.33544
G1 X105.39 Y114.817 E.00368
G1 X105.274 Y115.14 E.01311
G1 X105.229 Y115.202 E.00293
G1 X110.476 Y120.448 E.28354
G1 X109.347 Y119.969 E.04687
G1 X104.957 Y115.579 E.23725
G1 X104.806 Y115.788 E.00985
G1 X104.71 Y115.981 E.00824
G1 X108.389 Y119.661 E.19885
G1 X108.262 Y119.654 E.00486
G1 X107.83 Y119.752 E.01693
G1 X104.526 Y116.448 E.17856
G1 X104.466 Y116.653 E.00816
G1 X104.427 Y116.999 E.01331
G1 X107.272 Y119.844 E.15375
G1 X107.016 Y119.86 E.0098
G1 X106.589 Y119.81 E.01643
G1 X104.469 Y117.691 E.11454
G1 X104.551 Y118.034 E.01348
G1 X104.737 Y118.461 E.0178
G1 X104.995 Y118.85 E.01784
G1 X105.957 Y119.829 E.05245
M204 P1000
; stop printing object 113.STL id:0 copy 0
; printing object 141.STL id:1 copy 0
G1 E-.64 F2100
;WIPE_START
G1 F9600
G1 X105.417 Y119.28 E-.16
;WIPE_END
G1 Z.4 F720
G1 X150.1 Y116.384 F12000
G1 Z.2 F720
G1 E.8 F1500
M204 P600
;TYPE:Perimeter
;WIDTH:0.499999
G1 F1200
G1 X150.114 Y116.543 E.00607
G1 X150.231 Y116.756 E.00924
G1 X173.762 Y145.814 E1.42109
G1 X174.05 Y146.287 E.02105
G1 X174.213 Y146.777 E.01963
G1 X174.237 Y147.292 E.01959
G1 X174.187 Y147.633 E.0131
G1 X174.016 Y148.119 E.01958
G1 X173.718 Y148.541 E.01963
G1 X173.335 Y148.888 E.01964
G1 X172.873 Y149.117 E.0196
G1 X172.372 Y149.239 E.0196
M73 P8 R12
G1 X171.856 Y149.221 E.01962
G1 X171.356 Y149.09 E.01964
G1 X170.912 Y148.828 E.01959
G1 X170.509 Y148.448 E.02105
G1 X146.978 Y119.391 E1.42106
G1 X146.794 Y119.232 E.00924
G1 X145.751 Y118.896 E.04165
G1 X145.308 Y118.657 E.01913
G1 X144.91 Y118.349 E.01913
G1 X144.567 Y117.981 E.01912
G1 X144.289 Y117.561 E.01914
G1 X144.083 Y117.103 E.01909
G1 X143.955 Y116.616 E.01914
G1 X143.907 Y116.115 E.01913
G1 X143.941 Y115.613 E.01912
G1 X144.057 Y115.124 E.0191
G1 X144.251 Y114.66 E.01911
G1 X144.85 Y113.742 E.04166
G1 X144.893 Y113.502 E.00927
G1 X144.893 Y76.199 E1.41775
G1 X144.925 Y75.731 E.01783
G1 X145.079 Y75.238 E.01963
G1 X145.337 Y74.791 E.01962
G1 X145.707 Y74.431 E.01962
G1 X146.147 Y74.161 E.01962
G1 X146.643 Y74.02 E.0196
G1 X147.159 Y73.992 E.01964
G1 X147.662 Y74.105 E.01959
G1 X148.129 Y74.325 E.01962
G1 X148.518 Y74.664 E.01961
G1 X148.824 Y75.08 E.01963
G1 X149.005 Y75.563 E.0196
G1 X149.079 Y76.112 E.02105
G1 X149.079 Y113.502 E1.42105
G1 X149.122 Y113.742 E.00927
G1 X149.7 Y114.616 E.03982
G1 X149.969 Y115.269 E.02684
G1 X150.095 Y116.324 E.04038
M204 P1000
G1 X150.534 Y116.296 F12000
M204 P600
;TYPE:External perimeter
G1 F1200
G1 X150.586 Y116.468 E.00683
G1 X174.188 Y145.628 E1.4258
G1 X174.465 Y146.095 E.02064
G1 X174.664 Y146.693 E.02395
G1 X174.694 Y147.321 E.0239
G1 X174.632 Y147.736 E.01595
M73 P9 R12
G1 X174.423 Y148.33 E.02393
G1 X174.06 Y148.844 E.02392
G1 X173.594 Y149.267 E.02392
G1 X173.03 Y149.546 E.02391
G1 X172.418 Y149.696 E.02395
G1 X171.789 Y149.673 E.02392
G1 X171.18 Y149.514 E.02392
G1 X170.638 Y149.194 E.02392
G1 X170.165 Y148.751 E.02463
G1 X146.623 Y119.678 E1.42179
G1 X146.502 Y119.601 E.00545
G1 X145.833 Y119.43 E.02624
G1 X145.302 Y119.198 E.02202
G1 X144.816 Y118.882 E.02203
G1 X144.388 Y118.491 E.02203
G1 X144.029 Y118.036 E.02203
G1 X143.749 Y117.528 E.02205
G1 X143.556 Y116.982 E.02201
G1 X143.454 Y116.411 E.02205
G1 X143.446 Y115.832 E.02201
G1 X143.533 Y115.258 E.02206
G1 X143.712 Y114.707 E.02202
G1 X143.978 Y114.192 E.02203
G1 X144.379 Y113.654 E.0255
G1 X144.436 Y113.502 E.00617
G1 X144.436 Y76.199 E1.41775
G1 X144.472 Y75.655 E.02072
G1 X144.66 Y75.054 E.02393
G1 X144.975 Y74.509 E.02392
G1 X145.426 Y74.07 E.02392
G1 X145.962 Y73.741 E.0239
G1 X146.568 Y73.569 E.02394
G1 X147.197 Y73.535 E.02394
G1 X147.811 Y73.672 E.02391
G1 X148.38 Y73.941 E.02392
G1 X148.855 Y74.354 E.02392
G1 X149.227 Y74.862 E.02393
G1 X149.448 Y75.451 E.02391
G1 X149.536 Y76.093 E.02463
G1 X149.536 Y113.502 E1.42178
G1 X149.581 Y113.64 E.00552
G1 X149.974 Y114.16 E.02477
