; generated by PrusaSlicer 2.6.1+win64 on 2023-09-27 at 20:26:26 UTC


;
;

;
;

;
;
; 

; external perimeters extrusion width = 0.45mm
; perimeters extrusion width = 0.45mm
; infill extrusion width = 0.45mm
; solid infill extrusion width = 0.45mm
; top infill extrusion width = 0.42mm
; first layer extrusion width = 0.50mm

; external perimeters extrusion width = 0.45mm
; perimeters extrusion width = 0.45mm
; infill extrusion width = 0.45mm
; solid infill extrusion width = 0.45mm
; top infill extrusion width = 0.42mm
; first layer extrusion width = 0.50mm

M73 P0 R13
M201 X2500 Y2500 Z200 E2500 ; sets maximum accelerations, mm/sec^2
M203 X200 Y200 Z40 E100 ; sets maximum feedrates, mm / sec
M204 P2000 R1200 T2000 ; sets acceleration (P, T) and retract acceleration (R), mm/sec^2
M205 X8.00 Y8.00 Z2.00 E10.00 ; sets the jerk limits, mm/sec
M205 S0 T0 ; sets the minimum extruding and travel feed rate, mm/sec
;TYPE:Custom
M17 ; enable steppers
M862.3 P "MK4" ; printer model check
M862.1 P0.4 ; nozzle diameter check
M555 X105.748 Y64.1358 W61.6411 H76.1722

G90 ; use absolute coordinates
M83 ; extruder relative mode

M140 S60 ; set bed temp

M104 S170 ; set extruder temp for bed leveling
M109 R170 ; wait for temp


M84 E ; turn off E motor

G28 ; home all without mesh bed level

G1 X42 Y-4 Z5 F4800

M302 S160 ; lower cold extrusion limit to 160C


G1 E-2 F2400 ; retraction


M84 E ; turn off E motor

G29 P9 X10 Y-4 W32 H4

M106 S100

G0 Z40 F10000

M190 S60 ; wait for bed temp

M107

;
; MBL
;
M84 E ; turn off E motor
G29 P1 ; invalidate mbl & probe print area
G29 P1 X0 Y0 W50 H20 C ; probe near purge place
G29 P3.2 ; interpolate mbl probes
G29 P3.13 ; extrapolate mbl outside probe area
G29 A ; activate mbl

; prepare for purge
M104 S215
G0 X0 Y-4 Z15 F4800 ; move away and ready for the purge
M109 S215

G92 E0
M569 S0 E ; set spreadcycle mode for extruder

;
; Extrude purge line
;
G92 E0 ; reset extruder position
G1 E2 F2400 ; deretraction after the initial one before nozzle cleaning
G0 E7 X15 Z0.2 F500 ; purge
G0 X25 E4 F500 ; purge
G0 X35 E4 F650 ; purge
G0 X45 E4 F800 ; purge
G0 X48 Z0.05 F8000 ; wipe, move close to the bed
G0 X51 Z0.2 F8000 ; wipe, move quickly away from the bed

G92 E0
M221 S100 ; set flow to 100%
G21 ; set units to millimeters
G90 ; use absolute coordinates
M83 ; use relative distances for extrusion
M900 K0.05 ; Filament gcode



M142 S36 ; set heatbreak target temp
M107
;LAYER_CHANGE
;Z:0.2
;HEIGHT:0.2
;BEFORE_LAYER_CHANGE
G92 E0.0
;0.2


G1 E-.8 F2100
G1 Z.2 F720
;AFTER_LAYER_CHANGE
;0.2
; printing object 128.STL id:0 copy 0
G1 Z.4
G1 X110.102 Y115.775 F12000
G1 Z.2 F720
G1 E.8 F1500
M204 P600
;TYPE:Perimeter
;WIDTH:0.499999
G1 F1200
M73 P1 R13
G1 X109.663 Y115.758 E.0167
G1 X109.15 Y115.701 E.01962
G1 X108.654 Y115.56 E.0196
G1 X108.188 Y115.339 E.0196
G1 X107.767 Y115.043 E.01956
G1 X107.393 Y114.67 E.02008
G1 X107.098 Y114.258 E.01926
G1 X106.87 Y113.79 E.01979
G1 X106.726 Y113.297 E.01952
G1 X106.666 Y112.783 E.01967
G1 X106.693 Y112.259 E.01994
G1 X106.801 Y111.769 E.01907
G1 X107.001 Y111.278 E.02015
G1 X107.606 Y110.345 E.04226
G1 X107.649 Y110.108 E.00915
G1 X107.649 Y72.809 E1.4176
G1 X107.68 Y72.335 E.01805
G1 X107.836 Y71.841 E.01969
G1 X108.092 Y71.397 E.01948
G1 X108.462 Y71.038 E.01959
G1 X108.902 Y70.767 E.01964
G1 X109.402 Y70.626 E.01974
G1 X109.916 Y70.599 E.01956
G1 X110.421 Y70.712 E.01967
G1 X110.885 Y70.932 E.01952
G1 X111.277 Y71.274 E.01977
G1 X111.58 Y71.687 E.01947
G1 X111.762 Y72.174 E.01976
G1 X111.835 Y72.72 E.02094
G1 X111.835 Y110.107 E1.42094
G1 X111.877 Y110.347 E.00926
G1 X112.521 Y111.326 E.04454
G1 X112.895 Y112.435 E.04448
G1 X113.056 Y112.614 E.00915
G1 X142.451 Y135.58 E1.41774
G1 X142.803 Y135.895 E.01795
G1 X143.096 Y136.319 E.01959
G1 X143.289 Y136.797 E.01959
G1 X143.345 Y137.314 E.01976
G1 X143.288 Y137.825 E.01954
G1 X143.09 Y138.306 E.01977
G1 X142.797 Y138.725 E.01943
G1 X142.399 Y139.052 E.01958
G1 X141.937 Y139.285 E.01967
G1 X141.429 Y139.384 E.01967
G1 X140.913 Y139.368 E.01962
G1 X140.415 Y139.21 E.01986
G1 X139.944 Y138.933 E.02077
G1 X110.481 Y115.914 E1.42102
G1 X110.375 Y115.846 E.00479
G1 X110.162 Y115.777 E.00851
M204 P1000
G1 X110.029 Y116.225 F12000
M204 P600
;TYPE:External perimeter
G1 F1200
G1 X109.357 Y116.207 E.02555
G1 X108.773 Y116.093 E.02261
G1 X108.216 Y115.884 E.02261
G1 X107.702 Y115.584 E.02262
G1 X107.244 Y115.202 E.02267
M73 P2 R13
G1 X106.859 Y114.747 E.02265
G1 X106.552 Y114.236 E.02266
G1 X106.337 Y113.681 E.02262
G1 X106.219 Y113.097 E.02264
G1 X106.199 Y112.503 E.02259
G1 X106.279 Y111.911 E.0227
G1 X106.454 Y111.342 E.02263
G1 X106.726 Y110.812 E.02264
G1 X107.107 Y110.297 E.02435
G1 X107.192 Y110.107 E.00791
G1 X107.192 Y72.803 E1.41779
G1 X107.227 Y72.26 E.02068
G1 X107.418 Y71.656 E.02408
G1 X107.73 Y71.115 E.02374
G1 X108.181 Y70.678 E.02387
G1 X108.718 Y70.347 E.02398
G1 X109.328 Y70.175 E.02409
G1 X109.953 Y70.142 E.02379
G1 X110.57 Y70.28 E.02403
G1 X111.135 Y70.548 E.02377
G1 X111.613 Y70.965 E.02411
G1 X111.983 Y71.468 E.02373
G1 X112.205 Y72.063 E.02414
G1 X112.292 Y72.701 E.02447
G1 X112.292 Y110.107 E1.42166
G1 X112.339 Y110.249 E.00568
G1 X112.815 Y110.921 E.0313
G1 X113.112 Y111.565 E.02695
G1 X113.257 Y112.131 E.02221
G1 X113.338 Y112.254 E.0056
G1 X142.736 Y135.223 E1.4179
G1 X143.141 Y135.585 E.02065
G1 X143.498 Y136.102 E.02388
G1 X143.734 Y136.686 E.02394
G1 X143.802 Y137.314 E.02401
G1 X143.732 Y137.938 E.02386
G1 X143.491 Y138.526 E.02415
G1 X143.134 Y139.036 E.02366
G1 X142.648 Y139.435 E.0239
G1 X142.086 Y139.719 E.02393
G1 X141.465 Y139.84 E.02405
G1 X140.837 Y139.821 E.02388
G1 X140.229 Y139.627 E.02426
M73 P3 R13
G1 X139.678 Y139.306 E.02424
G1 X110.2 Y116.274 E1.42177
G1 X110.087 Y116.234 E.00456
M204 P1000
G1 X109.916 Y115.841 F12000
G1 E-.64 F2100
;WIPE_START
G1 F9600
G1 X109.357 Y116.207 E-.15181
G1 X109.318 Y116.199 E-.00819
;WIPE_END
G1 Z.4 F720
G1 X111.532 Y72.103 F12000
G1 Z.2 F720
G1 E.8 F1500
M204 P600
;TYPE:Solid infill
;WIDTH:0.502573
G1 F1200
G1 X110.873 Y71.444 E.03562
G1 X110.659 Y71.278 E.01035
G1 X110.413 Y71.145 E.01069
G1 X110.153 Y71.055 E.01052
G1 X109.79 Y71.01 E.01398
G1 X111.415 Y72.636 E.08786
G1 X111.424 Y73.294 E.02515
G1 X109.222 Y71.092 E.11902
G1 X109.068 Y71.145 E.00622
G1 X108.786 Y71.307 E.01243
G1 X111.424 Y73.944 E.14256
G1 X111.424 Y74.594 E.02484
G1 X108.448 Y71.619 E.16083
G1 X108.267 Y71.882 E.0122
G1 X108.204 Y72.025 E.00597
G1 X111.424 Y75.244 E.17402
G1 X111.424 Y75.894 E.02484
G1 X108.076 Y72.547 E.18094
G1 X108.06 Y72.735 E.00721
G1 X108.06 Y73.181 E.01705
G1 X111.424 Y76.545 E.18183
G1 X111.424 Y77.195 E.02484
G1 X108.06 Y73.831 E.18183
G1 X108.06 Y74.482 E.02488
G1 X111.424 Y77.845 E.1818
G1 X111.424 Y78.495 E.02484
G1 X108.06 Y75.132 E.1818
G1 X108.06 Y75.782 E.02484
G1 X111.424 Y79.145 E.1818
G1 X111.424 Y79.795 E.02484
G1 X108.06 Y76.432 E.1818
G1 X108.06 Y77.082 E.02484
G1 X111.424 Y80.445 E.1818
G1 X111.424 Y81.095 E.02484
G1 X108.06 Y77.732 E.1818
G1 X108.06 Y78.382 E.02484
G1 X111.424 Y81.745 E.1818
G1 X111.424 Y82.395 E.02484
G1 X108.06 Y79.032 E.1818
G1 X108.06 Y79.682 E.02484
G1 X111.424 Y83.045 E.1818
G1 X111.424 Y83.695 E.02484
G1 X108.06 Y80.332 E.1818
G1 X108.06 Y80.982 E.02484
G1 X111.424 Y84.345 E.1818
G1 X111.424 Y84.995 E.02484
G1 X108.06 Y81.632 E.1818
G1 X108.06 Y82.282 E.02484
G1 X111.424 Y85.645 E.1818
G1 X111.424 Y86.295 E.02484
G1 X108.06 Y82.932 E.1818
G1 X108.06 Y83.582 E.02484
G1 X111.424 Y86.945 E.1818
G1 X111.424 Y87.595 E.02484
G1 X108.06 Y84.232 E.1818
G1 X108.06 Y84.882 E.02484
G1 X111.424 Y88.245 E.1818
M73 P4 R13
G1 X111.424 Y88.895 E.02484
G1 X108.06 Y85.532 E.1818
G1 X108.06 Y86.182 E.02484
G1 X111.424 Y89.545 E.1818
G1 X111.424 Y90.196 E.02488
G1 X108.06 Y86.832 E.18183
G1 X108.06 Y87.482 E.02484
G1 X111.424 Y90.846 E.18183
G1 X111.424 Y91.496 E.02484
G1 X108.06 Y88.133 E.1818
G1 X108.06 Y88.783 E.02484
G1 X111.424 Y92.146 E.1818
G1 X111.424 Y92.796 E.02484
G1 X108.06 Y89.433 E.1818
G1 X108.06 Y90.083 E.02484
G1 X111.424 Y93.446 E.1818
G1 X111.424 Y94.096 E.02484
G1 X108.06 Y90.733 E.1818
G1 X108.06 Y91.383 E.02484
G1 X111.424 Y94.746 E.1818
G1 X111.424 Y95.396 E.02484
G1 X108.06 Y92.033 E.1818
G1 X108.06 Y92.683 E.02484
G1 X111.424 Y96.046 E.1818
G1 X111.424 Y96.696 E.02484
G1 X108.06 Y93.333 E.1818
G1 X108.06 Y93.983 E.02484
G1 X111.424 Y97.346 E.1818
G1 X111.424 Y97.996 E.02484
G1 X108.06 Y94.633 E.1818
G1 X108.06 Y95.283 E.02484
G1 X111.424 Y98.646 E.1818
G1 X111.424 Y99.296 E.02484
G1 X108.06 Y95.933 E.1818
G1 X108.06 Y96.583 E.02484
G1 X111.424 Y99.946 E.1818
G1 X111.424 Y100.596 E.02484
G1 X108.06 Y97.233 E.1818
G1 X108.06 Y97.883 E.02484
G1 X111.424 Y101.246 E.1818
G1 X111.424 Y101.896 E.02484
G1 X108.06 Y98.533 E.1818
G1 X108.06 Y99.183 E.02484
G1 X111.424 Y102.546 E.1818
G1 X111.424 Y103.196 E.02484
G1 X108.06 Y99.833 E.1818
G1 X108.06 Y100.483 E.02484
G1 X111.424 Y103.847 E.18183
G1 X111.424 Y104.497 E.02484
G1 X108.06 Y101.133 E.18183
G1 X108.06 Y101.784 E.02488
G1 X111.424 Y105.147 E.1818
G1 X111.424 Y105.797 E.02484
G1 X108.06 Y102.434 E.1818
G1 X108.06 Y103.084 E.02484
G1 X111.424 Y106.447 E.1818
G1 X111.424 Y107.097 E.02484
M73 P5 R13
G1 X108.06 Y103.734 E.1818
G1 X108.06 Y104.384 E.02484
G1 X111.424 Y107.747 E.1818
G1 X111.424 Y108.397 E.02484
G1 X108.06 Y105.034 E.1818
G1 X108.06 Y105.684 E.02484
G1 X111.424 Y109.047 E.1818
G1 X111.424 Y109.697 E.02484
G1 X108.06 Y106.334 E.1818
G1 X108.06 Y106.984 E.02484
G1 X112.103 Y111.026 E.2185
M204 P1000
G1 E-.64 F2100
;WIPE_START
G1 F9600
G1 X111.559 Y110.482 E-.16
;WIPE_END
G1 Z.4 F720
G1 X140.929 Y134.652 F12000
G1 Z.2 F720
G1 E.8 F1500
M204 P600
G1 F1200
G1 X142.669 Y136.394 E.0941
G1 X142.799 Y136.635 E.01047
G1 X142.888 Y136.897 E.01058
G1 X142.934 Y137.173 E.01069
G1 X142.934 Y137.307 E.00512
G1 X139.151 Y133.524 E.20448
G1 X136.178 Y131.202 E.14418
G1 X142.84 Y137.863 E.36007
G1 X142.798 Y137.982 E.00482
G1 X142.615 Y138.289 E.01366
G1 X133.206 Y128.879 E.5086
G1 X130.234 Y126.557 E.14415
G1 X142.3 Y138.623 E.65219
G1 X142.058 Y138.784 E.01111
G1 X141.885 Y138.859 E.00721
G1 X127.262 Y124.235 E.79042
G1 X124.29 Y121.913 E.14415
G1 X141.354 Y138.977 E.92234
G1 X140.982 Y138.961 E.01423
G1 X140.717 Y138.894 E.01045
G1 X140.543 Y138.817 E.00727
G1 X121.318 Y119.591 E1.03917
G1 X118.345 Y117.269 E.14418
G1 X137.859 Y136.782 E1.05474
G1 X134.887 Y134.46 E.14415
G1 X115.373 Y114.947 E1.05474
G1 X112.796 Y112.933 E.12501
M73 P6 R12
G1 X112.652 Y112.798 E.00754
G1 X112.468 Y112.506 E.01319
G1 X112.293 Y111.867 E.02532
G1 X108.06 Y107.634 E.2288
G1 X108.06 Y108.284 E.02484
G1 X131.914 Y132.138 E1.28935
G1 X128.942 Y129.816 E.14415
G1 X108.06 Y108.934 E1.12871
G1 X108.06 Y109.584 E.02484
G1 X125.97 Y127.494 E.96807
G1 X122.998 Y125.172 E.14415
G1 X108.05 Y110.224 E.80796
G1 X108.042 Y110.314 E.00345
G1 X107.926 Y110.637 E.01312
G1 X107.879 Y110.702 E.00307
G1 X120.026 Y122.85 E.65659
G1 X117.054 Y120.527 E.14417
M73 P7 R12
G1 X107.605 Y111.079 E.51071
G1 X107.467 Y111.271 E.00904
G1 X107.358 Y111.482 E.00908
G1 X114.081 Y118.205 E.36339
G1 X111.109 Y115.883 E.14415
G1 X107.176 Y111.95 E.21259
G1 X107.13 Y112.098 E.00592
G1 X107.076 Y112.5 E.0155
G1 X109.935 Y115.359 E.15453
G1 X109.453 Y115.341 E.01844
G1 X109.222 Y115.296 E.00899
G1 X107.126 Y113.2 E.11329
G1 X107.174 Y113.436 E.0092
G1 X107.335 Y113.853 E.01708
G1 X107.567 Y114.239 E.01721
G1 X107.855 Y114.579 E.01703
G1 X108.594 Y115.318 E.03994
M204 P1000
; stop printing object 128.STL id:0 copy 0
; printing object 102.STL id:1 copy 0
G1 E-.64 F2100
;WIPE_START
G1 F9600
G1 X108.05 Y114.774 E-.16
;WIPE_END
G1 Z.4 F720
G1 X126.961 Y113.758 F12000
G1 Z.2 F720
G1 E.8 F1500
M204 P600
;TYPE:Perimeter
;WIDTH:0.499999
G1 F1200
G1 X126.076 Y114.095 E.03599
G1 X125.572 Y114.189 E.01949
G1 X125.072 Y114.198 E.01901
G1 X124.558 Y114.121 E.01975
G1 X124.08 Y113.966 E.0191
G1 X123.629 Y113.733 E.01929
G1 X123.224 Y113.431 E.0192
G1 X122.873 Y113.062 E.01936
G1 X122.589 Y112.646 E.01914
G1 X122.373 Y112.178 E.01959
G1 X122.24 Y111.696 E.019
G1 X122.188 Y111.185 E.01952
G1 X122.219 Y110.683 E.01912
G1 X122.335 Y110.18 E.01962
G1 X122.525 Y109.722 E.01885
G1 X123.13 Y108.795 E.04207
G1 X123.174 Y108.555 E.00927
G1 X123.174 Y71.251 E1.41779
G1 X123.205 Y70.779 E.01798
G1 X123.358 Y70.289 E.01951
G1 X123.616 Y69.842 E.01962
G1 X123.987 Y69.482 E.01965
G1 X124.428 Y69.211 E.01967
G1 X124.928 Y69.07 E.01974
G1 X125.44 Y69.043 E.01949
G1 X125.946 Y69.156 E.0197
G1 X126.409 Y69.376 E.01948
M73 P8 R12
G1 X126.802 Y69.718 E.0198
G1 X127.105 Y70.129 E.01941
G1 X127.285 Y70.615 E.0197
G1 X127.36 Y71.162 E.02098
G1 X127.36 Y108.554 E1.42113
G1 X127.403 Y108.798 E.00942
G1 X127.67 Y109.184 E.01784
G1 X127.988 Y109.52 E.01758
G1 X128.212 Y109.611 E.00919
G1 X164.703 Y117.366 E1.41786
G1 X165.157 Y117.496 E.01795
G1 X165.612 Y117.753 E.01986
G1 X165.991 Y118.095 E.0194
G1 X166.267 Y118.534 E.01971
G1 X166.439 Y119.016 E.01945
G1 X166.472 Y119.537 E.01984
G1 X166.393 Y120.044 E.0195
G1 X166.178 Y120.511 E.01954
G1 X165.865 Y120.923 E.01966
G1 X165.448 Y121.237 E.01984
G1 X164.985 Y121.446 E.01931
G1 X164.471 Y121.521 E.01974
G1 X163.921 Y121.481 E.02096
G1 X127.348 Y113.707 E1.42106
G1 X127.106 Y113.7 E.0092
G1 X127.017 Y113.736 E.00365
M204 P1000
G1 X127.078 Y114.185 F12000
M204 P600
;TYPE:External perimeter
G1 F1200
G1 X126.477 Y114.459 E.0251
G1 X125.913 Y114.614 E.02223
G1 X125.331 Y114.672 E.02223
G1 X124.746 Y114.635 E.02228
G1 X124.176 Y114.5 E.02226
G1 X123.636 Y114.276 E.02222
G1 X123.14 Y113.966 E.02223
G1 X122.702 Y113.578 E.02224
G1 X122.334 Y113.122 E.02227
G1 X122.045 Y112.614 E.02221
G1 X121.845 Y112.064 E.02224
G1 X121.736 Y111.49 E.02221
G1 X121.726 Y110.904 E.02227
G1 X121.809 Y110.323 E.02231
G1 X121.988 Y109.766 E.02224
G1 X122.254 Y109.247 E.02217
G1 X122.671 Y108.691 E.02641
G1 X122.717 Y108.554 E.00549
G1 X122.717 Y71.245 E1.41798
G1 X122.753 Y70.704 E.02061
G1 X122.939 Y70.107 E.02377
G1 X123.255 Y69.56 E.02401
G1 X123.706 Y69.121 E.02392
G1 X124.243 Y68.791 E.02396
G1 X124.854 Y68.619 E.02412
G1 X125.477 Y68.586 E.02371
G1 X126.096 Y68.724 E.0241
G1 X126.66 Y68.992 E.02373
M73 P9 R12
G1 X127.137 Y69.408 E.02405
G1 X127.508 Y69.911 E.02375
G1 X127.728 Y70.502 E.02397
G1 X127.817 Y71.143 E.0246
G1 X127.817 Y108.554 E1.42185
G1 X127.846 Y108.67 E.00454
G1 X128.176 Y109.084 E.02012
G1 X128.307 Y109.164 E.00583
G1 X164.798 Y116.919 E1.41786
G1 X165.325 Y117.07 E.02084
G1 X165.879 Y117.382 E.02416
G1 X166.342 Y117.799 E.02368
G1 X166.678 Y118.333 E.02398
G1 X166.889 Y118.924 E.02385
G1 X166.928 Y119.558 E.02414
G1 X166.833 Y120.176 E.02376
G1 X166.571 Y120.746 E.02384
G1 X166.188 Y121.248 E.024
G1 X165.681 Y121.63 E.02413
G1 X165.114 Y121.886 E.02364
G1 X164.49 Y121.978 E.02397
G1 X163.844 Y121.932 E.02461
G1 X127.253 Y114.154 E1.42176
G1 X127.134 Y114.167 E.00455
M204 P1000
G1 X126.808 Y113.89 F12000
G1 E-.64 F2100
;WIPE_START
G1 F9600
G1 X126.477 Y114.459 E-.14941
G1 X126.428 Y114.473 E-.01059
;WIPE_END
G1 Z.4 F720
G1 X164.236 Y117.477 F12000
G1 Z.2 F720
G1 E.8 F1500
M204 P600
;TYPE:Solid infill
;WIDTH:0.502563
G1 F1200
G1 X166.058 Y119.3 E.09851
G1 X166.055 Y119.654 E.01353
G1 X166.004 Y119.896 E.00945
G1 X163.678 Y117.569 E.12575
G1 X162.852 Y117.394 E.03227
G1 X165.8 Y120.342 E.15934
M73 P10 R12
G1 X165.573 Y120.631 E.01405
G1 X165.501 Y120.692 E.00361
G1 X162.027 Y117.218 E.18777
G1 X161.201 Y117.043 E.03227
G1 X165.113 Y120.955 E.21145
G1 X164.869 Y121.05 E.01001
G1 X164.61 Y121.102 E.0101
G1 X160.376 Y116.867 E.22888
G1 X159.55 Y116.692 E.03227
G1 X163.918 Y121.059 E.23607
G1 X163.092 Y120.884 E.03227
G1 X158.725 Y116.516 E.23607
G1 X157.899 Y116.341 E.03227
G1 X162.267 Y120.709 E.23609
G1 X161.441 Y120.533 E.03228
G1 X157.074 Y116.165 E.23607
G1 X156.248 Y115.99 E.03227
G1 X160.616 Y120.358 E.23609
G1 X159.79 Y120.182 E.03228
G1 X155.423 Y115.815 E.23604
G1 X154.597 Y115.639 E.03228
G1 X158.965 Y120.007 E.23609
G1 X158.139 Y119.831 E.03228
G1 X153.772 Y115.464 E.23604
G1 X152.946 Y115.288 E.03228
G1 X157.314 Y119.656 E.23609
G1 X156.488 Y119.48 E.03228
