; generated by PrusaSlicer 2.6.1+win64 on 2023-09-27 at 20:27:17 UTC


;
;

;
;

;
;
; 

; external perimeters extrusion width = 0.45mm
; perimeters extrusion width = 0.45mm
; infill extrusion width = 0.45mm
; solid infill extrusion width = 0.45mm
; top infill extrusion width = 0.42mm
; first layer extrusion width = 0.50mm

; external perimeters extrusion width = 0.45mm
; perimeters extrusion width = 0.45mm
; infill extrusion width = 0.45mm
; solid infill extrusion width = 0.45mm
; top infill extrusion width = 0.42mm
; first layer extrusion width = 0.50mm

; external perimeters extrusion width = 0.45mm
; perimeters extrusion width = 0.45mm
; infill extrusion width = 0.45mm
; solid infill extrusion width = 0.45mm
; top infill extrusion width = 0.42mm
; first layer extrusion width = 0.50mm

M73 P0 R20
M201 X2500 Y2500 Z200 E2500 ; sets maximum accelerations, mm/sec^2
M203 X200 Y200 Z40 E100 ; sets maximum feedrates, mm / sec
M204 P2000 R1200 T2000 ; sets acceleration (P, T) and retract acceleration (R), mm/sec^2
M205 X8.00 Y8.00 Z2.00 E10.00 ; sets the jerk limits, mm/sec
M205 S0 T0 ; sets the minimum extruding and travel feed rate, mm/sec
;TYPE:Custom
M17 ; enable steppers
M862.3 P "MK4" ; printer model check
M862.1 P0.4 ; nozzle diameter check
M555 X103.375 Y53.3317 W82.0556 H83.1128

G90 ; use absolute coordinates
M83 ; extruder relative mode

M140 S60 ; set bed temp

M104 S170 ; set extruder temp for bed leveling
M109 R170 ; wait for temp


M84 E ; turn off E motor

G28 ; home all without mesh bed level

G1 X42 Y-4 Z5 F4800

M302 S160 ; lower cold extrusion limit to 160C


G1 E-2 F2400 ; retraction


M84 E ; turn off E motor

G29 P9 X10 Y-4 W32 H4

M106 S100

G0 Z40 F10000

M190 S60 ; wait for bed temp

M107

;
; MBL
;
M84 E ; turn off E motor
G29 P1 ; invalidate mbl & probe print area
G29 P1 X0 Y0 W50 H20 C ; probe near purge place
G29 P3.2 ; interpolate mbl probes
G29 P3.13 ; extrapolate mbl outside probe area
G29 A ; activate mbl

; prepare for purge
M104 S215
G0 X0 Y-4 Z15 F4800 ; move away and ready for the purge
M109 S215

G92 E0
M569 S0 E ; set spreadcycle mode for extruder

;
; Extrude purge line
;
G92 E0 ; reset extruder position
G1 E2 F2400 ; deretraction after the initial one before nozzle cleaning
G0 E7 X15 Z0.2 F500 ; purge
G0 X25 E4 F500 ; purge
G0 X35 E4 F650 ; purge
G0 X45 E4 F800 ; purge
G0 X48 Z0.05 F8000 ; wipe, move close to the bed
G0 X51 Z0.2 F8000 ; wipe, move quickly away from the bed

G92 E0
M221 S100 ; set flow to 100%
G21 ; set units to millimeters
G90 ; use absolute coordinates
M83 ; use relative distances for extrusion
M900 K0.05 ; Filament gcode



M142 S36 ; set heatbreak target temp
M107
;LAYER_CHANGE
;Z:0.2
;HEIGHT:0.2
;BEFORE_LAYER_CHANGE
G92 E0.0
;0.2


G1 E-.8 F2100
G1 Z.2 F720
;AFTER_LAYER_CHANGE
;0.2
; printing object 115.STL id:0 copy 0
G1 Z.4
G1 X109.597 Y114.342 F12000
G1 Z.2 F720
G1 E.8 F1500
M204 P600
;TYPE:Perimeter
;WIDTH:0.499999
G1 F1200
G1 X110.092 Y115.097 E.03431
G1 X110.391 Y115.596 E.02211
G1 X110.588 Y115.735 E.00916
G1 X144.397 Y131.501 E1.4178
G1 X144.658 Y131.641 E.01126
G1 X145.076 Y131.945 E.01964
G1 X145.395 Y132.351 E.01962
G1 X145.617 Y132.817 E.01962
G1 X145.704 Y133.326 E.01963
G1 X145.715 Y133.498 E.00655
G1 X145.632 Y134.007 E.0196
G1 X145.44 Y134.487 E.01965
G1 X145.125 Y134.895 E.01959
G1 X144.728 Y135.225 E.01962
G1 X144.256 Y135.435 E.01963
G1 X143.75 Y135.536 E.01961
G1 X143.235 Y135.496 E.01963
G1 X142.707 Y135.331 E.02102
G1 X108.82 Y119.529 E1.42106
G1 X108.702 Y119.487 E.00476
G1 X108.482 Y119.467 E.0084
G1 X107.986 Y119.562 E.01919
G1 X107.46 Y119.622 E.02012
G1 X106.933 Y119.592 E.02006
G1 X106.418 Y119.471 E.02011
G1 X105.931 Y119.265 E.0201
G1 X105.487 Y118.978 E.02009
G1 X105.098 Y118.619 E.02012
M73 P1 R20
G1 X104.777 Y118.199 E.02009
G1 X104.532 Y117.73 E.02011
G1 X104.371 Y117.227 E.02007
G1 X104.299 Y116.703 E.0201
G1 X104.317 Y116.174 E.02012
G1 X104.426 Y115.657 E.02008
G1 X104.621 Y115.166 E.02008
G1 X105.238 Y114.21 E.04324
G1 X105.28 Y113.973 E.00915
G1 X105.28 Y76.669 E1.41779
G1 X105.312 Y76.201 E.01783
G1 X105.466 Y75.709 E.01959
G1 X105.724 Y75.262 E.01962
G1 X106.094 Y74.902 E.01962
G1 X106.534 Y74.631 E.01964
G1 X107.03 Y74.491 E.01959
G1 X107.546 Y74.463 E.01964
G1 X108.049 Y74.575 E.01959
G1 X108.516 Y74.796 E.01964
G1 X108.905 Y75.135 E.01961
G1 X109.211 Y75.551 E.01963
G1 X109.392 Y76.034 E.0196
G1 X109.466 Y76.583 E.02105
G1 X109.466 Y113.972 E1.42102
G1 X109.508 Y114.211 E.00922
G1 X109.563 Y114.292 E.00372
M204 P1000
G1 X109.99 Y114.138 F12000
M204 P600
;TYPE:External perimeter
G1 F1200
G1 X110.366 Y114.639 E.02381
G1 X110.676 Y115.221 E.02506
G1 X110.782 Y115.321 E.00554
G1 X144.591 Y131.086 E1.41778
G1 X144.885 Y131.245 E.0127
G1 X145.394 Y131.615 E.02392
G1 X145.783 Y132.11 E.02393
G1 X146.054 Y132.678 E.02392
G1 X146.161 Y133.298 E.02391
G1 X146.173 Y133.508 E.00799
G1 X146.072 Y134.13 E.02395
G1 X145.838 Y134.714 E.02391
G1 X145.454 Y135.212 E.0239
M73 P1 R19
G1 X144.97 Y135.615 E.02394
G1 X144.395 Y135.87 E.02391
G1 X143.777 Y135.994 E.02396
G1 X143.15 Y135.945 E.0239
G1 X142.531 Y135.753 E.02463
G1 X108.627 Y119.944 E1.42176
G1 X108.485 Y119.927 E.00544
G1 X107.778 Y120.07 E.02741
G1 X107.169 Y120.088 E.02316
G1 X106.566 Y120 E.02316
G1 X105.986 Y119.811 E.02318
G1 X105.448 Y119.526 E.02314
G1 X104.966 Y119.152 E.02319
G1 X104.555 Y118.702 E.02316
G1 X104.228 Y118.188 E.02315
G1 X103.993 Y117.625 E.02319
G1 X103.858 Y117.031 E.02315
G1 X103.827 Y116.422 E.02318
G1 X103.9 Y115.817 E.02316
G1 X104.076 Y115.233 E.02318
G1 X104.349 Y114.688 E.02317
G1 X104.76 Y114.132 E.02628
G1 X104.823 Y113.973 E.0065
G1 X104.823 Y76.669 E1.41779
G1 X104.859 Y76.126 E.02068
G1 X105.047 Y75.525 E.02393
G1 X105.362 Y74.98 E.02392
G1 X105.813 Y74.541 E.02392
G1 X106.349 Y74.211 E.02392
G1 X106.955 Y74.04 E.02393
G1 X107.583 Y74.005 E.0239
G1 X108.198 Y74.143 E.02396
G1 X108.767 Y74.412 E.02392
M73 P2 R19
G1 X109.242 Y74.825 E.02392
G1 X109.614 Y75.332 E.0239
G1 X109.835 Y75.922 E.02395
G1 X109.923 Y76.564 E.02463
G1 X109.923 Y113.972 E1.42174
G1 X109.96 Y114.087 E.00459
M204 P1000
G1 X109.758 Y114.464 F12000
G1 E-.64 F2100
;WIPE_START
G1 F9600
G1 X110.366 Y114.639 E-.1424
G1 X110.406 Y114.714 E-.0176
;WIPE_END
G1 Z.4 F720
G1 X107.958 Y74.761 F12000
G1 Z.2 F720
G1 E.8 F1500
M204 P600
;TYPE:Solid infill
;WIDTH:0.502541
G1 F1200
G1 X108.696 Y75.515 E.04032
G1 X108.848 Y75.747 E.0106
G1 X108.959 Y76.001 E.01059
G1 X109.027 Y76.269 E.01057
G1 X109.046 Y76.5 E.00886
G1 X107.42 Y74.874 E.08788
G1 X107.235 Y74.874 E.00707
G1 X106.961 Y74.919 E.01061
G1 X106.853 Y74.957 E.00438
G1 X109.055 Y77.158 E.11899
G1 X109.055 Y77.808 E.02484
G1 X106.417 Y75.171 E.14255
G1 X106.237 Y75.311 E.00871
G1 X106.079 Y75.483 E.00893
G1 X109.055 Y78.458 E.16082
G1 X109.055 Y79.108 E.02484
G1 X105.836 Y75.889 E.17398
G1 X105.787 Y76.001 E.00467
G1 X105.719 Y76.269 E.01057
G1 X105.707 Y76.411 E.00545
G1 X109.055 Y79.758 E.18093
G1 X109.055 Y80.408 E.02484
G1 X105.691 Y77.045 E.18179
G1 X105.691 Y77.695 E.02484
G1 X109.055 Y81.058 E.18179
G1 X109.055 Y81.708 E.02484
G1 X105.691 Y78.345 E.18179
G1 X105.691 Y78.995 E.02484
G1 X109.055 Y82.358 E.18179
G1 X109.055 Y83.008 E.02484
G1 X105.691 Y79.645 E.18179
G1 X105.691 Y80.295 E.02484
G1 X109.055 Y83.658 E.18179
G1 X109.055 Y84.308 E.02484
G1 X105.691 Y80.945 E.18179
G1 X105.691 Y81.595 E.02484
G1 X109.055 Y84.958 E.18179
G1 X109.055 Y85.608 E.02484
G1 X105.691 Y82.245 E.18179
G1 X105.691 Y82.895 E.02484
G1 X109.055 Y86.258 E.18179
G1 X109.055 Y86.908 E.02484
G1 X105.691 Y83.545 E.18179
G1 X105.691 Y84.195 E.02484
G1 X109.055 Y87.558 E.18179
G1 X109.055 Y88.208 E.02484
G1 X105.691 Y84.845 E.18179
G1 X105.691 Y85.495 E.02484
G1 X109.055 Y88.858 E.18179
G1 X109.055 Y89.508 E.02484
G1 X105.691 Y86.145 E.18179
G1 X105.691 Y86.795 E.02484
G1 X109.055 Y90.158 E.18179
G1 X109.055 Y90.808 E.02484
G1 X105.691 Y87.445 E.18179
G1 X105.691 Y88.095 E.02484
G1 X109.055 Y91.458 E.18179
G1 X109.055 Y92.108 E.02484
G1 X105.691 Y88.745 E.18179
G1 X105.691 Y89.395 E.02484
G1 X109.055 Y92.758 E.18179
G1 X109.055 Y93.408 E.02484
G1 X105.691 Y90.045 E.18179
G1 X105.691 Y90.695 E.02484
G1 X109.055 Y94.058 E.18179
G1 X109.055 Y94.708 E.02484
G1 X105.691 Y91.345 E.18179
G1 X105.691 Y91.995 E.02484
G1 X109.055 Y95.358 E.18179
G1 X109.055 Y96.008 E.02484
G1 X105.691 Y92.645 E.18179
G1 X105.691 Y93.295 E.02484
G1 X109.055 Y96.658 E.18179
G1 X109.055 Y97.308 E.02484
G1 X105.691 Y93.945 E.18179
G1 X105.691 Y94.595 E.02484
G1 X109.055 Y97.958 E.18179
G1 X109.055 Y98.608 E.02484
G1 X105.691 Y95.245 E.18179
G1 X105.691 Y95.895 E.02484
G1 X109.055 Y99.258 E.18179
G1 X109.055 Y99.908 E.02484
M73 P3 R19
G1 X105.691 Y96.545 E.18179
G1 X105.691 Y97.195 E.02484
G1 X109.055 Y100.558 E.18179
G1 X109.055 Y101.208 E.02484
G1 X105.691 Y97.845 E.18179
G1 X105.691 Y98.495 E.02484
G1 X109.055 Y101.858 E.18179
G1 X109.055 Y102.508 E.02484
G1 X105.691 Y99.145 E.18179
G1 X105.691 Y99.795 E.02484
G1 X109.055 Y103.158 E.18179
G1 X109.055 Y103.808 E.02484
G1 X105.691 Y100.445 E.18179
G1 X105.691 Y101.095 E.02484
G1 X109.055 Y104.458 E.18179
G1 X109.055 Y105.108 E.02484
G1 X105.691 Y101.745 E.18179
G1 X105.691 Y102.395 E.02484
G1 X109.055 Y105.758 E.18179
G1 X109.055 Y106.408 E.02484
G1 X105.691 Y103.045 E.18179
G1 X105.691 Y103.695 E.02484
G1 X109.055 Y107.058 E.18179
G1 X109.055 Y107.708 E.02484
G1 X105.691 Y104.345 E.18179
G1 X105.691 Y104.995 E.02484
G1 X109.055 Y108.358 E.18179
G1 X109.055 Y109.008 E.02484
G1 X105.691 Y105.645 E.18179
G1 X105.691 Y106.295 E.02484
G1 X109.055 Y109.658 E.18179
G1 X109.055 Y110.308 E.02484
G1 X105.691 Y106.945 E.18179
G1 X105.691 Y107.595 E.02484
G1 X109.055 Y110.958 E.18179
G1 X109.055 Y111.608 E.02484
G1 X105.691 Y108.245 E.18179
G1 X105.691 Y108.895 E.02484
G1 X109.055 Y112.258 E.18179
G1 X109.055 Y112.908 E.02484
G1 X105.691 Y109.545 E.18179
G1 X105.691 Y110.195 E.02484
G1 X109.26 Y113.764 E.1929
M204 P1000
G1 E-.64 F2100
;WIPE_START
G1 F9600
G1 X108.716 Y113.22 E-.16
;WIPE_END
G1 Z.4 F720
G1 X143.885 Y131.489 F12000
G1 Z.2 F720
G1 E.8 F1500
M204 P600
G1 F1200
G1 X145.143 Y132.747 E.06799
G1 X145.224 Y132.942 E.00807
G1 X145.285 Y133.212 E.01058
G1 X145.296 Y133.549 E.01289
G1 X143.092 Y131.346 E.11909
G1 X141.874 Y130.778 E.05136
G1 X145.176 Y134.079 E.17844
G1 X145.082 Y134.282 E.00855
G1 X144.938 Y134.491 E.0097
G1 X140.657 Y130.21 E.23138
G1 X139.439 Y129.642 E.05136
G1 X144.602 Y134.806 E.27908
G1 X144.51 Y134.875 E.0044
G1 X144.175 Y135.029 E.01409
G1 X138.221 Y129.074 E.32183
G1 X137.003 Y128.506 E.05136
G1 X143.618 Y135.121 E.35753
G1 X143.449 Y135.118 E.00646
G1 X143.176 Y135.066 E.01062
G1 X142.738 Y134.891 E.01803
G1 X135.785 Y127.938 E.3758
G1 X134.567 Y127.37 E.05136
G1 X141.52 Y134.324 E.37582
G1 X140.302 Y133.756 E.05136
G1 X133.349 Y126.803 E.3758
G1 X132.131 Y126.235 E.05136
G1 X139.084 Y133.188 E.3758
G1 X137.866 Y132.62 E.05136
G1 X130.913 Y125.667 E.3758
G1 X129.695 Y125.099 E.05136
G1 X136.648 Y132.052 E.3758
G1 X135.43 Y131.484 E.05136
G1 X128.477 Y124.531 E.3758
G1 X127.259 Y123.963 E.05136
G1 X134.212 Y130.916 E.3758
G1 X132.994 Y130.348 E.05136
M73 P4 R19
G1 X126.041 Y123.395 E.3758
G1 X124.823 Y122.827 E.05136
G1 X131.776 Y129.78 E.3758
G1 X130.558 Y129.212 E.05136
G1 X123.605 Y122.259 E.3758
G1 X122.388 Y121.691 E.05133
G1 X129.341 Y128.644 E.3758
G1 X128.123 Y128.076 E.05136
G1 X121.17 Y121.123 E.3758
G1 X119.952 Y120.555 E.05136
G1 X126.905 Y127.508 E.3758
G1 X125.687 Y126.94 E.05136
G1 X118.734 Y119.987 E.3758
G1 X117.516 Y119.419 E.05136
G1 X124.469 Y126.372 E.3758
G1 X123.251 Y125.805 E.05135
G1 X116.298 Y118.852 E.3758
G1 X115.08 Y118.284 E.05136
G1 X122.033 Y125.237 E.3758
G1 X120.815 Y124.669 E.05136
G1 X113.862 Y117.716 E.3758
G1 X112.644 Y117.148 E.05136
G1 X119.597 Y124.101 E.3758
G1 X118.379 Y123.533 E.05136
G1 X111.426 Y116.58 E.3758
G1 X110.407 Y116.105 E.04297
G1 X110.236 Y116.005 E.00757
G1 X109.991 Y115.762 E.01319
G1 X109.631 Y115.106 E.0286
G1 X109.189 Y114.503 E.02857
G1 X109.099 Y114.253 E.01015
G1 X105.691 Y110.845 E.1842
G1 X105.691 Y111.495 E.02484
G1 X117.161 Y122.965 E.61993
G1 X115.943 Y122.397 E.05136
G1 X105.691 Y112.145 E.5541
G1 X105.691 Y112.795 E.02484
G1 X114.725 Y121.829 E.48827
G1 X113.507 Y121.261 E.05136
G1 X105.691 Y113.445 E.42244
G1 X105.682 Y114.086 E.0245
G1 X112.289 Y120.693 E.35709
G1 X111.072 Y120.125 E.05133
G1 X105.511 Y114.565 E.30053
G1 X105.238 Y114.942 E.01779
M73 P5 R19
G1 X109.854 Y119.557 E.24946
G1 X108.986 Y119.153 E.03659
G1 X108.799 Y119.086 E.00759
G1 X108.725 Y119.079 E.00284
G1 X104.992 Y115.345 E.20179
G1 X104.886 Y115.555 E.00899
G1 X104.809 Y115.812 E.01025
G1 X108.116 Y119.12 E.17876
G1 X107.68 Y119.204 E.01697
G1 X107.554 Y119.208 E.00482
G1 X104.709 Y116.363 E.15377
G1 X104.698 Y116.452 E.00343
G1 X104.722 Y116.911 E.01757
G1 X104.755 Y117.059 E.0058
G1 X106.862 Y119.166 E.11388
G1 X106.764 Y119.152 E.00378
G1 X106.327 Y119.009 E.01757
G1 X105.921 Y118.793 E.01758
G1 X105.561 Y118.515 E.01738
G1 X104.74 Y117.693 E.0444
M204 P1000
; stop printing object 115.STL id:0 copy 0
; printing object 87.STL id:1 copy 0
G1 E-.64 F2100
;WIPE_START
G1 F9600
G1 X105.284 Y118.238 E-.16
;WIPE_END
G1 Z.4 F720
G1 X127.859 Y112.551 F12000
G1 Z.2 F720
G1 E.8 F1500
M204 P600
;TYPE:Perimeter
;WIDTH:0.499999
G1 F1200
G1 X127.881 Y112.686 E.0052
G1 X128.038 Y112.947 E.01158
G1 X128.241 Y113.093 E.0095
G1 X128.568 Y113.156 E.01266
G1 X165.461 Y111.223 E1.40409
G1 X165.764 Y111.224 E.01152
G1 X166.27 Y111.295 E.01942
G1 X166.744 Y111.505 E.0197
G1 X167.159 Y111.811 E.0196
G1 X167.474 Y112.217 E.01953
G1 X167.694 Y112.687 E.01972
G1 X167.778 Y113.198 E.01968
G1 X167.787 Y113.368 E.00647
G1 X167.702 Y113.874 E.0195
G1 X167.505 Y114.354 E.01972
G1 X167.187 Y114.762 E.01966
G1 X166.787 Y115.089 E.01964
G1 X166.312 Y115.296 E.01969
G1 X165.769 Y115.398 E.021
G1 X128.433 Y117.354 E1.42095
G1 X128.192 Y117.411 E.00941
G1 X127.281 Y118.071 E.04276
G1 X126.8 Y118.294 E.02015
G1 X126.304 Y118.428 E.01953
G1 X125.773 Y118.477 E.02027
G1 X125.251 Y118.436 E.0199
G1 X124.743 Y118.307 E.01992
G1 X124.267 Y118.096 E.01979
G1 X123.83 Y117.804 E.01998
G1 X123.449 Y117.44 E.02003
G1 X123.137 Y117.021 E.01985
G1 X122.898 Y116.552 E.02001
G1 X122.745 Y116.059 E.01962
G1 X122.677 Y115.527 E.02038
G1 X122.699 Y115.016 E.01944
G1 X122.81 Y114.495 E.02025
G1 X123.002 Y114.016 E.01961
G1 X123.615 Y113.071 E.04281
G1 X123.66 Y112.827 E.00943
G1 X123.66 Y75.526 E1.41767
G1 X123.691 Y75.055 E.01794
G1 X123.848 Y74.557 E.01985
G1 X124.104 Y74.115 E.01941
G1 X124.473 Y73.756 E.01957
G1 X124.914 Y73.485 E.01967
G1 X125.414 Y73.344 E.01974
G1 X125.927 Y73.317 E.01952
G1 X126.431 Y73.429 E.01962
G1 X126.895 Y73.65 E.01953
G1 X127.285 Y73.987 E.01959
G1 X127.591 Y74.405 E.01969
G1 X127.774 Y74.895 E.01988
G1 X127.846 Y75.437 E.02078
G1 X127.849 Y112.492 E1.40832
M204 P1000
G1 X128.303 Y112.471 F12000
M204 P600
;TYPE:External perimeter
G1 F1200
G1 X128.374 Y112.637 E.00686
G1 X128.544 Y112.7 E.00689
G1 X165.437 Y110.766 E1.40409
G1 X165.777 Y110.767 E.01292
G1 X166.397 Y110.854 E.02379
G1 X166.973 Y111.109 E.02394
G1 X167.48 Y111.483 E.02394
M73 P6 R19
G1 X167.863 Y111.978 E.02379
G1 X168.132 Y112.552 E.02409
G1 X168.235 Y113.174 E.02396
G1 X168.246 Y113.382 E.00792
G1 X168.142 Y113.999 E.02378
G1 X167.901 Y114.585 E.02408
G1 X167.514 Y115.081 E.02391
G1 X167.026 Y115.481 E.02398
G1 X166.447 Y115.732 E.02398
G1 X165.813 Y115.854 E.02454
G1 X128.457 Y117.811 E1.42171
G1 X128.323 Y117.862 E.00545
G1 X127.771 Y118.318 E.02721
G1 X127.246 Y118.618 E.02298
G1 X126.677 Y118.824 E.023
G1 X126.083 Y118.932 E.02295
G1 X125.478 Y118.936 E.02299
G1 X124.882 Y118.838 E.02296
G1 X124.31 Y118.641 E.02299
G1 X123.782 Y118.351 E.02289
G1 X123.31 Y117.973 E.02298
G1 X122.909 Y117.52 E.02299
G1 X122.59 Y117.007 E.02296
G1 X122.362 Y116.448 E.02294
G1 X122.233 Y115.858 E.02295
G1 X122.208 Y115.255 E.02294
G1 X122.283 Y114.655 E.02298
G1 X122.46 Y114.076 E.02301
G1 X122.732 Y113.537 E.02295
G1 X123.158 Y112.964 E.02714
G1 X123.203 Y112.827 E.00548
G1 X123.203 Y75.52 E1.4179
