; generated by PrusaSlicer 2.6.1+win64 on 2023-10-19 at 23:03:00 UTC


;
;
; 

; external perimeters extrusion width = 0.45mm
; perimeters extrusion width = 0.45mm
; infill extrusion width = 0.45mm
; solid infill extrusion width = 0.45mm
; top infill extrusion width = 0.40mm
; support material extrusion width = 0.35mm
; first layer extrusion width = 0.42mm

M73 P0 R83
M73 Q0 S84
M201 X1000 Y1000 Z200 E5000 ; sets maximum accelerations, mm/sec^2
M203 X200 Y200 Z12 E120 ; sets maximum feedrates, mm / sec
M204 S1250 T1250 ; sets acceleration (S) and retract acceleration (R), mm/sec^2
M205 X8.00 Y8.00 Z0.40 E4.50 ; sets the jerk limits, mm/sec
M205 S0 T0 ; sets the minimum extruding and travel feed rate, mm/sec
;TYPE:Custom
M862.3 P "MK3S" ; printer model check
M862.1 P0.4 ; nozzle diameter check
M115 U3.13.0 ; tell printer latest fw version
G90 ; use absolute coordinates
M83 ; extruder relative mode
M104 S215 ; set extruder temp
M140 S60 ; set bed temp
M190 S60 ; wait for bed temp
M109 S215 ; wait for extruder temp
G28 W ; home all without mesh bed level
G80 ; mesh bed leveling

G1 Z0.2 F720
G1 Y-3 F1000 ; go outside print area
G92 E0
G1 X60 E9 F1000 ; intro line
G1 X100 E12.5 F1000 ; intro line

G92 E0
M221 S95

; Don't change E values below. Excessive value can damage the printer.

M907 E538 ; set extruder motor current
G21 ; set units to millimeters
G90 ; use absolute coordinates
M83 ; use relative distances for extrusion
M900 K0.05 ; Filament gcode LA 1.5
M900 K30 ; Filament gcode LA 1.0
M107
;LAYER_CHANGE
;Z:0.2
;HEIGHT:0.2
;BEFORE_LAYER_CHANGE
G92 E0.0
;0.2


M73 P0 R82
G1 E-.8 F2100
G1 Z.4 F720
;AFTER_LAYER_CHANGE
;0.2
G1 X99.612 Y81.919 F10800
G1 Z.2 F720
G1 E.8 F2100
M204 S800
;TYPE:Skirt/Brim
;WIDTH:0.42
G1 F1200
G1 X101.919 Y79.612 E.1023
G1 X102.537 Y79.167 E.02388
G1 X111.765 Y74.553 E.32349
G1 X112.828 Y74.302 E.03425
G1 X137.172 Y74.302 E.76329
G1 X138.235 Y74.553 E.03425
G1 X147.463 Y79.167 E.32349
G1 X148.081 Y79.612 E.02388
G1 X150.388 Y81.919 E.1023
G1 X150.833 Y82.537 E.02388
G1 X155.447 Y91.765 E.32349
G1 X155.698 Y92.828 E.03425
G1 X155.698 Y117.172 E.76329
G1 X155.447 Y118.235 E.03425
G1 X150.833 Y127.463 E.32349
G1 X150.388 Y128.081 E.02388
G1 X148.081 Y130.388 E.1023
G1 X147.463 Y130.833 E.02388
G1 X138.235 Y135.447 E.32349
G1 X137.172 Y135.698 E.03425
G1 X112.828 Y135.698 E.76329
G1 X111.765 Y135.447 E.03425
G1 X102.537 Y130.833 E.32349
G1 X101.919 Y130.388 E.02388
G1 X99.612 Y128.081 E.1023
G1 X99.167 Y127.463 E.02388
G1 X94.553 Y118.235 E.32349
G1 X94.302 Y117.172 E.03425
G1 X94.302 Y92.828 E.76329
G1 X94.553 Y91.765 E.03425
G1 X99.167 Y82.537 E.32349
G1 X99.577 Y81.968 E.02199
M204 S1000
; printing object Bevel Gear 2023 damper side.STL id:0 copy 0
;WIPE_START
G1 F8640
G1 X101.919 Y79.612 E-.76706
G1 X102.035 Y79.529 E-.03294
;WIPE_END
G1 Z.6 F720
G1 X137.172 Y78.986 F10800
G1 Z.2 F720
G1 E.8 F2100
M204 S800
;TYPE:Support material
G1 F1200
G1 X141.786 Y78.986 E.14467
G1 X141.786 Y81.293 E.07233
G1 X146.4 Y81.293 E.14467
G1 X146.4 Y83.6 E.07233
G1 X148.707 Y83.6 E.07233
G1 X148.707 Y88.214 E.14467
G1 X151.014 Y88.214 E.07233
G1 X151.014 Y92.828 E.14467
G1 X153.321 Y92.828 E.07233
G1 X153.321 Y117.172 E.76329
G1 X151.014 Y117.172 E.07233
G1 X151.014 Y121.786 E.14467
G1 X148.707 Y121.786 E.07233
G1 X148.707 Y126.4 E.14467
G1 X146.4 Y126.4 E.07233
G1 X146.4 Y128.707 E.07233
G1 X141.786 Y128.707 E.14467
G1 X141.786 Y131.014 E.07233
G1 X137.172 Y131.014 E.14467
G1 X137.172 Y133.321 E.07233
G1 X112.828 Y133.321 E.76329
G1 X112.828 Y131.014 E.07233
G1 X108.214 Y131.014 E.14467
G1 X108.214 Y128.707 E.07233
G1 X103.6 Y128.707 E.14467
G1 X103.6 Y126.4 E.07233
G1 X101.293 Y126.4 E.07233
G1 X101.293 Y121.786 E.14467
G1 X98.986 Y121.786 E.07233
G1 X98.986 Y117.172 E.14467
G1 X96.679 Y117.172 E.07233
G1 X96.679 Y92.828 E.76329
G1 X98.986 Y92.828 E.07233
G1 X98.986 Y88.214 E.14467
G1 X101.293 Y88.214 E.07233
G1 X101.293 Y83.6 E.14467
G1 X103.6 Y83.6 E.07233
G1 X103.6 Y81.293 E.07233
G1 X108.214 Y81.293 E.14467
G1 X108.214 Y78.986 E.07233
G1 X112.828 Y78.986 E.14467
G1 X112.828 Y76.679 E.07233
G1 X137.172 Y76.679 E.76329
G1 X137.172 Y78.929 E.07055
M204 S1000
G1 X124.448 Y95.988 F10800
M204 S800
G1 F1200
G1 X125.552 Y95.988 E.03462
G1 X126.677 Y96.128 E.03555
G1 X127.805 Y96.417 E.03651
G1 X128.858 Y96.837 E.03555
G1 X129.825 Y97.368 E.03459
G1 X130.767 Y98.053 E.03652
G1 X131.572 Y98.808 E.0346
G1 X132.296 Y99.681 E.03556
G1 X132.905 Y100.637 E.03554
G1 X133.342 Y101.562 E.03208
G1 X133.401 Y101.69 E.00442
G1 X133.749 Y102.769 E.03555
G1 X133.956 Y103.853 E.0346
G1 X134.029 Y104.985 E.03557
G1 X133.956 Y106.147 E.03651
G1 X133.749 Y107.231 E.0346
G1 X133.401 Y108.31 E.03555
G1 X132.905 Y109.363 E.0365
G1 X132.314 Y110.295 E.0346
G1 X131.592 Y111.17 E.03557
G1 X130.744 Y111.967 E.03649
G1 X129.851 Y112.616 E.03461
G1 X128.858 Y113.163 E.03555
G1 X127.776 Y113.592 E.03649
G1 X126.707 Y113.866 E.0346
G1 X125.582 Y114.01 E.03556
G1 X124.418 Y114.01 E.0365
G1 X123.293 Y113.866 E.03556
G1 X122.224 Y113.592 E.0346
G1 X121.142 Y113.163 E.03649
G1 X120.175 Y112.632 E.03459
G1 X119.256 Y111.967 E.03557
G1 X118.428 Y111.192 E.03556
G1 X117.775 Y110.405 E.03206
G1 X117.686 Y110.295 E.00444
G1 X117.08 Y109.337 E.03554
G1 X116.61 Y108.338 E.03462
G1 X116.258 Y107.26 E.03556
G1 X116.04 Y106.117 E.03648
G1 X115.971 Y105.015 E.03462
G1 X116.04 Y103.883 E.03556
G1 X116.258 Y102.74 E.03648
G1 X116.599 Y101.69 E.03461
G1 X117.08 Y100.663 E.03556
G1 X117.704 Y99.681 E.03648
G1 X118.428 Y98.808 E.03556
G1 X119.233 Y98.053 E.0346
G1 X120.175 Y97.368 E.03652
G1 X121.142 Y96.837 E.03459
G1 X122.195 Y96.417 E.03555
G1 X123.293 Y96.134 E.03555
G1 X124.392 Y95.993 E.03474
M204 S1000
;WIPE_START
G1 F8640
G1 X123.293 Y96.134 E-.25584
G1 X122.195 Y96.417 E-.26182
G1 X121.142 Y96.837 E-.26177
G1 X121.064 Y96.88 E-.02057
;WIPE_END
G1 Z.6 F720
G1 X152.652 Y117.002 F10800
G1 Z.2 F720
G1 E.8 F2100
M204 S800
G1 F1200
G1 X152.652 Y93.168 E.7473
G1 X152.234 Y93.168 E.01311
G1 X152.234 Y116.832 E.74197
G1 X151.815 Y116.832 E.01314
G1 X151.815 Y93.168 E.74197
G1 X151.396 Y93.168 E.01314
G1 X151.396 Y116.832 E.74197
G1 X150.977 Y116.832 E.01314
G1 X150.977 Y93.168 E.74197
G1 X150.675 Y93.168 E.00947
G1 X150.675 Y88.553 E.1447
G1 X150.558 Y88.553 E.00367
G1 X150.558 Y121.447 E1.03137
G1 X150.139 Y121.447 E.01314
G1 X150.139 Y88.553 E1.03137
G1 X149.72 Y88.553 E.01314
G1 X149.72 Y121.447 E1.03137
G1 X149.301 Y121.447 E.01314
G1 X149.301 Y88.553 E1.03137
G1 X148.882 Y88.553 E.01314
G1 X148.882 Y121.447 E1.03137
G1 X148.463 Y121.447 E.01314
G1 X148.463 Y88.553 E1.03137
G1 X148.368 Y88.553 E.00298
M73 P1 R82
M73 Q0 S83
G1 X148.368 Y83.939 E.14467
G1 X148.044 Y83.939 E.01016
G1 X148.044 Y126.061 E1.32071
G1 X147.625 Y126.061 E.01314
M73 Q1 S83
G1 X147.625 Y83.939 E1.32071
G1 X147.206 Y83.939 E.01314
G1 X147.206 Y126.061 E1.32071
G1 X146.787 Y126.061 E.01314
G1 X146.787 Y83.939 E1.32071
G1 X146.368 Y83.939 E.01314
G1 X146.368 Y126.061 E1.32071
G1 X146.061 Y126.061 E.00963
G1 X146.061 Y128.368 E.07233
G1 X145.949 Y128.368 E.00351
G1 X145.949 Y81.632 E1.46537
G1 X145.53 Y81.632 E.01314
M73 P1 R81
G1 X145.53 Y128.368 E1.46537
G1 X145.111 Y128.368 E.01314
G1 X145.111 Y81.632 E1.46537
G1 X144.692 Y81.632 E.01314
G1 X144.692 Y128.368 E1.46537
G1 X144.273 Y128.368 E.01314
G1 X144.273 Y81.632 E1.46537
G1 X143.854 Y81.632 E.01314
G1 X143.854 Y128.368 E1.46537
G1 X143.435 Y128.368 E.01314
G1 X143.435 Y81.632 E1.46537
G1 X143.016 Y81.632 E.01314
G1 X143.016 Y128.368 E1.46537
G1 X142.597 Y128.368 E.01314
G1 X142.597 Y81.632 E1.46537
G1 X142.178 Y81.632 E.01314
G1 X142.178 Y128.368 E1.46537
G1 X141.759 Y128.368 E.01314
G1 X141.759 Y81.632 E1.46537
G1 X141.447 Y81.632 E.00978
G1 X141.447 Y79.325 E.07233
G1 X141.34 Y79.325 E.00335
G1 X141.34 Y130.675 E1.61004
G1 X140.921 Y130.675 E.01314
G1 X140.921 Y79.325 E1.61004
G1 X140.502 Y79.325 E.01314
G1 X140.502 Y130.675 E1.61004
G1 X140.083 Y130.675 E.01314
G1 X140.083 Y79.325 E1.61004
G1 X139.664 Y79.325 E.01314
G1 X139.664 Y130.675 E1.61004
G1 X139.245 Y130.675 E.01314
M73 P2 R81
G1 X139.245 Y79.325 E1.61004
G1 X138.826 Y79.325 E.01314
M73 Q2 S83
G1 X138.826 Y130.675 E1.61004
G1 X138.407 Y130.675 E.01314
G1 X138.407 Y79.325 E1.61004
G1 X137.988 Y79.325 E.01314
G1 X137.988 Y130.675 E1.61004
G1 X137.569 Y130.675 E.01314
M73 Q2 S82
G1 X137.569 Y79.325 E1.61004
G1 X137.15 Y79.325 E.01314
G1 X137.15 Y130.675 E1.61004
G1 X136.832 Y130.675 E.00997
G1 X136.832 Y132.982 E.07233
G1 X136.731 Y132.982 E.00317
G1 X136.731 Y77.018 E1.75471
G1 X136.312 Y77.018 E.01314
G1 X136.312 Y132.982 E1.75471
G1 X135.893 Y132.982 E.01314
G1 X135.893 Y77.018 E1.75471
G1 X135.474 Y77.018 E.01314
M73 P2 R80
G1 X135.474 Y132.982 E1.75471
G1 X135.055 Y132.982 E.01314
G1 X135.055 Y77.018 E1.75471
G1 X134.636 Y77.018 E.01314
G1 X134.636 Y132.982 E1.75471
G1 X134.217 Y132.982 E.01314
G1 X134.217 Y77.018 E1.75471
G1 X133.799 Y77.018 E.01311
G1 X133.799 Y101.816 E.77752
G1 X133.701 Y101.527 E.00957
G1 X133.38 Y100.844 E.02366
G1 X133.38 Y77.018 E.74705
G1 X132.961 Y77.018 E.01314
G1 X132.961 Y100.091 E.72344
G1 X132.542 Y99.445 E.02414
G1 X132.542 Y77.018 E.70318
G1 X132.123 Y77.018 E.01314
G1 X132.123 Y98.939 E.68732
G1 X131.847 Y98.606 E.01356
G1 X131.704 Y98.466 E.00627
G1 X131.704 Y77.018 E.67249
G1 X131.285 Y77.018 E.01314
G1 X131.285 Y98.073 E.66016
G1 X130.866 Y97.702 E.01755
G1 X130.866 Y77.018 E.64853
G1 X130.447 Y77.018 E.01314
G1 X130.447 Y97.398 E.639
G1 X130.028 Y97.095 E.01621
G1 X130.028 Y77.018 E.6295
G1 X129.609 Y77.018 E.01314
G1 X129.609 Y96.862 E.62219
G1 X129.19 Y96.632 E.01499
G1 X129.19 Y77.018 E.61498
G1 X128.771 Y77.018 E.01314
M73 P3 R80
G1 X128.771 Y96.435 E.60881
G1 X128.352 Y96.269 E.01413
G1 X128.352 Y77.018 E.6036
G1 X127.933 Y77.018 E.01314
G1 X127.933 Y96.103 E.5984
G1 X127.514 Y95.99 E.01361
M73 Q3 S82
G1 X127.514 Y77.018 E.59485
G1 X127.095 Y77.018 E.01314
G1 X127.095 Y95.883 E.5915
G1 X126.676 Y95.786 E.01348
G1 X126.676 Y77.018 E.58846
G1 X126.257 Y77.018 E.01314
G1 X126.257 Y95.733 E.5868
G1 X125.838 Y95.68 E.01324
G1 X125.838 Y77.018 E.58513
G1 X125.419 Y77.018 E.01314
G1 X125.419 Y95.648 E.58413
G1 X125 Y95.648 E.01314
G1 X125 Y77.018 E.58413
G1 X124.581 Y77.018 E.01314
G1 X124.581 Y95.648 E.58413
G1 X124.162 Y95.68 E.01318
G1 X124.162 Y77.018 E.58513
G1 X123.743 Y77.018 E.01314
G1 X123.743 Y95.733 E.5868
G1 X123.324 Y95.786 E.01324
G1 X123.324 Y77.018 E.58846
G1 X122.905 Y77.018 E.01314
G1 X122.905 Y95.883 E.5915
G1 X122.486 Y95.99 E.01356
G1 X122.486 Y77.018 E.59485
G1 X122.067 Y77.018 E.01314
G1 X122.067 Y96.103 E.5984
G1 X121.648 Y96.269 E.01413
G1 X121.648 Y77.018 E.6036
G1 X121.229 Y77.018 E.01314
G1 X121.229 Y96.435 E.60881
G1 X121.034 Y96.512 E.00657
G1 X120.81 Y96.632 E.00797
G1 X120.81 Y77.018 E.61498
G1 X120.391 Y77.018 E.01314
G1 X120.391 Y96.862 E.62219
G1 X119.972 Y97.095 E.01503
M73 Q3 S81
G1 X119.972 Y77.018 E.6295
G1 X119.553 Y77.018 E.01314
G1 X119.553 Y97.398 E.639
G1 X119.134 Y97.702 E.01623
G1 X119.134 Y77.018 E.64853
G1 X118.715 Y77.018 E.01314
G1 X118.715 Y98.073 E.66016
G1 X118.296 Y98.466 E.01801
G1 X118.296 Y77.018 E.67249
G1 X117.877 Y77.018 E.01314
G1 X117.877 Y98.939 E.68732
G1 X117.458 Y99.445 E.0206
G1 X117.458 Y77.018 E.70318
G1 X117.039 Y77.018 E.01314
G1 X117.039 Y100.091 E.72344
G1 X116.803 Y100.464 E.01384
G1 X116.62 Y100.844 E.01322
G1 X116.62 Y77.018 E.74705
G1 X116.201 Y77.018 E.01314
G1 X116.201 Y102.366 E.79477
M204 S1000
;WIPE_START
G1 F8640
G1 X116.201 Y98.901 E-.8
;WIPE_END
G1 Z.6 F720
G1 X133.799 Y133.152 F10800
G1 Z.2 F720
G1 E.8 F2100
M204 S800
G1 F1200
G1 X133.799 Y108.184 E.78285
G1 X133.701 Y108.473 E.00957
M73 P3 R79
G1 X133.38 Y109.156 E.02366
G1 X133.38 Y132.982 E.74705
G1 X132.961 Y132.982 E.01314
G1 X132.961 Y109.909 E.72344
G1 X132.542 Y110.555 E.02414
G1 X132.542 Y132.982 E.70318
G1 X132.123 Y132.982 E.01314
G1 X132.123 Y111.061 E.68732
G1 X131.847 Y111.394 E.01356
G1 X131.704 Y111.534 E.00627
G1 X131.704 Y132.982 E.67249
G1 X131.285 Y132.982 E.01314
G1 X131.285 Y111.927 E.66016
G1 X130.866 Y112.298 E.01755
G1 X130.866 Y132.982 E.64853
G1 X130.447 Y132.982 E.01314
G1 X130.447 Y112.602 E.639
G1 X130.028 Y112.905 E.01621
G1 X130.028 Y132.982 E.6295
G1 X129.609 Y132.982 E.01314
G1 X129.609 Y113.138 E.62219
G1 X129.19 Y113.368 E.01499
G1 X129.19 Y132.982 E.61498
G1 X128.771 Y132.982 E.01314
G1 X128.771 Y113.565 E.60881
G1 X128.352 Y113.731 E.01413
G1 X128.352 Y132.982 E.6036
G1 X127.933 Y132.982 E.01314
G1 X127.933 Y113.897 E.5984
G1 X127.514 Y114.01 E.01361
G1 X127.514 Y132.982 E.59485
G1 X127.095 Y132.982 E.01314
M73 P4 R79
G1 X127.095 Y114.117 E.5915
G1 X126.676 Y114.214 E.01348
G1 X126.676 Y132.982 E.58846
G1 X126.257 Y132.982 E.01314
G1 X126.257 Y114.267 E.5868
G1 X125.838 Y114.32 E.01324
G1 X125.838 Y132.982 E.58513
G1 X125.419 Y132.982 E.01314
M73 Q4 S81
G1 X125.419 Y114.352 E.58413
G1 X125 Y114.352 E.01314
G1 X125 Y132.982 E.58413
G1 X124.581 Y132.982 E.01314
G1 X124.581 Y114.352 E.58413
G1 X124.162 Y114.32 E.01318
G1 X124.162 Y132.982 E.58513
G1 X123.743 Y132.982 E.01314
G1 X123.743 Y114.267 E.5868
G1 X123.324 Y114.214 E.01324
G1 X123.324 Y132.982 E.58846
G1 X122.905 Y132.982 E.01314
G1 X122.905 Y114.117 E.5915
G1 X122.486 Y114.01 E.01356
G1 X122.486 Y132.982 E.59485
G1 X122.067 Y132.982 E.01314
G1 X122.067 Y113.897 E.5984
G1 X121.648 Y113.731 E.01413
G1 X121.648 Y132.982 E.6036
G1 X121.229 Y132.982 E.01314
G1 X121.229 Y113.565 E.60881
G1 X121.034 Y113.488 E.00657
G1 X120.81 Y113.368 E.00797
G1 X120.81 Y132.982 E.61498
G1 X120.391 Y132.982 E.01314
G1 X120.391 Y113.138 E.62219
G1 X119.972 Y112.905 E.01503
G1 X119.972 Y132.982 E.6295
G1 X119.553 Y132.982 E.01314
G1 X119.553 Y112.602 E.639
G1 X119.134 Y112.298 E.01623
G1 X119.134 Y132.982 E.64853
G1 X118.715 Y132.982 E.01314
G1 X118.715 Y111.927 E.66016
G1 X118.296 Y111.534 E.01801
G1 X118.296 Y132.982 E.67249
G1 X117.877 Y132.982 E.01314
G1 X117.877 Y111.061 E.68732
G1 X117.458 Y110.555 E.0206
G1 X117.458 Y132.982 E.70318
G1 X117.039 Y132.982 E.01314
G1 X117.039 Y109.909 E.72344
G1 X116.803 Y109.536 E.01384
G1 X116.62 Y109.156 E.01322
G1 X116.62 Y132.982 E.74705
G1 X116.201 Y132.982 E.01314
G1 X116.201 Y107.634 E.79477
M204 S1000
G1 X115.783 Y133.152 F10800
M204 S800
G1 F1200
G1 X115.783 Y77.018 E1.76004
G1 X115.364 Y77.018 E.01314
M73 Q4 S80
G1 X115.364 Y132.982 E1.75471
G1 X114.945 Y132.982 E.01314
G1 X114.945 Y77.018 E1.75471
G1 X114.526 Y77.018 E.01314
G1 X114.526 Y132.982 E1.75471
G1 X114.107 Y132.982 E.01314
G1 X114.107 Y77.018 E1.75471
G1 X113.688 Y77.018 E.01314
G1 X113.688 Y132.982 E1.75471
G1 X113.269 Y132.982 E.01314
M73 P4 R78
G1 X113.269 Y77.018 E1.75471
G1 X113.168 Y77.018 E.00317
G1 X113.168 Y79.325 E.07233
G1 X112.85 Y79.325 E.00997
G1 X112.85 Y130.675 E1.61004
G1 X112.431 Y130.675 E.01314
M73 P5 R78
G1 X112.431 Y79.325 E1.61004
G1 X112.012 Y79.325 E.01314
G1 X112.012 Y130.675 E1.61004
G1 X111.593 Y130.675 E.01314
M73 Q5 S80
G1 X111.593 Y79.325 E1.61004
G1 X111.174 Y79.325 E.01314
G1 X111.174 Y130.675 E1.61004
G1 X110.755 Y130.675 E.01314
G1 X110.755 Y79.325 E1.61004
G1 X110.336 Y79.325 E.01314
G1 X110.336 Y130.675 E1.61004
G1 X109.917 Y130.675 E.01314
G1 X109.917 Y79.325 E1.61004
G1 X109.498 Y79.325 E.01314
G1 X109.498 Y130.675 E1.61004
G1 X109.079 Y130.675 E.01314
G1 X109.079 Y79.325 E1.61004
G1 X108.66 Y79.325 E.01314
G1 X108.66 Y130.675 E1.61004
G1 X108.553 Y130.675 E.00335
G1 X108.553 Y128.368 E.07233
G1 X108.241 Y128.368 E.00978
G1 X108.241 Y81.632 E1.46537
G1 X107.822 Y81.632 E.01314
G1 X107.822 Y128.368 E1.46537
G1 X107.403 Y128.368 E.01314
G1 X107.403 Y81.632 E1.46537
G1 X106.984 Y81.632 E.01314
G1 X106.984 Y128.368 E1.46537
G1 X106.565 Y128.368 E.01314
G1 X106.565 Y81.632 E1.46537
G1 X106.146 Y81.632 E.01314
G1 X106.146 Y128.368 E1.46537
G1 X105.727 Y128.368 E.01314
M73 Q5 S79
G1 X105.727 Y81.632 E1.46537
G1 X105.308 Y81.632 E.01314
G1 X105.308 Y128.368 E1.46537
G1 X104.889 Y128.368 E.01314
G1 X104.889 Y81.632 E1.46537
G1 X104.47 Y81.632 E.01314
G1 X104.47 Y128.368 E1.46537
G1 X104.051 Y128.368 E.01314
M73 P6 R78
G1 X104.051 Y81.632 E1.46537
