; generated by PrusaSlicer 2.6.1+win64 on 2023-09-27 at 20:12:08 UTC


;
;

;
;

;
;
; 

; external perimeters extrusion width = 0.45mm
; perimeters extrusion width = 0.45mm
; infill extrusion width = 0.45mm
; solid infill extrusion width = 0.45mm
; top infill extrusion width = 0.42mm
; first layer extrusion width = 0.50mm

; external perimeters extrusion width = 0.45mm
; perimeters extrusion width = 0.45mm
; infill extrusion width = 0.45mm
; solid infill extrusion width = 0.45mm
; top infill extrusion width = 0.42mm
; first layer extrusion width = 0.50mm

; external perimeters extrusion width = 0.45mm
; perimeters extrusion width = 0.45mm
; infill extrusion width = 0.45mm
; solid infill extrusion width = 0.45mm
; top infill extrusion width = 0.42mm
; first layer extrusion width = 0.50mm

; external perimeters extrusion width = 0.45mm
; perimeters extrusion width = 0.45mm
; infill extrusion width = 0.45mm
; solid infill extrusion width = 0.45mm
; top infill extrusion width = 0.42mm
; first layer extrusion width = 0.50mm

; external perimeters extrusion width = 0.45mm
; perimeters extrusion width = 0.45mm
; infill extrusion width = 0.45mm
; solid infill extrusion width = 0.45mm
; top infill extrusion width = 0.42mm
; first layer extrusion width = 0.50mm

; external perimeters extrusion width = 0.45mm
; perimeters extrusion width = 0.45mm
; infill extrusion width = 0.45mm
; solid infill extrusion width = 0.45mm
; top infill extrusion width = 0.42mm
; first layer extrusion width = 0.50mm

; external perimeters extrusion width = 0.45mm
; perimeters extrusion width = 0.45mm
; infill extrusion width = 0.45mm
; solid infill extrusion width = 0.45mm
; top infill extrusion width = 0.42mm
; first layer extrusion width = 0.50mm

; external perimeters extrusion width = 0.45mm
; perimeters extrusion width = 0.45mm
; infill extrusion width = 0.45mm
; solid infill extrusion width = 0.45mm
; top infill extrusion width = 0.42mm
; first layer extrusion width = 0.50mm

; external perimeters extrusion width = 0.45mm
; perimeters extrusion width = 0.45mm
; infill extrusion width = 0.45mm
; solid infill extrusion width = 0.45mm
; top infill extrusion width = 0.42mm
; first layer extrusion width = 0.50mm

; external perimeters extrusion width = 0.45mm
; perimeters extrusion width = 0.45mm
; infill extrusion width = 0.45mm
; solid infill extrusion width = 0.45mm
; top infill extrusion width = 0.42mm
; first layer extrusion width = 0.50mm

; external perimeters extrusion width = 0.45mm
; perimeters extrusion width = 0.45mm
; infill extrusion width = 0.45mm
; solid infill extrusion width = 0.45mm
; top infill extrusion width = 0.42mm
; first layer extrusion width = 0.50mm

M73 P0 R74
M201 X2500 Y2500 Z200 E2500 ; sets maximum accelerations, mm/sec^2
M203 X200 Y200 Z40 E100 ; sets maximum feedrates, mm / sec
M204 P2000 R1200 T2000 ; sets acceleration (P, T) and retract acceleration (R), mm/sec^2
M205 X8.00 Y8.00 Z2.00 E10.00 ; sets the jerk limits, mm/sec
M205 S0 T0 ; sets the minimum extruding and travel feed rate, mm/sec
;TYPE:Custom
M17 ; enable steppers
M862.3 P "MK4" ; printer model check
M862.1 P0.4 ; nozzle diameter check
M555 X56.6549 Y27.9861 W137.12 H156.076

G90 ; use absolute coordinates
M83 ; extruder relative mode

M140 S100 ; set bed temp

M104 S170 ; set extruder temp for bed leveling
M109 R170 ; wait for temp


M84 E ; turn off E motor

G28 ; home all without mesh bed level

G1 X42 Y-4 Z5 F4800

M302 S160 ; lower cold extrusion limit to 160C


G1 E-2 F2400 ; retraction


M84 E ; turn off E motor

G29 P9 X10 Y-4 W32 H4



G0 Z40 F10000

M190 S100 ; wait for bed temp

M107

;
; MBL
;
M84 E ; turn off E motor
G29 P1 ; invalidate mbl & probe print area
G29 P1 X0 Y0 W50 H20 C ; probe near purge place
G29 P3.2 ; interpolate mbl probes
G29 P3.13 ; extrapolate mbl outside probe area
G29 A ; activate mbl

; prepare for purge
M104 S255
G0 X0 Y-4 Z15 F4800 ; move away and ready for the purge
M109 S255

G92 E0
M569 S0 E ; set spreadcycle mode for extruder

;
; Extrude purge line
;
G92 E0 ; reset extruder position
G1 E2 F2400 ; deretraction after the initial one before nozzle cleaning
G0 E7 X15 Z0.2 F500 ; purge
G0 X25 E4 F500 ; purge
G0 X35 E4 F650 ; purge
G0 X45 E4 F800 ; purge
G0 X48 Z0.05 F8000 ; wipe, move close to the bed
G0 X51 Z0.2 F8000 ; wipe, move quickly away from the bed

G92 E0
M221 S100 ; set flow to 100%
G21 ; set units to millimeters
G90 ; use absolute coordinates
M83 ; use relative distances for extrusion
M900 K0.04 ; Filament gcode



M142 S40 ; set heatbreak target temp
M107
;LAYER_CHANGE
;Z:0.2
;HEIGHT:0.2
;BEFORE_LAYER_CHANGE
G92 E0.0
;0.2


G1 E-.8 F2100
G1 Z.2 F720
;AFTER_LAYER_CHANGE
;0.2
; printing object 128.STL id:10 copy 0
G1 Z.4
G1 X61.009 Y159.529 F12000
G1 Z.2 F720
G1 E.8 F1500
M204 P600
;TYPE:Perimeter
;WIDTH:0.499999
G1 F1200
G1 X60.57 Y159.512 E.0167
G1 X60.057 Y159.455 E.01962
G1 X59.561 Y159.314 E.0196
G1 X59.095 Y159.093 E.0196
G1 X58.674 Y158.797 E.01956
G1 X58.3 Y158.424 E.02008
G1 X58.005 Y158.012 E.01926
G1 X57.777 Y157.544 E.01979
G1 X57.632 Y157.051 E.01953
G1 X57.572 Y156.537 E.01967
G1 X57.6 Y156.013 E.01994
G1 X57.708 Y155.523 E.01907
G1 X57.908 Y155.032 E.02015
G1 X58.513 Y154.099 E.04226
G1 X58.556 Y153.862 E.00915
G1 X58.556 Y116.563 E1.4176
G1 X58.587 Y116.089 E.01805
G1 X58.743 Y115.595 E.01969
G1 X58.999 Y115.151 E.01948
G1 X59.369 Y114.792 E.01959
G1 X59.809 Y114.521 E.01964
G1 X60.309 Y114.38 E.01974
G1 X60.823 Y114.353 E.01956
G1 X61.328 Y114.466 E.01967
G1 X61.792 Y114.686 E.01952
G1 X62.184 Y115.028 E.01977
G1 X62.487 Y115.441 E.01947
G1 X62.669 Y115.928 E.01976
G1 X62.742 Y116.474 E.02094
G1 X62.742 Y153.861 E1.42094
G1 X62.784 Y154.101 E.00926
G1 X63.428 Y155.08 E.04454
G1 X63.802 Y156.189 E.04448
G1 X63.963 Y156.368 E.00915
G1 X93.357 Y179.334 E1.41771
G1 X93.71 Y179.649 E.01798
G1 X94.003 Y180.073 E.01959
G1 X94.196 Y180.551 E.01959
G1 X94.252 Y181.068 E.01976
G1 X94.195 Y181.579 E.01954
G1 X93.997 Y182.06 E.01977
G1 X93.704 Y182.479 E.01943
G1 X93.306 Y182.806 E.01958
G1 X92.844 Y183.039 E.01967
G1 X92.336 Y183.138 E.01967
G1 X91.82 Y183.122 E.01962
G1 X91.322 Y182.964 E.01986
G1 X90.851 Y182.687 E.02077
G1 X61.388 Y159.668 E1.42102
G1 X61.282 Y159.6 E.00479
G1 X61.069 Y159.531 E.00851
M204 P1000
G1 X60.936 Y159.979 F12000
M204 P600
;TYPE:External perimeter
G1 F1200
G1 X60.264 Y159.961 E.02555
G1 X59.68 Y159.847 E.02261
G1 X59.123 Y159.638 E.02261
G1 X58.608 Y159.338 E.02265
G1 X58.151 Y158.956 E.02264
G1 X57.766 Y158.501 E.02265
G1 X57.459 Y157.989 E.02269
G1 X57.244 Y157.435 E.02259
G1 X57.125 Y156.851 E.02265
G1 X57.106 Y156.257 E.02259
G1 X57.186 Y155.665 E.0227
G1 X57.361 Y155.096 E.02263
G1 X57.633 Y154.566 E.02264
G1 X58.014 Y154.051 E.02435
G1 X58.099 Y153.861 E.00791
G1 X58.099 Y116.557 E1.41779
G1 X58.134 Y116.014 E.02068
G1 X58.324 Y115.41 E.02406
G1 X58.637 Y114.869 E.02375
G1 X59.088 Y114.431 E.02389
G1 X59.625 Y114.101 E.02396
G1 X60.235 Y113.929 E.02409
G1 X60.86 Y113.896 E.02379
G1 X61.477 Y114.034 E.02403
G1 X62.042 Y114.302 E.02377
G1 X62.52 Y114.719 E.02411
G1 X62.89 Y115.222 E.02373
G1 X63.112 Y115.817 E.02414
G1 X63.199 Y116.455 E.02447
G1 X63.199 Y153.861 E1.42166
G1 X63.246 Y154.003 E.00568
G1 X63.722 Y154.675 E.0313
G1 X64.019 Y155.319 E.02695
M73 P0 R73
G1 X64.164 Y155.885 E.02221
G1 X64.244 Y156.008 E.00558
G1 X93.643 Y178.977 E1.41793
G1 X94.048 Y179.339 E.02065
G1 X94.405 Y179.856 E.02388
G1 X94.641 Y180.439 E.0239
G1 X94.709 Y181.068 E.02405
G1 X94.639 Y181.692 E.02386
G1 X94.398 Y182.28 E.02415
G1 X94.041 Y182.79 E.02366
G1 X93.555 Y183.189 E.0239
G1 X92.993 Y183.473 E.02393
G1 X92.372 Y183.594 E.02405
G1 X91.744 Y183.575 E.02388
G1 X91.136 Y183.381 E.02426
G1 X90.585 Y183.059 E.02426
G1 X61.106 Y160.028 E1.42178
G1 X60.994 Y159.988 E.00452
M204 P1000
G1 X60.823 Y159.595 F12000
G1 E-.64 F2100
;WIPE_START
G1 F9600
G1 X60.264 Y159.961 E-.15181
G1 X60.225 Y159.953 E-.00819
;WIPE_END
G1 Z.4 F720
G1 X62.439 Y115.857 F12000
G1 Z.2 F720
G1 E.8 F1500
M204 P600
;TYPE:Solid infill
;WIDTH:0.502573
G1 F1200
G1 X61.78 Y115.198 E.03562
G1 X61.566 Y115.032 E.01035
G1 X61.32 Y114.899 E.01069
G1 X61.06 Y114.809 E.01052
G1 X60.697 Y114.764 E.01398
G1 X62.322 Y116.39 E.08786
G1 X62.33 Y117.048 E.02515
G1 X60.128 Y114.846 E.11902
G1 X59.975 Y114.899 E.00619
G1 X59.693 Y115.061 E.01243
G1 X62.33 Y117.698 E.14253
G1 X62.33 Y118.348 E.02484
G1 X59.355 Y115.372 E.16083
G1 X59.174 Y115.636 E.01223
G1 X59.111 Y115.779 E.00597
G1 X62.33 Y118.998 E.17399
G1 X62.33 Y119.648 E.02484
G1 X58.983 Y116.3 E.18094
G1 X58.967 Y116.489 E.00725
G1 X58.967 Y116.935 E.01705
G1 X62.33 Y120.298 E.18178
G1 X62.33 Y120.948 E.02484
G1 X58.967 Y117.585 E.18178
G1 X58.967 Y118.235 E.02484
G1 X62.33 Y121.599 E.1818
G1 X62.33 Y122.249 E.02484
G1 X58.967 Y118.885 E.1818
G1 X58.967 Y119.536 E.02488
G1 X62.33 Y122.899 E.18178
G1 X62.33 Y123.549 E.02484
G1 X58.967 Y120.186 E.18178
G1 X58.967 Y120.836 E.02484
G1 X62.33 Y124.199 E.18178
G1 X62.33 Y124.849 E.02484
G1 X58.967 Y121.486 E.18178
G1 X58.967 Y122.136 E.02484
G1 X62.33 Y125.499 E.18178
G1 X62.33 Y126.149 E.02484
G1 X58.967 Y122.786 E.18178
G1 X58.967 Y123.436 E.02484
G1 X62.33 Y126.799 E.18178
G1 X62.33 Y127.449 E.02484
G1 X58.967 Y124.086 E.18178
G1 X58.967 Y124.736 E.02484
G1 X62.33 Y128.099 E.18178
G1 X62.33 Y128.749 E.02484
G1 X58.967 Y125.386 E.18178
G1 X58.967 Y126.036 E.02484
G1 X62.33 Y129.399 E.18178
G1 X62.33 Y130.049 E.02484
G1 X58.967 Y126.686 E.18178
G1 X58.967 Y127.336 E.02484
G1 X62.33 Y130.699 E.18178
G1 X62.33 Y131.349 E.02484
G1 X58.967 Y127.986 E.18178
G1 X58.967 Y128.636 E.02484
G1 X62.33 Y131.999 E.18178
G1 X62.33 Y132.649 E.02484
G1 X58.967 Y129.286 E.18178
G1 X58.967 Y129.936 E.02484
G1 X62.33 Y133.299 E.18178
G1 X62.33 Y133.949 E.02484
G1 X58.967 Y130.586 E.18178
G1 X58.967 Y131.236 E.02484
G1 X62.33 Y134.599 E.18178
G1 X62.33 Y135.25 E.02488
G1 X58.967 Y131.886 E.1818
G1 X58.967 Y132.536 E.02484
G1 X62.33 Y135.9 E.1818
G1 X62.33 Y136.55 E.02484
G1 X58.967 Y133.187 E.18178
G1 X58.967 Y133.837 E.02484
G1 X62.33 Y137.2 E.18178
G1 X62.33 Y137.85 E.02484
G1 X58.967 Y134.487 E.18178
G1 X58.967 Y135.137 E.02484
G1 X62.33 Y138.5 E.18178
G1 X62.33 Y139.15 E.02484
G1 X58.967 Y135.787 E.18178
G1 X58.967 Y136.437 E.02484
G1 X62.33 Y139.8 E.18178
G1 X62.33 Y140.45 E.02484
G1 X58.967 Y137.087 E.18178
G1 X58.967 Y137.737 E.02484
G1 X62.33 Y141.1 E.18178
G1 X62.33 Y141.75 E.02484
G1 X58.967 Y138.387 E.18178
G1 X58.967 Y139.037 E.02484
G1 X62.33 Y142.4 E.18178
G1 X62.33 Y143.05 E.02484
G1 X58.967 Y139.687 E.18178
G1 X58.967 Y140.337 E.02484
G1 X62.33 Y143.7 E.18178
G1 X62.33 Y144.35 E.02484
G1 X58.967 Y140.987 E.18178
G1 X58.967 Y141.637 E.02484
G1 X62.33 Y145 E.18178
G1 X62.33 Y145.65 E.02484
G1 X58.967 Y142.287 E.18178
G1 X58.967 Y142.937 E.02484
G1 X62.33 Y146.3 E.18178
G1 X62.33 Y146.95 E.02484
G1 X58.967 Y143.587 E.18178
G1 X58.967 Y144.237 E.02484
G1 X62.33 Y147.6 E.18178
G1 X62.33 Y148.25 E.02484
G1 X58.967 Y144.887 E.18178
G1 X58.967 Y145.537 E.02484
G1 X62.33 Y148.901 E.1818
G1 X62.33 Y149.551 E.02484
G1 X58.967 Y146.187 E.1818
G1 X58.967 Y146.838 E.02488
G1 X62.33 Y150.201 E.18178
G1 X62.33 Y150.851 E.02484
G1 X58.967 Y147.488 E.18178
G1 X58.967 Y148.138 E.02484
G1 X62.33 Y151.501 E.18178
G1 X62.33 Y152.151 E.02484
G1 X58.967 Y148.788 E.18178
G1 X58.967 Y149.438 E.02484
G1 X62.33 Y152.801 E.18178
G1 X62.33 Y153.451 E.02484
G1 X58.967 Y150.088 E.18178
G1 X58.967 Y150.738 E.02484
G1 X63.01 Y154.78 E.2185
M204 P1000
G1 E-.64 F2100
;WIPE_START
G1 F9600
G1 X62.466 Y154.236 E-.16
;WIPE_END
G1 Z.4 F720
G1 X91.836 Y178.406 F12000
G1 Z.2 F720
G1 E.8 F1500
M204 P600
G1 F1200
G1 X93.576 Y180.148 E.0941
M73 P1 R73
G1 X93.706 Y180.389 E.01047
G1 X93.795 Y180.651 E.01058
G1 X93.84 Y180.927 E.01069
G1 X93.84 Y181.061 E.00512
G1 X90.058 Y177.278 E.20445
G1 X87.085 Y174.955 E.1442
G1 X93.747 Y181.617 E.36009
G1 X93.705 Y181.736 E.00482
G1 X93.522 Y182.043 E.01366
G1 X84.113 Y172.633 E.5086
G1 X81.141 Y170.311 E.14415
G1 X93.207 Y182.377 E.65219
G1 X92.965 Y182.537 E.01109
G1 X92.792 Y182.613 E.00722
G1 X78.169 Y167.989 E.79042
G1 X75.197 Y165.667 E.14415
G1 X92.261 Y182.731 E.92234
G1 X91.889 Y182.715 E.01423
G1 X91.623 Y182.648 E.01048
G1 X91.45 Y182.571 E.00724
G1 X72.225 Y163.345 E1.03917
G1 X69.252 Y161.023 E.14418
G1 X88.766 Y180.536 E1.05474
G1 X85.794 Y178.214 E.14415
G1 X66.28 Y158.701 E1.05474
G1 X63.703 Y156.687 E.12501
G1 X63.559 Y156.552 E.00754
G1 X63.375 Y156.26 E.01319
G1 X63.2 Y155.62 E.02536
G1 X58.967 Y151.388 E.22877
G1 X58.967 Y152.038 E.02484
G1 X82.821 Y175.892 E1.28935
G1 X79.849 Y173.57 E.14415
G1 X58.967 Y152.688 E1.12871
G1 X58.967 Y153.338 E.02484
G1 X76.877 Y171.248 E.96807
G1 X73.905 Y168.926 E.14415
G1 X58.957 Y153.978 E.80796
G1 X58.949 Y154.068 E.00345
G1 X58.833 Y154.391 E.01312
G1 X58.786 Y154.456 E.00307
G1 X70.933 Y166.603 E.65657
G1 X67.961 Y164.281 E.14415
G1 X58.512 Y154.833 E.51071
G1 X58.374 Y155.024 E.00901
G1 X58.265 Y155.236 E.00911
G1 X64.988 Y161.959 E.36339
G1 X62.016 Y159.637 E.14415
G1 X58.083 Y155.704 E.21259
G1 X58.037 Y155.852 E.00592
G1 X57.983 Y156.254 E.0155
G1 X60.842 Y159.113 E.15453
G1 X60.36 Y159.095 E.01844
G1 X60.129 Y159.05 E.00899
G1 X58.033 Y156.953 E.11332
G1 X58.081 Y157.19 E.00924
G1 X58.242 Y157.606 E.01705
G1 X58.474 Y157.993 E.01725
G1 X58.762 Y158.333 E.01703
G1 X59.501 Y159.072 E.03994
M204 P1000
; stop printing object 128.STL id:10 copy 0
; printing object 115.STL id:9 copy 0
G1 E-.64 F2100
;WIPE_START
G1 F9600
G1 X58.957 Y158.528 E-.16
;WIPE_END
G1 Z.4 F720
G1 X71.795 Y147.961 F12000
G1 Z.2 F720
G1 E.8 F1500
M204 P600
;TYPE:Perimeter
;WIDTH:0.499999
G1 F1200
G1 X72.29 Y148.716 E.03431
G1 X72.589 Y149.215 E.02211
G1 X72.786 Y149.354 E.00916
G1 X106.595 Y165.12 E1.4178
G1 X106.856 Y165.261 E.01127
G1 X107.274 Y165.564 E.01962
G1 X107.593 Y165.97 E.01962
G1 X107.815 Y166.436 E.01962
G1 X107.902 Y166.945 E.01963
G1 X107.913 Y167.117 E.00655
G1 X107.83 Y167.627 E.01964
G1 X107.638 Y168.106 E.01961
G1 X107.323 Y168.514 E.01959
G1 X106.926 Y168.844 E.01962
G1 X106.454 Y169.054 E.01963
G1 X105.948 Y169.155 E.01961
G1 X105.434 Y169.115 E.01959
G1 X104.905 Y168.95 E.02106
G1 X71.018 Y153.148 E1.42106
G1 X70.9 Y153.106 E.00476
G1 X70.681 Y153.086 E.00836
G1 X70.184 Y153.181 E.01923
G1 X69.659 Y153.241 E.02008
G1 X69.131 Y153.211 E.0201
G1 X68.616 Y153.09 E.02011
G1 X68.129 Y152.884 E.0201
G1 X67.685 Y152.597 E.02009
G1 X67.296 Y152.238 E.02012
G1 X66.975 Y151.818 E.02009
G1 X66.73 Y151.349 E.02011
G1 X66.569 Y150.846 E.02007
G1 X66.497 Y150.322 E.0201
G1 X66.515 Y149.793 E.02012
G1 X66.624 Y149.276 E.02008
G1 X66.819 Y148.785 E.02008
G1 X67.436 Y147.829 E.04324
G1 X67.478 Y147.592 E.00915
G1 X67.478 Y110.288 E1.41779
G1 X67.51 Y109.82 E.01783
G1 X67.664 Y109.328 E.01959
G1 X67.922 Y108.881 E.01962
G1 X68.292 Y108.521 E.01962
G1 X68.732 Y108.251 E.01962
G1 X69.228 Y108.11 E.0196
G1 X69.744 Y108.082 E.01964
G1 X70.247 Y108.194 E.01959
G1 X70.714 Y108.415 E.01964
G1 X71.103 Y108.754 E.01961
G1 X71.409 Y109.17 E.01963
G1 X71.59 Y109.653 E.0196
G1 X71.664 Y110.202 E.02105
G1 X71.664 Y147.592 E1.42105
G1 X71.707 Y147.83 E.00919
G1 X71.761 Y147.911 E.0037
M204 P1000
G1 X72.188 Y147.757 F12000
M204 P600
;TYPE:External perimeter
G1 F1200
G1 X72.564 Y148.258 E.02381
G1 X72.874 Y148.84 E.02506
G1 X72.98 Y148.94 E.00554
G1 X106.789 Y164.706 E1.4178
G1 X107.083 Y164.864 E.01269
G1 X107.592 Y165.234 E.02392
G1 X107.981 Y165.729 E.02393
G1 X108.252 Y166.297 E.02392
G1 X108.359 Y166.917 E.02391
G1 X108.371 Y167.128 E.00803
G1 X108.27 Y167.749 E.02391
G1 X108.036 Y168.333 E.02391
G1 X107.652 Y168.832 E.02393
G1 X107.168 Y169.234 E.02391
G1 X106.593 Y169.489 E.02391
G1 X105.975 Y169.613 E.02396
G1 X105.348 Y169.564 E.0239
G1 X104.729 Y169.372 E.02463
G1 X70.825 Y153.563 E1.42176
G1 X70.683 Y153.546 E.00544
G1 X69.976 Y153.689 E.02741
G1 X69.367 Y153.707 E.02316
G1 X68.764 Y153.62 E.02316
G1 X68.184 Y153.43 E.0232
G1 X67.646 Y153.145 E.02314
G1 X67.164 Y152.771 E.02319
G1 X66.753 Y152.321 E.02316
G1 X66.426 Y151.807 E.02315
G1 X66.191 Y151.244 E.02319
