; generated by PrusaSlicer 2.6.1+win64 on 2023-09-27 at 20:25:04 UTC


;
;

;
;

;
;
; 

; external perimeters extrusion width = 0.45mm
; perimeters extrusion width = 0.45mm
; infill extrusion width = 0.45mm
; solid infill extrusion width = 0.45mm
; top infill extrusion width = 0.42mm
; first layer extrusion width = 0.50mm

; external perimeters extrusion width = 0.45mm
; perimeters extrusion width = 0.45mm
; infill extrusion width = 0.45mm
; solid infill extrusion width = 0.45mm
; top infill extrusion width = 0.42mm
; first layer extrusion width = 0.50mm

M73 P0 R13
M201 X2500 Y2500 Z200 E2500 ; sets maximum accelerations, mm/sec^2
M203 X200 Y200 Z40 E100 ; sets maximum feedrates, mm / sec
M204 P2000 R1200 T2000 ; sets acceleration (P, T) and retract acceleration (R), mm/sec^2
M205 X8.00 Y8.00 Z2.00 E10.00 ; sets the jerk limits, mm/sec
M205 S0 T0 ; sets the minimum extruding and travel feed rate, mm/sec
;TYPE:Custom
M17 ; enable steppers
M862.3 P "MK4" ; printer model check
M862.1 P0.4 ; nozzle diameter check
M555 X88.5234 Y77.5115 W59.9607 H89.1862

G90 ; use absolute coordinates
M83 ; extruder relative mode

M140 S60 ; set bed temp

M104 S170 ; set extruder temp for bed leveling
M109 R170 ; wait for temp


M84 E ; turn off E motor

G28 ; home all without mesh bed level

G1 X42 Y-4 Z5 F4800

M302 S160 ; lower cold extrusion limit to 160C


G1 E-2 F2400 ; retraction


M84 E ; turn off E motor

G29 P9 X10 Y-4 W32 H4

M106 S100

G0 Z40 F10000

M190 S60 ; wait for bed temp

M107

;
; MBL
;
M84 E ; turn off E motor
G29 P1 ; invalidate mbl & probe print area
G29 P1 X0 Y0 W50 H20 C ; probe near purge place
G29 P3.2 ; interpolate mbl probes
G29 P3.13 ; extrapolate mbl outside probe area
G29 A ; activate mbl

; prepare for purge
M104 S215
G0 X0 Y-4 Z15 F4800 ; move away and ready for the purge
M109 S215

G92 E0
M569 S0 E ; set spreadcycle mode for extruder

;
; Extrude purge line
;
G92 E0 ; reset extruder position
G1 E2 F2400 ; deretraction after the initial one before nozzle cleaning
G0 E7 X15 Z0.2 F500 ; purge
G0 X25 E4 F500 ; purge
G0 X35 E4 F650 ; purge
G0 X45 E4 F800 ; purge
G0 X48 Z0.05 F8000 ; wipe, move close to the bed
G0 X51 Z0.2 F8000 ; wipe, move quickly away from the bed

G92 E0
M221 S100 ; set flow to 100%
G21 ; set units to millimeters
G90 ; use absolute coordinates
M83 ; use relative distances for extrusion
M900 K0.05 ; Filament gcode



M142 S36 ; set heatbreak target temp
M107
;LAYER_CHANGE
;Z:0.2
;HEIGHT:0.2
;BEFORE_LAYER_CHANGE
G92 E0.0
;0.2


G1 E-.8 F2100
G1 Z.2 F720
;AFTER_LAYER_CHANGE
;0.2
; printing object 88.STL id:0 copy 0
G1 Z.4
G1 X108.216 Y122.289 F12000
G1 Z.2 F720
G1 E.8 F1500
M204 P600
;TYPE:Perimeter
;WIDTH:0.499999
G1 F1200
M73 P1 R13
G1 X108.314 Y122.309 E.0038
G1 X145.29 Y121.018 E1.40618
G1 X145.587 Y121.025 E.01129
G1 X146.097 Y121.106 E.01963
G1 X146.565 Y121.323 E.01961
G1 X146.975 Y121.637 E.01963
G1 X147.283 Y122.051 E.01961
G1 X147.494 Y122.522 E.01962
G1 X147.569 Y123.033 E.01963
G1 X147.575 Y123.205 E.00654
G1 X147.48 Y123.712 E.0196
G1 X147.276 Y124.186 E.01961
G1 X146.951 Y124.587 E.01962
G1 X146.546 Y124.907 E.01962
G1 X146.069 Y125.105 E.01963
G1 X145.523 Y125.198 E.02105
G1 X108.156 Y126.503 E1.42105
G1 X107.915 Y126.556 E.00938
G1 X106.997 Y127.198 E.04258
G1 X106.521 Y127.41 E.0198
G1 X106.015 Y127.538 E.01984
G1 X105.496 Y127.58 E.01979
G1 X104.976 Y127.533 E.01984
G1 X104.472 Y127.399 E.01982
G1 X104 Y127.183 E.01973
G1 X103.569 Y126.889 E.01983
G1 X103.193 Y126.526 E.01986
G1 X102.884 Y126.105 E.01985
G1 X102.652 Y125.642 E.01968
G1 X102.501 Y125.142 E.01985
G1 X102.436 Y124.623 E.01988
G1 X102.459 Y124.103 E.01978
G1 X102.57 Y123.594 E.0198
G1 X102.765 Y123.111 E.0198
G1 X103.375 Y122.171 E.04259
G1 X103.419 Y121.929 E.00935
G1 X103.419 Y84.625 E1.41779
G1 X103.451 Y84.157 E.01783
G1 X103.605 Y83.665 E.01959
G1 X103.863 Y83.218 E.01962
G1 X104.233 Y82.858 E.01962
G1 X104.672 Y82.587 E.01961
G1 X105.169 Y82.447 E.01962
G1 X105.684 Y82.419 E.0196
G1 X106.188 Y82.531 E.01962
G1 X106.655 Y82.752 E.01964
G1 X107.044 Y83.091 E.01961
G1 X107.35 Y83.507 E.01963
G1 X107.531 Y83.99 E.0196
G1 X107.605 Y84.539 E.02105
G1 X107.605 Y121.624 E1.40946
G1 X107.635 Y121.826 E.00776
G1 X107.788 Y122.09 E.0116
G1 X108.001 Y122.245 E.01001
G1 X108.157 Y122.277 E.00605
M204 P1000
G1 X108.298 Y121.852 F12000
M204 P600
;TYPE:External perimeter
G1 F1200
G1 X145.274 Y120.561 E1.40618
G1 X145.609 Y120.568 E.01273
G1 X146.23 Y120.667 E.0239
M73 P2 R13
G1 X146.802 Y120.932 E.02396
G1 X147.301 Y121.315 E.02391
G1 X147.678 Y121.819 E.02392
G1 X147.935 Y122.394 E.02394
G1 X148.026 Y123.017 E.02393
G1 X148.033 Y123.227 E.00799
G1 X147.917 Y123.846 E.02394
G1 X147.668 Y124.424 E.02392
G1 X147.272 Y124.913 E.02391
G1 X146.778 Y125.303 E.02392
G1 X146.197 Y125.544 E.02391
G1 X145.558 Y125.654 E.02464
G1 X108.172 Y126.96 E1.42177
G1 X108.037 Y127.01 E.00547
G1 X107.481 Y127.453 E.02702
G1 X106.954 Y127.743 E.02286
G1 X106.387 Y127.94 E.02281
G1 X105.794 Y128.038 E.02284
G1 X105.193 Y128.035 E.02284
G1 X104.602 Y127.931 E.02281
G1 X104.036 Y127.728 E.02285
G1 X103.518 Y127.436 E.0226
G1 X103.047 Y127.054 E.02305
G1 X102.652 Y126.601 E.02284
G1 X102.338 Y126.089 E.02283
G1 X102.118 Y125.536 E.02262
G1 X101.991 Y124.943 E.02305
G1 X101.967 Y124.343 E.02282
G1 X102.045 Y123.747 E.02284
G1 X102.222 Y123.173 E.02283
G1 X102.493 Y122.637 E.02283
G1 X102.917 Y122.065 E.02706
G1 X102.962 Y121.929 E.00544
G1 X102.962 Y84.625 E1.41779
G1 X102.998 Y84.082 E.02068
G1 X103.186 Y83.481 E.02393
G1 X103.501 Y82.936 E.02392
G1 X103.952 Y82.497 E.02392
G1 X104.488 Y82.167 E.02392
G1 X105.094 Y81.996 E.02393
G1 X105.722 Y81.961 E.0239
G1 X106.337 Y82.099 E.02396
G1 X106.906 Y82.368 E.02392
M73 P3 R13
G1 X107.38 Y82.781 E.02389
G1 X107.753 Y83.288 E.02392
G1 X107.974 Y83.878 E.02395
G1 X108.062 Y84.52 E.02463
G1 X108.062 Y121.624 E1.41018
G1 X108.132 Y121.788 E.00678
G1 X108.242 Y121.831 E.00449
M204 P1000
G1 X108.413 Y122.236 F12000
G1 E-.64 F2100
;WIPE_START
G1 F9600
G1 X109.011 Y121.805 E-.16
;WIPE_END
G1 Z.4 F720
G1 X146.069 Y121.317 F12000
G1 Z.2 F720
G1 E.8 F1500
M204 P600
;TYPE:Solid infill
;WIDTH:0.503273
G1 F1200
G1 X146.688 Y121.935 E.03348
G1 X146.859 Y122.14 E.01022
G1 X146.999 Y122.378 E.01057
G1 X147.098 Y122.637 E.01061
G1 X147.153 Y122.908 E.01058
G1 X147.158 Y123.057 E.00571
G1 X145.536 Y121.434 E.08783
G1 X144.894 Y121.443 E.02458
G1 X147.076 Y123.626 E.11815
G1 X146.923 Y123.973 E.01452
G1 X146.86 Y124.06 E.00411
G1 X144.265 Y121.465 E.14048
G1 X143.636 Y121.487 E.02409
G1 X146.55 Y124.401 E.15775
G1 X146.337 Y124.551 E.00997
G1 X146.142 Y124.645 E.00829
G1 X143.007 Y121.509 E.16974
G1 X142.378 Y121.531 E.02409
G1 X145.619 Y124.773 E.17548
G1 X145.492 Y124.788 E.0049
G1 X145 Y124.805 E.01884
G1 X141.749 Y121.553 E.17602
G1 X141.12 Y121.575 E.02409
G1 X144.371 Y124.827 E.17602
G1 X143.742 Y124.849 E.02409
G1 X140.49 Y121.597 E.17604
G1 X139.861 Y121.619 E.02409
G1 X143.113 Y124.871 E.17604
G1 X142.484 Y124.893 E.02409
G1 X139.232 Y121.641 E.17604
G1 X138.603 Y121.663 E.02409
G1 X141.855 Y124.915 E.17604
G1 X141.226 Y124.937 E.02409
G1 X137.974 Y121.685 E.17604
G1 X137.345 Y121.707 E.02409
G1 X140.597 Y124.959 E.17604
G1 X139.968 Y124.981 E.02409
G1 X136.716 Y121.729 E.17604
G1 X136.087 Y121.751 E.02409
G1 X139.339 Y125.003 E.17604
G1 X138.71 Y125.025 E.02409
G1 X135.458 Y121.773 E.17604
G1 X134.829 Y121.795 E.02409
G1 X138.08 Y125.046 E.17599
G1 X137.451 Y125.068 E.02409
G1 X134.2 Y121.817 E.17599
G1 X133.571 Y121.839 E.02409
G1 X136.822 Y125.09 E.17599
G1 X136.193 Y125.112 E.02409
G1 X132.942 Y121.861 E.17599
G1 X132.313 Y121.883 E.02409
G1 X135.564 Y125.134 E.17599
G1 X134.935 Y125.156 E.02409
G1 X131.683 Y121.905 E.17602
G1 X131.054 Y121.927 E.02409
G1 X134.306 Y125.178 E.17602
G1 X133.677 Y125.2 E.02409
G1 X130.425 Y121.949 E.17602
M73 P4 R13
G1 X129.796 Y121.971 E.02409
G1 X133.048 Y125.222 E.17602
G1 X132.419 Y125.244 E.02409
G1 X129.167 Y121.993 E.17602
G1 X128.538 Y122.015 E.02409
G1 X131.79 Y125.266 E.17602
G1 X131.161 Y125.288 E.02409
G1 X127.909 Y122.037 E.17602
G1 X127.28 Y122.058 E.02409
G1 X130.532 Y125.31 E.17604
G1 X129.903 Y125.332 E.02409
G1 X126.651 Y122.08 E.17604
G1 X126.022 Y122.102 E.02409
G1 X129.273 Y125.354 E.17602
G1 X128.644 Y125.376 E.02409
G1 X125.393 Y122.124 E.17602
G1 X124.764 Y122.146 E.02409
G1 X128.015 Y125.398 E.17602
G1 X127.386 Y125.42 E.02409
G1 X124.135 Y122.168 E.17602
G1 X123.506 Y122.19 E.02409
G1 X126.757 Y125.442 E.17602
G1 X126.128 Y125.464 E.02409
G1 X122.877 Y122.212 E.17602
G1 X122.247 Y122.234 E.02413
G1 X125.499 Y125.486 E.17604
G1 X124.87 Y125.508 E.02409
G1 X121.618 Y122.256 E.17604
G1 X120.989 Y122.278 E.02409
G1 X124.241 Y125.53 E.17604
G1 X123.612 Y125.552 E.02409
G1 X120.36 Y122.3 E.17604
G1 X119.731 Y122.322 E.02409
G1 X122.983 Y125.574 E.17604
G1 X122.354 Y125.596 E.02409
G1 X119.102 Y122.344 E.17604
G1 X118.473 Y122.366 E.02409
G1 X121.725 Y125.618 E.17604
G1 X121.096 Y125.64 E.02409
G1 X117.844 Y122.388 E.17604
G1 X117.215 Y122.41 E.02409
G1 X120.466 Y125.662 E.17602
G1 X119.837 Y125.684 E.02409
G1 X116.586 Y122.432 E.17602
G1 X115.957 Y122.454 E.02409
G1 X119.208 Y125.705 E.17599
G1 X118.579 Y125.727 E.02409
G1 X115.328 Y122.476 E.17599
G1 X114.699 Y122.498 E.02409
G1 X117.95 Y125.749 E.17599
G1 X117.321 Y125.771 E.02409
G1 X114.07 Y122.52 E.17599
G1 X113.44 Y122.542 E.02413
G1 X116.692 Y125.793 E.17602
G1 X116.063 Y125.815 E.02409
G1 X112.811 Y122.564 E.17602
G1 X112.182 Y122.586 E.02409
G1 X115.434 Y125.837 E.17602
G1 X114.805 Y125.859 E.02409
M73 P5 R13
G1 X111.553 Y122.608 E.17602
G1 X110.924 Y122.63 E.02409
G1 X114.176 Y125.881 E.17602
G1 X113.547 Y125.903 E.02409
G1 X110.295 Y122.652 E.17602
G1 X109.666 Y122.674 E.02409
G1 X112.918 Y125.925 E.17602
G1 X112.289 Y125.947 E.02409
G1 X108.838 Y122.497 E.18679
M204 P1000
G1 E-.64 F2100
;WIPE_START
G1 F9600
G1 X109.382 Y123.041 E-.16
;WIPE_END
G1 Z.4 F720
G1 X107.399 Y84.6 F12000
G1 Z.2 F720
G1 E.8 F1500
M204 P600
G1 F1200
G1 X105.629 Y82.83 E.09582
G1 X105.373 Y82.83 E.0098
G1 X105.043 Y82.895 E.01287
G1 X107.193 Y85.045 E.11639
G1 X107.193 Y85.696 E.02492
G1 X104.595 Y83.097 E.14067
G1 X104.376 Y83.267 E.01061
G1 X104.25 Y83.404 E.00712
G1 X107.193 Y86.347 E.15932
G1 X107.193 Y86.998 E.02492
G1 X103.995 Y83.799 E.17315
G1 X103.926 Y83.957 E.0066
G1 X103.858 Y84.225 E.01058
G1 X103.851 Y84.307 E.00315
G1 X107.193 Y87.649 E.18092
G1 X107.193 Y88.3 E.02492
G1 X103.83 Y84.937 E.18205
G1 X103.83 Y85.588 E.02492
G1 X107.193 Y88.951 E.18205
G1 X107.193 Y89.602 E.02492
G1 X103.83 Y86.239 E.18205
G1 X103.83 Y86.89 E.02492
G1 X107.193 Y90.253 E.18205
G1 X107.193 Y90.904 E.02492
M73 P5 R12
G1 X103.83 Y87.541 E.18205
G1 X103.83 Y88.192 E.02492
G1 X107.193 Y91.555 E.18205
G1 X107.193 Y92.206 E.02492
G1 X103.83 Y88.843 E.18205
G1 X103.83 Y89.494 E.02492
G1 X107.193 Y92.857 E.18205
G1 X107.193 Y93.508 E.02492
G1 X103.83 Y90.145 E.18205
G1 X103.83 Y90.796 E.02492
G1 X107.193 Y94.159 E.18205
G1 X107.193 Y94.811 E.02496
G1 X103.83 Y91.447 E.18208
G1 X103.83 Y92.098 E.02492
G1 X107.193 Y95.462 E.18208
G1 X107.193 Y96.113 E.02492
G1 X103.83 Y92.749 E.18208
G1 X103.83 Y93.4 E.02492
G1 X107.193 Y96.764 E.18208
G1 X107.193 Y97.415 E.02492
G1 X103.83 Y94.051 E.18208
G1 X103.83 Y94.702 E.02492
G1 X107.193 Y98.066 E.18208
G1 X107.193 Y98.717 E.02492
G1 X103.83 Y95.353 E.18208
G1 X103.83 Y96.005 E.02496
M73 P6 R12
G1 X107.193 Y99.368 E.18205
G1 X107.193 Y100.019 E.02492
G1 X103.83 Y96.656 E.18205
G1 X103.83 Y97.307 E.02492
G1 X107.193 Y100.67 E.18205
G1 X107.193 Y101.321 E.02492
G1 X103.83 Y97.958 E.18205
G1 X103.83 Y98.609 E.02492
G1 X107.193 Y101.972 E.18205
G1 X107.193 Y102.623 E.02492
G1 X103.83 Y99.26 E.18205
G1 X103.83 Y99.911 E.02492
G1 X107.193 Y103.274 E.18205
G1 X107.193 Y103.925 E.02492
G1 X103.83 Y100.562 E.18205
G1 X103.83 Y101.213 E.02492
G1 X107.193 Y104.576 E.18205
G1 X107.193 Y105.227 E.02492
G1 X103.83 Y101.864 E.18205
G1 X103.83 Y102.515 E.02492
G1 X107.193 Y105.878 E.18205
G1 X107.193 Y106.529 E.02492
G1 X103.83 Y103.166 E.18205
G1 X103.83 Y103.817 E.02492
G1 X107.193 Y107.18 E.18205
G1 X107.193 Y107.831 E.02492
G1 X103.83 Y104.468 E.18205
G1 X103.83 Y105.119 E.02492
G1 X107.193 Y108.482 E.18205
G1 X107.193 Y109.133 E.02492
G1 X103.83 Y105.77 E.18205
G1 X103.83 Y106.421 E.02492
G1 X107.193 Y109.784 E.18205
G1 X107.193 Y110.435 E.02492
G1 X103.83 Y107.072 E.18205
G1 X103.83 Y107.723 E.02492
G1 X107.193 Y111.086 E.18205
G1 X107.193 Y111.737 E.02492
G1 X103.83 Y108.374 E.18205
G1 X103.83 Y109.025 E.02492
G1 X107.193 Y112.389 E.18208
G1 X107.193 Y113.04 E.02492
G1 X103.83 Y109.676 E.18208
G1 X103.83 Y110.327 E.02492
G1 X107.193 Y113.691 E.18208
G1 X107.193 Y114.342 E.02492
G1 X103.83 Y110.978 E.18208
G1 X103.83 Y111.629 E.02492
G1 X107.193 Y114.993 E.18208
G1 X107.193 Y115.644 E.02492
G1 X103.83 Y112.28 E.18208
G1 X103.83 Y112.931 E.02492
G1 X107.193 Y116.295 E.18208
G1 X107.193 Y116.946 E.02492
G1 X103.83 Y113.582 E.18208
G1 X103.83 Y114.233 E.02492
G1 X107.193 Y117.597 E.18208
G1 X107.193 Y118.248 E.02492
M73 P7 R12
G1 X103.83 Y114.884 E.18208
G1 X103.83 Y115.535 E.02492
G1 X107.193 Y118.899 E.18208
G1 X107.193 Y119.55 E.02492
G1 X103.83 Y116.186 E.18208
G1 X103.83 Y116.837 E.02492
G1 X107.193 Y120.201 E.18208
G1 X107.193 Y120.852 E.02492
G1 X103.83 Y117.488 E.18208
G1 X103.83 Y118.14 E.02496
G1 X107.193 Y121.503 E.18205
G1 X107.193 Y121.638 E.00517
G1 X107.239 Y121.941 E.01173
G1 X107.314 Y122.127 E.00768
G1 X107.484 Y122.369 E.01132
G1 X107.68 Y122.536 E.00986
G1 X107.827 Y122.619 E.00646
G1 X108.01 Y122.686 E.00746
G1 X108.408 Y122.718 E.01528
G1 X111.66 Y125.969 E.17602
G1 X111.03 Y125.991 E.02413
G1 X103.83 Y118.791 E.38976
G1 X103.83 Y119.442 E.02492
G1 X110.401 Y126.013 E.35571
G1 X109.772 Y126.035 E.02409
G1 X103.83 Y120.093 E.32166
G1 X103.83 Y120.744 E.02492
G1 X109.143 Y126.057 E.28761
G1 X108.514 Y126.079 E.02409
G1 X103.83 Y121.395 E.25356
G1 X103.822 Y122.038 E.02461
G1 X107.911 Y126.127 E.22135
G1 X107.612 Y126.248 E.01235
G1 X107.482 Y126.349 E.0063
G1 X103.652 Y122.519 E.20733
G1 X103.378 Y122.896 E.01784
G1 X107.117 Y126.635 E.20241
G1 X106.998 Y126.728 E.00578
G1 X106.715 Y126.884 E.01237
G1 X103.131 Y123.3 E.19402
G1 X103.03 Y123.499 E.00854
G1 X102.947 Y123.767 E.01074
G1 X106.249 Y127.069 E.17875
G1 X105.698 Y127.169 E.02144
G1 X102.846 Y124.317 E.15439
G1 X102.856 Y124.834 E.01979
G1 X102.895 Y125.017 E.00716
G1 X104.997 Y127.119 E.11379
G1 X104.825 Y127.088 E.00669
G1 X104.399 Y126.936 E.01731
G1 X104.008 Y126.715 E.01719
G1 X103.658 Y126.431 E.01725
G1 X102.877 Y125.65 E.04228
M204 P1000
; stop printing object 88.STL id:0 copy 0
; printing object 168.STL id:1 copy 0
G1 E-.64 F2100
;WIPE_START
G1 F9600
G1 X103.421 Y126.194 E-.16
;WIPE_END
G1 Z.4 F720
G1 X95.15 Y126.264 F12000
G1 Z.2 F720
G1 E.8 F1500
M204 P600
;TYPE:Perimeter
;WIDTH:0.499999
G1 F1200
G1 X95.09 Y126.411 E.00603
G1 X95.098 Y126.654 E.00924
G1 X102.872 Y163.228 E1.4211
G1 X102.914 Y163.78 E.02104
G1 X102.872 Y164.122 E.0131
G1 X102.713 Y164.613 E.01962
G1 X102.425 Y165.042 E.01964
G1 X102.052 Y165.397 E.01957
G1 X101.595 Y165.638 E.01964
G1 X101.097 Y165.773 E.01961
G1 X100.581 Y165.767 E.01961
G1 X100.078 Y165.649 E.01964
M73 P8 R12
G1 X99.627 Y165.398 E.01962
G1 X99.242 Y165.055 E.0196
G1 X98.964 Y164.62 E.01962
G1 X98.778 Y164.098 E.02106
G1 X91.004 Y127.525 E1.42106
G1 X90.912 Y127.3 E.00924
G1 X90.129 Y126.52 E.042
G1 X89.841 Y126.1 E.01936
G1 X89.627 Y125.638 E.01935
G1 X89.491 Y125.148 E.01933
G1 X89.438 Y124.642 E.01934
G1 X89.468 Y124.134 E.01934
G1 X89.583 Y123.638 E.01935
G1 X89.777 Y123.167 E.01936
G1 X90.38 Y122.241 E.042
G1 X90.423 Y122.002 E.00923
G1 X90.423 Y84.698 E1.41779
G1 X90.455 Y84.23 E.01783
G1 X90.609 Y83.737 E.01963
G1 X90.867 Y83.29 E.01962
G1 X91.237 Y82.93 E.01962
G1 X91.677 Y82.66 E.01962
G1 X92.173 Y82.52 E.01959
G1 X92.689 Y82.491 E.01964
G1 X93.192 Y82.604 E.01959
G1 X93.659 Y82.824 E.01962
G1 X94.048 Y83.163 E.01961
G1 X94.354 Y83.579 E.01963
G1 X94.535 Y84.063 E.01964
G1 X94.609 Y84.611 E.02102
G1 X94.609 Y122.002 E1.42109
G1 X94.652 Y122.241 E.00923
