; generated by PrusaSlicer 2.6.1+win64 on 2023-09-27 at 20:25:41 UTC


;
;

;
;

;
;
; 

; external perimeters extrusion width = 0.45mm
; perimeters extrusion width = 0.45mm
; infill extrusion width = 0.45mm
; solid infill extrusion width = 0.45mm
; top infill extrusion width = 0.42mm
; first layer extrusion width = 0.50mm

; external perimeters extrusion width = 0.45mm
; perimeters extrusion width = 0.45mm
; infill extrusion width = 0.45mm
; solid infill extrusion width = 0.45mm
; top infill extrusion width = 0.42mm
; first layer extrusion width = 0.50mm

M73 P0 R13
M201 X2500 Y2500 Z200 E2500 ; sets maximum accelerations, mm/sec^2
M203 X200 Y200 Z40 E100 ; sets maximum feedrates, mm / sec
M204 P2000 R1200 T2000 ; sets acceleration (P, T) and retract acceleration (R), mm/sec^2
M205 X8.00 Y8.00 Z2.00 E10.00 ; sets the jerk limits, mm/sec
M205 S0 T0 ; sets the minimum extruding and travel feed rate, mm/sec
;TYPE:Custom
M17 ; enable steppers
M862.3 P "MK4" ; printer model check
M862.1 P0.4 ; nozzle diameter check
M555 X89.8913 Y72.1586 W57.7312 H81.4032

G90 ; use absolute coordinates
M83 ; extruder relative mode

M140 S60 ; set bed temp

M104 S170 ; set extruder temp for bed leveling
M109 R170 ; wait for temp


M84 E ; turn off E motor

G28 ; home all without mesh bed level

G1 X42 Y-4 Z5 F4800

M302 S160 ; lower cold extrusion limit to 160C


G1 E-2 F2400 ; retraction


M84 E ; turn off E motor

G29 P9 X10 Y-4 W32 H4

M106 S100

G0 Z40 F10000

M190 S60 ; wait for bed temp

M107

;
; MBL
;
M84 E ; turn off E motor
G29 P1 ; invalidate mbl & probe print area
G29 P1 X0 Y0 W50 H20 C ; probe near purge place
G29 P3.2 ; interpolate mbl probes
G29 P3.13 ; extrapolate mbl outside probe area
G29 A ; activate mbl

; prepare for purge
M104 S215
G0 X0 Y-4 Z15 F4800 ; move away and ready for the purge
M109 S215

G92 E0
M569 S0 E ; set spreadcycle mode for extruder

;
; Extrude purge line
;
G92 E0 ; reset extruder position
G1 E2 F2400 ; deretraction after the initial one before nozzle cleaning
G0 E7 X15 Z0.2 F500 ; purge
G0 X25 E4 F500 ; purge
G0 X35 E4 F650 ; purge
G0 X45 E4 F800 ; purge
G0 X48 Z0.05 F8000 ; wipe, move close to the bed
G0 X51 Z0.2 F8000 ; wipe, move quickly away from the bed

G92 E0
M221 S100 ; set flow to 100%
G21 ; set units to millimeters
G90 ; use absolute coordinates
M83 ; use relative distances for extrusion
M900 K0.05 ; Filament gcode



M142 S36 ; set heatbreak target temp
M107
;LAYER_CHANGE
;Z:0.2
;HEIGHT:0.2
;BEFORE_LAYER_CHANGE
G92 E0.0
;0.2


G1 E-.8 F2100
G1 Z.2 F720
;AFTER_LAYER_CHANGE
;0.2
; printing object 107.STL id:0 copy 0
G1 Z.4
G1 X104.151 Y116.944 F12000
G1 Z.2 F720
G1 E.8 F1500
M204 P600
;TYPE:Perimeter
;WIDTH:0.499999
G1 F1200
M73 P1 R13
G1 X104.238 Y116.814 E.00595
G1 X104.281 Y116.576 E.00919
G1 X104.281 Y79.272 E1.41779
G1 X104.313 Y78.804 E.01783
G1 X104.467 Y78.312 E.01959
G1 X104.725 Y77.865 E.01962
G1 X105.095 Y77.505 E.01962
G1 X105.534 Y77.235 E.01959
G1 X106.031 Y77.094 E.01963
G1 X106.546 Y77.066 E.0196
G1 X107.05 Y77.178 E.01962
G1 X107.517 Y77.399 E.01964
G1 X107.906 Y77.738 E.01961
G1 X108.212 Y78.154 E.01963
G1 X108.393 Y78.637 E.0196
G1 X108.467 Y79.186 E.02105
G1 X108.467 Y116.576 E1.42105
G1 X108.553 Y116.908 E.01303
G1 X108.848 Y117.317 E.01917
G1 X109.231 Y117.789 E.0231
G1 X109.446 Y117.899 E.00918
G1 X145.202 Y128.831 E1.42105
G1 X145.705 Y129.062 E.02104
G1 X146.115 Y129.376 E.01963
G1 X146.423 Y129.79 E.01961
G1 X146.633 Y130.262 E.01963
G1 X146.708 Y130.772 E.01959
G1 X146.691 Y131.116 E.01309
G1 X146.567 Y131.617 E.01962
G1 X146.312 Y132.066 E.01962
G1 X145.965 Y132.448 E.01961
G1 X145.527 Y132.721 E.01962
G1 X145.04 Y132.892 E.01962
G1 X144.525 Y132.923 E.01961
G1 X143.978 Y132.834 E.02106
G1 X108.222 Y121.902 E1.42105
G1 X108.1 Y121.876 E.00474
G1 X107.879 Y121.887 E.00841
G1 X107.403 Y122.05 E.01912
G1 X106.898 Y122.182 E.01984
G1 X106.377 Y122.227 E.01987
G1 X105.856 Y122.183 E.01987
G1 X105.351 Y122.052 E.01983
G1 X104.874 Y121.837 E.01989
G1 X104.441 Y121.544 E.01987
M73 P2 R13
G1 X104.064 Y121.183 E.01984
G1 X103.753 Y120.763 E.01986
G1 X103.517 Y120.296 E.01989
G1 X103.364 Y119.796 E.01987
G1 X103.298 Y119.278 E.01985
G1 X103.32 Y118.756 E.01986
G1 X103.431 Y118.245 E.01987
G1 X103.626 Y117.76 E.01987
G1 X104.117 Y116.994 E.03458
M204 P1000
G1 X103.757 Y116.741 F12000
M204 P600
;TYPE:External perimeter
G1 F1200
G1 X103.824 Y116.576 E.00677
G1 X103.824 Y79.272 E1.41779
G1 X103.86 Y78.729 E.02068
G1 X104.048 Y78.128 E.02393
G1 X104.363 Y77.583 E.02392
G1 X104.814 Y77.144 E.02392
G1 X105.35 Y76.815 E.0239
G1 X105.956 Y76.643 E.02394
G1 X106.584 Y76.609 E.0239
G1 X107.199 Y76.746 E.02395
G1 X107.768 Y77.015 E.02392
G1 X108.242 Y77.428 E.02389
G1 X108.615 Y77.935 E.02392
G1 X108.836 Y78.525 E.02395
G1 X108.924 Y79.167 E.02463
G1 X108.924 Y116.576 E1.42178
G1 X108.969 Y116.712 E.00544
G1 X109.461 Y117.377 E.03144
G1 X109.58 Y117.462 E.00556
G1 X145.452 Y128.438 E1.42575
G1 X145.942 Y128.671 E.02062
G1 X146.441 Y129.054 E.02391
G1 X146.817 Y129.559 E.02393
G1 X147.074 Y130.134 E.02394
G1 X147.164 Y130.757 E.02392
G1 X147.144 Y131.176 E.01594
G1 X146.993 Y131.787 E.02392
G1 X146.682 Y132.334 E.02391
G1 X146.259 Y132.8 E.02392
G1 X145.725 Y133.133 E.02392
G1 X145.131 Y133.341 E.02392
G1 X144.502 Y133.38 E.02395
G1 X143.863 Y133.276 E.02461
G1 X108.089 Y122.339 E1.42176
G1 X107.945 Y122.342 E.00547
G1 X107.273 Y122.581 E.02711
G1 X106.679 Y122.684 E.02291
G1 X106.077 Y122.684 E.02288
G1 X105.483 Y122.583 E.0229
G1 X104.915 Y122.383 E.02289
G1 X104.388 Y122.089 E.02294
G1 X103.92 Y121.711 E.02286
G1 X103.521 Y121.259 E.02291
M73 P3 R13
G1 X103.206 Y120.746 E.02288
G1 X102.981 Y120.187 E.0229
G1 X102.854 Y119.598 E.0229
G1 X102.829 Y118.996 E.0229
G1 X102.906 Y118.399 E.02288
G1 X103.082 Y117.823 E.02289
G1 X103.354 Y117.285 E.02291
G1 X103.722 Y116.789 E.02347
M204 P1000
G1 X103.935 Y116.726 F12000
G1 E-.64 F2100
;WIPE_START
G1 F9600
G1 X103.824 Y116.576 E-.04908
G1 X103.824 Y116.042 E-.11092
;WIPE_END
G1 Z.4 F720
G1 X144.895 Y128.952 F12000
G1 Z.2 F720
G1 E.8 F1500
M204 P600
;TYPE:Solid infill
;WIDTH:0.502565
G1 F1200
G1 X146.186 Y130.242 E.06975
G1 X146.237 Y130.376 E.00548
G1 X146.292 Y130.648 E.01061
G1 X146.291 Y130.998 E.01338
G1 X144.269 Y128.976 E.10929
G1 X143.333 Y128.689 E.03742
G1 X146.158 Y131.515 E.15272
G1 X146.06 Y131.712 E.00841
G1 X145.911 Y131.918 E.00972
G1 X142.396 Y128.403 E.18999
G1 X141.46 Y128.117 E.03741
G1 X145.568 Y132.224 E.22201
G1 X145.474 Y132.29 E.00439
G1 X145.13 Y132.437 E.0143
G1 X140.524 Y127.831 E.24896
G1 X139.588 Y127.544 E.03742
G1 X144.556 Y132.513 E.26855
G1 X144.406 Y132.506 E.00574
G1 X144.082 Y132.435 E.01268
G1 X143.717 Y132.324 E.01458
G1 X138.651 Y127.258 E.27382
G1 X137.715 Y126.972 E.03741
G1 X142.78 Y132.037 E.27377
G1 X141.844 Y131.751 E.03741
G1 X136.779 Y126.686 E.27377
G1 X135.842 Y126.399 E.03745
G1 X140.908 Y131.465 E.27382
G1 X139.972 Y131.179 E.03741
G1 X134.906 Y126.113 E.27382
G1 X133.97 Y125.827 E.03741
G1 X139.035 Y130.892 E.27377
G1 X138.099 Y130.606 E.03741
G1 X133.034 Y125.541 E.27377
G1 X132.097 Y125.254 E.03745
G1 X137.163 Y130.32 E.27382
G1 X136.226 Y130.034 E.03744
G1 X131.161 Y124.968 E.27379
G1 X130.225 Y124.682 E.03741
G1 X135.29 Y129.747 E.27377
G1 X134.354 Y129.461 E.03741
G1 X129.288 Y124.396 E.27379
G1 X128.352 Y124.109 E.03742
G1 X133.417 Y129.175 E.27379
G1 X132.481 Y128.889 E.03741
G1 X127.416 Y123.823 E.27379
G1 X126.479 Y123.537 E.03744
M73 P4 R13
G1 X131.545 Y128.602 E.27379
G1 X130.609 Y128.316 E.03741
G1 X125.543 Y123.251 E.27379
G1 X124.607 Y122.964 E.03742
G1 X129.672 Y128.03 E.27379
G1 X128.736 Y127.744 E.03741
G1 X123.671 Y122.678 E.27379
G1 X122.734 Y122.392 E.03744
G1 X127.8 Y127.457 E.27379
G1 X126.863 Y127.171 E.03744
G1 X121.798 Y122.106 E.27377
G1 X120.862 Y121.819 E.03742
G1 X125.927 Y126.885 E.27379
G1 X124.991 Y126.598 E.03742
G1 X119.925 Y121.533 E.27379
G1 X118.989 Y121.247 E.03741
G1 X124.055 Y126.312 E.27379
G1 X123.118 Y126.026 E.03744
G1 X118.053 Y120.961 E.27377
G1 X117.117 Y120.674 E.03742
G1 X122.182 Y125.74 E.27379
G1 X121.246 Y125.453 E.03742
G1 X116.18 Y120.388 E.27379
G1 X115.244 Y120.102 E.03741
G1 X120.309 Y125.167 E.27377
G1 X119.373 Y124.881 E.03741
G1 X114.308 Y119.816 E.27377
G1 X113.371 Y119.529 E.03745
G1 X118.437 Y124.595 E.27382
G1 X117.501 Y124.308 E.03742
G1 X112.435 Y119.243 E.27379
G1 X111.499 Y118.957 E.03741
G1 X116.564 Y124.022 E.27377
G1 X115.628 Y123.736 E.03741
G1 X110.253 Y118.361 E.29052
M204 P1000
G1 E-.64 F2100
;WIPE_START
G1 F9600
G1 X110.797 Y118.905 E-.16
;WIPE_END
M73 P5 R13
G1 Z.4 F720
G1 X108.163 Y78.569 F12000
G1 Z.2 F720
G1 E.8 F1500
M204 P600
G1 F1200
G1 X107.505 Y77.911 E.03557
G1 X107.291 Y77.744 E.01037
G1 X107.048 Y77.613 E.01055
G1 X106.786 Y77.523 E.01059
G1 X106.421 Y77.477 E.01406
G1 X108.047 Y79.103 E.08789
G1 X108.055 Y79.761 E.02515
G1 X105.854 Y77.56 E.11897
G1 X105.7 Y77.613 E.00622
G1 X105.418 Y77.774 E.01241
G1 X108.055 Y80.411 E.14253
G1 X108.055 Y81.061 E.02484
G1 X105.08 Y78.086 E.1608
G1 X104.899 Y78.35 E.01223
G1 X104.836 Y78.493 E.00597
G1 X108.055 Y81.711 E.17396
G1 X108.055 Y82.361 E.02484
G1 X104.708 Y79.014 E.18091
G1 X104.692 Y79.203 E.00725
G1 X104.692 Y79.648 E.01701
G1 X108.055 Y83.012 E.1818
G1 X108.055 Y83.662 E.02484
G1 X104.692 Y80.298 E.1818
G1 X104.692 Y80.948 E.02484
G1 X108.055 Y84.312 E.1818
G1 X108.055 Y84.962 E.02484
G1 X104.692 Y81.599 E.18177
G1 X104.692 Y82.249 E.02484
G1 X108.055 Y85.612 E.18177
G1 X108.055 Y86.262 E.02484
G1 X104.692 Y82.899 E.18177
G1 X104.692 Y83.549 E.02484
G1 X108.055 Y86.912 E.18177
G1 X108.055 Y87.562 E.02484
G1 X104.692 Y84.199 E.18177
G1 X104.692 Y84.849 E.02484
G1 X108.055 Y88.212 E.18177
G1 X108.055 Y88.862 E.02484
M73 P5 R12
G1 X104.692 Y85.499 E.18177
G1 X104.692 Y86.149 E.02484
G1 X108.055 Y89.512 E.18177
G1 X108.055 Y90.162 E.02484
G1 X104.692 Y86.799 E.18177
G1 X104.692 Y87.449 E.02484
G1 X108.055 Y90.812 E.18177
G1 X108.055 Y91.462 E.02484
G1 X104.692 Y88.099 E.18177
G1 X104.692 Y88.749 E.02484
G1 X108.055 Y92.112 E.18177
G1 X108.055 Y92.762 E.02484
G1 X104.692 Y89.399 E.18177
G1 X104.692 Y90.049 E.02484
G1 X108.055 Y93.412 E.18177
G1 X108.055 Y94.062 E.02484
G1 X104.692 Y90.699 E.18177
G1 X104.692 Y91.349 E.02484
G1 X108.055 Y94.712 E.18177
G1 X108.055 Y95.362 E.02484
G1 X104.692 Y91.999 E.18177
G1 X104.692 Y92.649 E.02484
G1 X108.055 Y96.012 E.18177
G1 X108.055 Y96.662 E.02484
G1 X104.692 Y93.299 E.18177
G1 X104.692 Y93.949 E.02484
M73 P6 R12
G1 X108.055 Y97.312 E.18177
G1 X108.055 Y97.962 E.02484
G1 X104.692 Y94.599 E.18177
G1 X104.692 Y95.249 E.02484
G1 X108.055 Y98.612 E.18177
G1 X108.055 Y99.262 E.02484
G1 X104.692 Y95.899 E.18177
G1 X104.692 Y96.549 E.02484
G1 X108.055 Y99.912 E.18177
G1 X108.055 Y100.562 E.02484
G1 X104.692 Y97.199 E.18177
G1 X104.692 Y97.849 E.02484
G1 X108.055 Y101.213 E.1818
G1 X108.055 Y101.863 E.02484
G1 X104.692 Y98.499 E.1818
G1 X104.692 Y99.149 E.02484
G1 X108.055 Y102.513 E.1818
G1 X108.055 Y103.163 E.02484
G1 X104.692 Y99.8 E.18177
G1 X104.692 Y100.45 E.02484
G1 X108.055 Y103.813 E.18177
G1 X108.055 Y104.463 E.02484
G1 X104.692 Y101.1 E.18177
G1 X104.692 Y101.75 E.02484
G1 X108.055 Y105.113 E.18177
G1 X108.055 Y105.763 E.02484
G1 X104.692 Y102.4 E.18177
G1 X104.692 Y103.05 E.02484
G1 X108.055 Y106.413 E.18177
G1 X108.055 Y107.063 E.02484
G1 X104.692 Y103.7 E.18177
G1 X104.692 Y104.35 E.02484
G1 X108.055 Y107.713 E.18177
G1 X108.055 Y108.363 E.02484
G1 X104.692 Y105 E.18177
G1 X104.692 Y105.65 E.02484
G1 X108.055 Y109.013 E.18177
G1 X108.055 Y109.663 E.02484
G1 X104.692 Y106.3 E.18177
G1 X104.692 Y106.95 E.02484
G1 X108.055 Y110.313 E.18177
G1 X108.055 Y110.963 E.02484
G1 X104.692 Y107.6 E.18177
G1 X104.692 Y108.25 E.02484
G1 X108.055 Y111.613 E.18177
G1 X108.055 Y112.263 E.02484
G1 X104.692 Y108.9 E.18177
G1 X104.692 Y109.55 E.02484
G1 X108.055 Y112.913 E.18177
G1 X108.055 Y113.563 E.02484
G1 X104.692 Y110.2 E.18177
G1 X104.692 Y110.85 E.02484
G1 X108.055 Y114.213 E.18177
G1 X108.055 Y114.863 E.02484
G1 X104.692 Y111.5 E.18177
G1 X104.692 Y112.15 E.02484
M73 P7 R12
G1 X108.055 Y115.513 E.18177
G1 X108.055 Y116.163 E.02484
G1 X104.692 Y112.8 E.18177
G1 X104.692 Y113.45 E.02484
G1 X108.094 Y116.852 E.18388
G1 X108.124 Y116.961 E.00432
G1 X108.263 Y117.218 E.01117
G1 X108.858 Y118.009 E.03783
G1 X109.134 Y118.215 E.01316
G1 X109.626 Y118.384 E.01988
G1 X114.692 Y123.45 E.27382
G1 X113.755 Y123.163 E.03745
G1 X104.692 Y114.1 E.48986
G1 X104.692 Y114.75 E.02484
G1 X112.819 Y122.877 E.43927
G1 X111.883 Y122.591 E.03741
G1 X104.692 Y115.4 E.38868
G1 X104.692 Y116.05 E.02484
G1 X110.947 Y122.305 E.33809
G1 X110.01 Y122.018 E.03745
G1 X104.683 Y116.691 E.28793
G1 X104.674 Y116.782 E.00349
G1 X104.558 Y117.106 E.01315
G1 X104.511 Y117.17 E.00303
G1 X109.074 Y121.732 E.24661
G1 X108.334 Y121.506 E.02957
G1 X108.162 Y121.47 E.00672
G1 X104.238 Y117.546 E.2121
G1 X104.096 Y117.742 E.00925
G1 X103.991 Y117.95 E.00891
G1 X107.594 Y121.552 E.19472
G1 X107.11 Y121.718 E.01956
G1 X103.808 Y118.417 E.17845
G1 X103.757 Y118.583 E.00664
G1 X103.708 Y118.967 E.0148
G1 X106.557 Y121.815 E.15396
G1 X106.15 Y121.816 E.01556
G1 X105.857 Y121.766 E.01136
G1 X103.757 Y119.665 E.11353
G1 X103.814 Y119.932 E.01043
G1 X103.984 Y120.354 E.01739
G1 X104.222 Y120.741 E.01736
G1 X104.517 Y121.076 E.01706
G1 X105.234 Y121.793 E.03875
M204 P1000
; stop printing object 107.STL id:0 copy 0
; printing object 140.STL id:1 copy 0
G1 E-.64 F2100
;WIPE_START
G1 F9600
G1 X104.69 Y121.249 E-.16
;WIPE_END
G1 Z.4 F720
G1 X91.641 Y117.748 F12000
G1 Z.2 F720
G1 E.8 F1500
M204 P600
;TYPE:Perimeter
;WIDTH:0.499999
G1 F1200
G1 X91.747 Y117.59 E.00723
G1 X91.79 Y117.351 E.00923
G1 X91.79 Y80.047 E1.41779
G1 X91.822 Y79.579 E.01783
G1 X91.976 Y79.087 E.01959
G1 X92.234 Y78.64 E.01962
G1 X92.604 Y78.28 E.01962
G1 X93.044 Y78.009 E.01964
G1 X93.541 Y77.869 E.01962
G1 X94.056 Y77.84 E.0196
G1 X94.56 Y77.953 E.01963
G1 X95.026 Y78.174 E.0196
M73 P8 R12
G1 X95.416 Y78.513 E.01964
G1 X95.721 Y78.929 E.0196
G1 X95.902 Y79.412 E.0196
G1 X95.976 Y79.961 E.02105
G1 X95.988 Y117.477 E1.42584
G1 X96.115 Y117.766 E.012
G1 X96.59 Y118.45 E.03165
G1 X96.858 Y119.086 E.02623
G1 X96.961 Y119.769 E.02625
G1 X97.019 Y120.337 E.0217
G1 X97.139 Y120.548 E.00923
G1 X121.174 Y149.191 E1.4211
G1 X121.47 Y149.659 E.02105
G1 X121.642 Y150.145 E.01959
G1 X121.675 Y150.661 E.01965
G1 X121.631 Y151.002 E.01307
G1 X121.468 Y151.491 E.01959
G1 X121.178 Y151.918 E.01962
G1 X120.801 Y152.271 E.01963
G1 X120.343 Y152.509 E.01962
G1 X119.844 Y152.64 E.01961
G1 X119.328 Y152.63 E.01961
G1 X118.826 Y152.508 E.01963
G1 X118.377 Y152.254 E.01961
G1 X117.967 Y151.882 E.02104
G1 X93.933 Y123.239 E1.42108
G1 X93.747 Y123.083 E.00923
G1 X92.692 Y122.763 E.0419
G1 X92.242 Y122.529 E.01928
G1 X91.836 Y122.224 E.0193
G1 X91.487 Y121.857 E.01925
G1 X91.202 Y121.437 E.01929
G1 X90.99 Y120.976 E.01928
G1 X90.856 Y120.486 E.01931
G1 X90.805 Y119.984 E.01918
G1 X90.837 Y119.477 E.01931
G1 X90.952 Y118.981 E.01935
G1 X91.146 Y118.513 E.01925
G1 X91.607 Y117.797 E.03237
M204 P1000
G1 X91.249 Y117.539 F12000
M204 P600
;TYPE:External perimeter
G1 F1200
G1 X91.333 Y117.351 E.00783
G1 X91.333 Y80.047 E1.41779
G1 X91.37 Y79.504 E.02069
G1 X91.557 Y78.903 E.02392
G1 X91.872 Y78.358 E.02392
G1 X92.323 Y77.919 E.02392
G1 X92.86 Y77.589 E.02396
G1 X93.465 Y77.418 E.02389
G1 X94.094 Y77.383 E.02394
G1 X94.708 Y77.521 E.02392
G1 X95.277 Y77.79 E.02392
M73 P9 R12
G1 X95.752 Y78.203 E.02392
G1 X96.125 Y78.71 E.02392
G1 X96.345 Y79.3 E.02393
G1 X96.433 Y79.942 E.02463
G1 X96.433 Y117.351 E1.42178
G1 X96.479 Y117.488 E.00549
G1 X96.865 Y117.998 E.02431
G1 X97.118 Y118.464 E.02015
G1 X97.299 Y118.962 E.02014
G1 X97.404 Y119.481 E.02012
G1 X97.436 Y120.118 E.02424
G1 X97.49 Y120.254 E.00556
G1 X121.597 Y148.998 E1.4258
G1 X121.882 Y149.46 E.02063
G1 X122.091 Y150.053 E.0239
G1 X122.132 Y150.682 E.02396
G1 X122.078 Y151.098 E.01594
G1 X121.879 Y151.695 E.02392
G1 X121.525 Y152.215 E.02391
G1 X121.066 Y152.646 E.02393
G1 X120.507 Y152.935 E.02392
G1 X119.898 Y153.095 E.02393
G1 X119.269 Y153.084 E.02391
