; generated by PrusaSlicer 2.6.1+win64 on 2023-09-27 at 20:28:08 UTC


;
;

;
;

;
;
; 

; external perimeters extrusion width = 0.45mm
; perimeters extrusion width = 0.45mm
; infill extrusion width = 0.45mm
; solid infill extrusion width = 0.45mm
; top infill extrusion width = 0.42mm
; first layer extrusion width = 0.50mm

; external perimeters extrusion width = 0.45mm
; perimeters extrusion width = 0.45mm
; infill extrusion width = 0.45mm
; solid infill extrusion width = 0.45mm
; top infill extrusion width = 0.42mm
; first layer extrusion width = 0.50mm

; external perimeters extrusion width = 0.45mm
; perimeters extrusion width = 0.45mm
; infill extrusion width = 0.45mm
; solid infill extrusion width = 0.45mm
; top infill extrusion width = 0.42mm
; first layer extrusion width = 0.50mm

M73 P0 R20
M201 X2500 Y2500 Z200 E2500 ; sets maximum accelerations, mm/sec^2
M203 X200 Y200 Z40 E100 ; sets maximum feedrates, mm / sec
M204 P2000 R1200 T2000 ; sets acceleration (P, T) and retract acceleration (R), mm/sec^2
M205 X8.00 Y8.00 Z2.00 E10.00 ; sets the jerk limits, mm/sec
M205 S0 T0 ; sets the minimum extruding and travel feed rate, mm/sec
;TYPE:Custom
M17 ; enable steppers
M862.3 P "MK4" ; printer model check
M862.1 P0.4 ; nozzle diameter check
M555 X82.6889 Y72.833 W65.1281 H91.5421

G90 ; use absolute coordinates
M83 ; extruder relative mode

M140 S60 ; set bed temp

M104 S170 ; set extruder temp for bed leveling
M109 R170 ; wait for temp


M84 E ; turn off E motor

G28 ; home all without mesh bed level

G1 X42 Y-4 Z5 F4800

M302 S160 ; lower cold extrusion limit to 160C


G1 E-2 F2400 ; retraction


M84 E ; turn off E motor

G29 P9 X10 Y-4 W32 H4

M106 S100

G0 Z40 F10000

M190 S60 ; wait for bed temp

M107

;
; MBL
;
M84 E ; turn off E motor
G29 P1 ; invalidate mbl & probe print area
G29 P1 X0 Y0 W50 H20 C ; probe near purge place
G29 P3.2 ; interpolate mbl probes
G29 P3.13 ; extrapolate mbl outside probe area
G29 A ; activate mbl

; prepare for purge
M104 S215
G0 X0 Y-4 Z15 F4800 ; move away and ready for the purge
M109 S215

G92 E0
M569 S0 E ; set spreadcycle mode for extruder

;
; Extrude purge line
;
G92 E0 ; reset extruder position
G1 E2 F2400 ; deretraction after the initial one before nozzle cleaning
G0 E7 X15 Z0.2 F500 ; purge
G0 X25 E4 F500 ; purge
G0 X35 E4 F650 ; purge
G0 X45 E4 F800 ; purge
G0 X48 Z0.05 F8000 ; wipe, move close to the bed
G0 X51 Z0.2 F8000 ; wipe, move quickly away from the bed

G92 E0
M221 S100 ; set flow to 100%
G21 ; set units to millimeters
G90 ; use absolute coordinates
M83 ; use relative distances for extrusion
M900 K0.05 ; Filament gcode



M142 S36 ; set heatbreak target temp
M107
;LAYER_CHANGE
;Z:0.2
;HEIGHT:0.2
;BEFORE_LAYER_CHANGE
G92 E0.0
;0.2


G1 E-.8 F2100
G1 Z.2 F720
;AFTER_LAYER_CHANGE
;0.2
; printing object 142.STL id:2 copy 0
G1 Z.4
G1 X89.787 Y130.229 F12000
G1 Z.2 F720
G1 E.8 F1500
M204 P600
;TYPE:Perimeter
;WIDTH:0.499999
G1 F1200
G1 X89.797 Y130.387 E.00602
G1 X89.911 Y130.603 E.00928
G1 X112.931 Y160.067 E1.42107
G1 X113.21 Y160.545 E.02104
G1 X113.365 Y161.037 E.01961
G1 X113.38 Y161.553 E.01962
G1 X113.324 Y161.892 E.01306
G1 X113.144 Y162.376 E.01963
G1 X112.839 Y162.793 E.01964
G1 X112.451 Y163.132 E.01958
G1 X111.984 Y163.353 E.01964
G1 X111.481 Y163.467 E.0196
G1 X110.965 Y163.44 E.01964
G1 X110.469 Y163.3 E.01959
G1 X110.028 Y163.031 E.01963
G1 X109.632 Y162.644 E.02104
G1 X86.612 Y133.18 E1.42107
G1 X86.43 Y133.017 E.00929
G1 X85.399 Y132.666 E.04139
G1 X84.964 Y132.423 E.01894
G1 X84.573 Y132.112 E.01899
G1 X84.238 Y131.743 E.01894
G1 X83.966 Y131.324 E.01899
G1 X83.766 Y130.867 E.01896
G1 X83.642 Y130.384 E.01895
G1 X83.598 Y129.887 E.01896
M73 P1 R20
G1 X83.635 Y129.389 E.01898
G1 X83.752 Y128.904 E.01896
G1 X83.945 Y128.444 E.01896
G1 X84.542 Y127.532 E.04143
G1 X84.585 Y127.292 E.00927
G1 X84.585 Y89.989 E1.41775
G1 X84.617 Y89.52 E.01787
G1 X84.771 Y89.028 E.01959
G1 X85.029 Y88.581 E.01962
G1 X85.399 Y88.221 E.01962
G1 X85.839 Y87.951 E.01962
G1 X86.335 Y87.81 E.0196
G1 X86.851 Y87.782 E.01964
G1 X87.354 Y87.895 E.01959
G1 X87.821 Y88.115 E.01962
G1 X88.21 Y88.454 E.01961
G1 X88.516 Y88.87 E.01963
G1 X88.697 Y89.353 E.0196
G1 X88.771 Y89.902 E.02105
G1 X88.771 Y127.292 E1.42105
G1 X88.814 Y127.532 E.00927
G1 X89.399 Y128.42 E.04041
G1 X89.591 Y128.861 E.01828
G1 X89.712 Y129.328 E.01834
G1 X89.782 Y130.169 E.03207
M204 P1000
G1 X90.222 Y130.149 F12000
M204 P600
;TYPE:External perimeter
G1 F1200
G1 X90.271 Y130.321 E.0068
G1 X113.36 Y159.888 E1.42577
G1 X113.628 Y160.36 E.02063
G1 X113.817 Y160.961 E.02394
G1 X113.836 Y161.59 E.02392
G1 X113.768 Y162.004 E.01595
G1 X113.548 Y162.594 E.02393
G1 X113.176 Y163.102 E.02393
G1 X112.702 Y163.516 E.02392
G1 X112.134 Y163.785 E.02389
G1 X111.52 Y163.924 E.02393
G1 X110.891 Y163.891 E.02394
G1 X110.285 Y163.721 E.02392
G1 X109.748 Y163.392 E.02394
G1 X109.284 Y162.94 E.02462
G1 X86.252 Y133.461 E1.4218
G1 X86.132 Y133.381 E.00548
G1 X85.471 Y133.201 E.02604
G1 X84.948 Y132.963 E.02184
G1 X84.47 Y132.643 E.02186
G1 X84.051 Y132.25 E.02183
G1 X83.7 Y131.794 E.02187
G1 X83.427 Y131.288 E.02185
G1 X83.24 Y130.744 E.02186
G1 X83.143 Y130.177 E.02186
G1 X83.139 Y129.602 E.02185
G1 X83.228 Y129.034 E.02185
G1 X83.407 Y128.488 E.02184
G1 X83.673 Y127.978 E.02186
G1 X84.076 Y127.437 E.02564
G1 X84.128 Y127.292 E.00585
G1 X84.128 Y89.989 E1.41775
G1 X84.164 Y89.445 E.02072
G1 X84.352 Y88.844 E.02393
G1 X84.667 Y88.299 E.02392
G1 X85.118 Y87.86 E.02392
G1 X85.654 Y87.531 E.0239
G1 X86.26 Y87.359 E.02394
G1 X86.888 Y87.325 E.0239
G1 X87.503 Y87.462 E.02395
G1 X88.072 Y87.731 E.02392
G1 X88.547 Y88.144 E.02392
G1 X88.919 Y88.652 E.02393
G1 X89.14 Y89.241 E.02391
M73 P2 R20
G1 X89.228 Y89.883 E.02463
G1 X89.228 Y127.292 E1.42178
G1 X89.273 Y127.429 E.00548
G1 X89.673 Y127.961 E.0253
G1 X89.933 Y128.45 E.02105
G1 X90.113 Y128.975 E.02109
G1 X90.21 Y129.521 E.02108
G1 X90.221 Y130.089 E.02159
M204 P1000
G1 X90.089 Y130.269 F12000
G1 E-.64 F2100
;WIPE_START
G1 F9600
G1 X90.271 Y130.321 E-.04932
G1 X90.599 Y130.741 E-.11068
;WIPE_END
G1 Z.4 F720
G1 X87.26 Y88.08 F12000
G1 Z.2 F720
G1 E.8 F1500
M204 P600
;TYPE:Solid infill
;WIDTH:0.505024
G1 F1200
G1 X88.001 Y88.834 E.04062
G1 X88.153 Y89.066 E.01066
G1 X88.264 Y89.32 E.01065
G1 X88.332 Y89.588 E.01062
G1 X88.352 Y89.825 E.00914
G1 X86.72 Y88.193 E.08868
G1 X86.54 Y88.193 E.00692
G1 X86.266 Y88.239 E.01068
G1 X86.152 Y88.278 E.00463
G1 X88.36 Y90.486 E.11998
G1 X88.36 Y91.14 E.02513
G1 X85.716 Y88.496 E.14367
G1 X85.542 Y88.631 E.00846
G1 X85.377 Y88.81 E.00935
G1 X88.36 Y91.793 E.1621
G1 X88.36 Y92.447 E.02513
G1 X85.135 Y89.222 E.17525
G1 X85.092 Y89.32 E.00411
G1 X85.024 Y89.588 E.01062
G1 X85.01 Y89.751 E.00629
G1 X88.36 Y93.1 E.18201
G1 X88.36 Y93.754 E.02513
G1 X84.996 Y90.391 E.18277
G1 X84.996 Y91.044 E.02509
G1 X88.36 Y94.407 E.18277
G1 X88.36 Y95.061 E.02513
G1 X84.996 Y91.698 E.18277
G1 X84.996 Y92.351 E.02509
G1 X88.36 Y95.714 E.18277
G1 X88.36 Y96.368 E.02513
G1 X84.996 Y93.005 E.18277
G1 X84.996 Y93.658 E.02509
G1 X88.36 Y97.021 E.18277
G1 X88.36 Y97.675 E.02513
G1 X84.996 Y94.312 E.18277
G1 X84.996 Y94.965 E.02509
G1 X88.36 Y98.328 E.18277
G1 X88.36 Y98.982 E.02513
G1 X84.996 Y95.619 E.18277
G1 X84.996 Y96.272 E.02509
G1 X88.36 Y99.635 E.18277
G1 X88.36 Y100.289 E.02513
G1 X84.996 Y96.926 E.18277
G1 X84.996 Y97.579 E.02509
G1 X88.36 Y100.942 E.18277
G1 X88.36 Y101.596 E.02513
G1 X84.996 Y98.233 E.18277
G1 X84.996 Y98.886 E.02509
G1 X88.36 Y102.249 E.18277
G1 X88.36 Y102.903 E.02513
G1 X84.996 Y99.54 E.18277
G1 X84.996 Y100.193 E.02509
G1 X88.36 Y103.556 E.18277
G1 X88.36 Y104.21 E.02513
G1 X84.996 Y100.847 E.18277
G1 X84.996 Y101.5 E.02509
G1 X88.36 Y104.863 E.18277
G1 X88.36 Y105.517 E.02513
G1 X84.996 Y102.154 E.18277
G1 X84.996 Y102.807 E.02509
G1 X88.36 Y106.17 E.18277
G1 X88.36 Y106.824 E.02513
G1 X84.996 Y103.461 E.18277
G1 X84.996 Y104.114 E.02509
G1 X88.36 Y107.478 E.1828
G1 X88.36 Y108.131 E.02509
G1 X84.996 Y104.768 E.18277
G1 X84.996 Y105.421 E.02509
G1 X88.36 Y108.785 E.1828
G1 X88.36 Y109.438 E.02509
G1 X84.996 Y106.075 E.18277
G1 X84.996 Y106.728 E.02509
G1 X88.36 Y110.092 E.1828
G1 X88.36 Y110.745 E.02509
G1 X84.996 Y107.382 E.18277
G1 X84.996 Y108.035 E.02509
G1 X88.36 Y111.399 E.1828
G1 X88.36 Y112.052 E.02509
G1 X84.996 Y108.689 E.18277
G1 X84.996 Y109.343 E.02513
G1 X88.36 Y112.706 E.18277
G1 X88.36 Y113.359 E.02509
G1 X84.996 Y109.996 E.18277
G1 X84.996 Y110.65 E.02513
G1 X88.36 Y114.013 E.18277
G1 X88.36 Y114.666 E.02509
M73 P3 R20
G1 X84.996 Y111.303 E.18277
G1 X84.996 Y111.957 E.02513
G1 X88.36 Y115.32 E.18277
G1 X88.36 Y115.973 E.02509
G1 X84.996 Y112.61 E.18277
G1 X84.996 Y113.264 E.02513
G1 X88.36 Y116.627 E.18277
G1 X88.36 Y117.28 E.02509
G1 X84.996 Y113.917 E.18277
G1 X84.996 Y114.571 E.02513
G1 X88.36 Y117.934 E.18277
G1 X88.36 Y118.587 E.02509
G1 X84.996 Y115.224 E.18277
G1 X84.996 Y115.878 E.02513
G1 X88.36 Y119.241 E.18277
G1 X88.36 Y119.894 E.02509
G1 X84.996 Y116.531 E.18277
G1 X84.996 Y117.185 E.02513
G1 X88.36 Y120.548 E.18277
G1 X88.36 Y121.201 E.02509
M73 P3 R19
G1 X84.996 Y117.838 E.18277
G1 X84.996 Y118.492 E.02513
G1 X88.36 Y121.855 E.18277
G1 X88.36 Y122.508 E.02509
G1 X84.996 Y119.145 E.18277
G1 X84.996 Y119.799 E.02513
G1 X88.36 Y123.162 E.18277
G1 X88.36 Y123.815 E.02509
G1 X84.996 Y120.452 E.18277
G1 X84.996 Y121.106 E.02513
G1 X88.36 Y124.469 E.18277
G1 X88.36 Y125.122 E.02509
G1 X84.996 Y121.759 E.18277
G1 X84.996 Y122.413 E.02513
G1 X88.36 Y125.776 E.18277
G1 X88.36 Y126.429 E.02509
G1 X84.996 Y123.066 E.18277
G1 X84.996 Y123.72 E.02513
G1 X88.36 Y127.083 E.18277
G1 X88.377 Y127.494 E.01581
G1 X88.43 Y127.682 E.00751
G1 X88.594 Y127.971 E.01277
G1 X84.996 Y124.373 E.19551
G1 X84.996 Y125.027 E.02513
G1 X89.293 Y129.323 E.23347
G1 X89.343 Y129.606 E.01104
G1 X89.356 Y130.04 E.01668
G1 X84.996 Y125.68 E.23692
G1 X84.996 Y126.334 E.02513
G1 X89.83 Y131.167 E.26265
G1 X92.164 Y134.155 E.14569
G1 X84.996 Y126.987 E.38951
G1 X84.996 Y127.301 E.01207
G1 X84.978 Y127.5 E.00768
G1 X84.946 Y127.59 E.00367
G1 X94.499 Y137.143 E.51911
G1 X96.833 Y140.131 E.14569
G1 X84.72 Y128.018 E.65822
G1 X84.444 Y128.395 E.01795
G1 X99.168 Y143.119 E.8001
G1 X101.502 Y146.107 E.14569
G1 X84.214 Y128.819 E.93943
G1 X84.062 Y129.321 E.02015
G1 X103.836 Y149.095 E1.07452
G1 X106.171 Y152.083 E.14571
G1 X84.01 Y129.922 E1.20423
G1 X84.011 Y130.101 E.00688
G1 X84.084 Y130.528 E.01665
G1 X84.148 Y130.714 E.00756
G1 X85.836 Y132.402 E.09173
G1 X86.5 Y132.59 E.02652
M73 P4 R19
G1 X86.794 Y132.774 E.01333
G1 X86.931 Y132.92 E.00769
G1 X88.992 Y135.558 E.12863
G1 X108.505 Y155.071 E1.06033
G1 X110.84 Y158.059 E.14571
G1 X91.327 Y138.546 E1.06033
G1 X93.661 Y141.534 E.14569
G1 X112.83 Y160.703 E1.04164
G1 X112.89 Y160.837 E.00564
G1 X112.958 Y161.106 E.01066
G1 X112.982 Y161.382 E.01065
G1 X112.972 Y161.498 E.00447
G1 X95.996 Y144.522 E.92247
G1 X98.33 Y147.51 E.14569
G1 X112.848 Y162.027 E.78888
G1 X112.781 Y162.18 E.00642
G1 X112.606 Y162.439 E.01201
G1 X100.664 Y150.498 E.6489
G1 X102.999 Y153.486 E.14571
G1 X112.267 Y162.754 E.50362
G1 X111.981 Y162.919 E.01269
G1 X111.831 Y162.971 E.0061
G1 X105.333 Y156.474 E.35307
G1 X107.668 Y159.461 E.14568
G1 X111.263 Y163.056 E.19535
G1 X110.896 Y163.011 E.01421
G1 X110.634 Y162.922 E.01063
M73 P5 R19
G1 X110.39 Y162.791 E.01064
G1 X110.183 Y162.63 E.01008
G1 X108.809 Y161.256 E.07466
M204 P1000
; stop printing object 142.STL id:2 copy 0
; printing object 108.STL id:0 copy 0
G1 E-.64 F2100
;WIPE_START
G1 F9600
G1 X109.353 Y161.8 E-.16
;WIPE_END
G1 Z.4 F720
G1 X99.886 Y125.282 F12000
G1 Z.2 F720
G1 E.8 F1500
M204 P600
;TYPE:Perimeter
;WIDTH:0.499999
G1 F1200
G1 X99.998 Y125.424 E.00687
G1 X100.208 Y125.536 E.00905
G1 X135.772 Y137.09 E1.4212
G1 X136.271 Y137.33 E.02104
G1 X136.675 Y137.652 E.01963
G1 X136.975 Y138.069 E.01952
G1 X137.178 Y138.544 E.01963
G1 X137.244 Y139.058 E.0197
G1 X137.222 Y139.397 E.01291
G1 X137.089 Y139.899 E.01974
G1 X136.826 Y140.344 E.01965
G1 X136.472 Y140.72 E.01963
G1 X136.028 Y140.986 E.01967
G1 X135.539 Y141.148 E.01958
G1 X135.021 Y141.171 E.01971
G1 X134.48 Y141.071 E.02091
G1 X98.919 Y129.518 E1.42108
G1 X98.798 Y129.49 E.00472
G1 X98.58 Y129.496 E.00829
G1 X98.098 Y129.65 E.01923
G1 X97.591 Y129.773 E.01983
G1 X97.073 Y129.81 E.01974
G1 X96.561 Y129.76 E.01955
G1 X96.053 Y129.619 E.02004
G1 X95.593 Y129.405 E.01928
G1 X95.157 Y129.104 E.02014
G1 X94.793 Y128.748 E.01935
G1 X94.482 Y128.32 E.02011
G1 X94.254 Y127.857 E.01961
G1 X94.106 Y127.362 E.01964
G1 X94.043 Y126.842 E.01991
G1 X94.068 Y126.328 E.01956
G1 X94.18 Y125.816 E.01992
G1 X94.373 Y125.339 E.01956
G1 X94.984 Y124.393 E.0428
G1 X95.026 Y124.159 E.00904
G1 X95.026 Y86.858 E1.41767
G1 X95.058 Y86.388 E.0179
G1 X95.211 Y85.898 E.01951
G1 X95.47 Y85.448 E.01973
G1 X95.842 Y85.087 E.0197
G1 X96.281 Y84.818 E.01957
G1 X96.779 Y84.677 E.01967
G1 X97.293 Y84.65 E.01956
G1 X97.8 Y84.763 E.01974
G1 X98.262 Y84.983 E.01945
G1 X98.65 Y85.32 E.01953
G1 X98.956 Y85.736 E.01963
G1 X99.138 Y86.219 E.01962
G1 X99.212 Y86.767 E.02102
G1 X99.212 Y124.158 E1.42109
G1 X99.214 Y124.222 E.00243
G1 X99.295 Y124.49 E.01064
G1 X99.848 Y125.235 E.03526
M204 P1000
G1 X100.201 Y124.97 F12000
M204 P600
;TYPE:External perimeter
G1 F1200
G1 X100.35 Y125.101 E.00754
G1 X136.034 Y136.704 E1.42611
G1 X136.514 Y136.943 E.02038
G1 X137.007 Y137.336 E.02396
G1 X137.373 Y137.843 E.02377
G1 X137.621 Y138.425 E.02404
G1 X137.701 Y139.051 E.02399
G1 X137.674 Y139.464 E.01573
G1 X137.512 Y140.076 E.02406
G1 X137.192 Y140.619 E.02395
G1 X136.759 Y141.077 E.02395
M73 P6 R19
G1 X136.218 Y141.402 E.02399
G1 X135.622 Y141.599 E.02386
G1 X134.99 Y141.627 E.02404
G1 X134.356 Y141.511 E.0245
G1 X98.778 Y129.952 E1.42176
G1 X98.636 Y129.952 E.0054
G1 X97.962 Y130.178 E.02702
G1 X97.37 Y130.27 E.02277
G1 X96.77 Y130.263 E.02281
G1 X96.184 Y130.155 E.02265
G1 X95.621 Y129.947 E.02281
G1 X95.101 Y129.651 E.02274
G1 X94.64 Y129.27 E.02273
G1 X94.248 Y128.817 E.02277
G1 X93.939 Y128.305 E.02273
G1 X93.719 Y127.747 E.0228
G1 X93.597 Y127.162 E.02271
G1 X93.576 Y126.564 E.02274
G1 X93.654 Y125.971 E.02273
G1 X93.831 Y125.398 E.02279
G1 X94.101 Y124.864 E.02274
G1 X94.524 Y124.294 E.02698
G1 X94.569 Y124.158 E.00544
G1 X94.569 Y86.858 E1.41763
G1 X94.606 Y86.312 E.0208
G1 X94.792 Y85.715 E.02377
G1 X95.109 Y85.166 E.02409
G1 X95.561 Y84.726 E.02397
G1 X96.097 Y84.398 E.02388
G1 X96.705 Y84.226 E.02401
G1 X97.33 Y84.193 E.02379
G1 X97.949 Y84.331 E.0241
G1 X98.513 Y84.599 E.02373
G1 X98.986 Y85.01 E.02382
G1 X99.36 Y85.518 E.02398
G1 X99.581 Y86.106 E.02387
G1 X99.669 Y86.749 E.02467
G1 X99.669 Y124.158 E1.42178
G1 X99.712 Y124.296 E.00549
G1 X100.165 Y124.921 E.02934
M204 P1000
G1 X100.144 Y125.16 F12000
G1 E-.64 F2100
;WIPE_START
G1 F9600
G1 X100.35 Y125.101 E-.05364
G1 X100.837 Y125.259 E-.10636
;WIPE_END
G1 Z.4 F720
G1 X134.793 Y136.988 F12000
G1 Z.2 F720
G1 E.8 F1500
M204 P600
;TYPE:Solid infill
;WIDTH:0.502561
G1 F1200
G1 X136.832 Y139.027 E.11021
G1 X136.835 Y139.205 E.0068
G1 X136.795 Y139.477 E.01051
G1 X136.755 Y139.6 E.00494
G1 X134.15 Y136.995 E.1408
G1 X133.187 Y136.682 E.0387
G1 X136.542 Y140.037 E.18134
G1 X136.415 Y140.206 E.00808
G1 X136.234 Y140.379 E.00957
G1 X132.224 Y136.37 E.21671
G1 X131.262 Y136.057 E.03866
G1 X135.829 Y140.625 E.24687
G1 X135.732 Y140.669 E.00407
G1 X135.464 Y140.742 E.01062
G1 X135.312 Y140.757 E.00584
G1 X130.299 Y135.744 E.27095
G1 X129.336 Y135.431 E.0387
G1 X134.573 Y140.669 E.28309
G1 X133.61 Y140.356 E.0387
G1 X128.373 Y135.118 E.28309
G1 X127.41 Y134.806 E.03869
G1 X132.647 Y140.043 E.28306
G1 X131.685 Y139.73 E.03866
G1 X126.447 Y134.493 E.28309
G1 X125.484 Y134.18 E.0387
G1 X130.722 Y139.417 E.28309
G1 X129.759 Y139.104 E.0387
G1 X124.522 Y133.867 E.28306
G1 X123.559 Y133.554 E.0387
G1 X128.796 Y138.792 E.28309
G1 X127.833 Y138.479 E.0387
G1 X122.596 Y133.241 E.28309
G1 X121.633 Y132.929 E.03869
G1 X126.87 Y138.166 E.28306
G1 X125.908 Y137.853 E.03866
G1 X120.67 Y132.616 E.28309
G1 X119.707 Y132.303 E.0387
M73 P7 R19
G1 X124.945 Y137.54 E.28309
G1 X123.982 Y137.228 E.03869
